<?xml version="1.0" encoding="UTF-8"?>
<map version="1.10" tiledversion="1.11.2" orientation="orthogonal" renderorder="right-down" compressionlevel="0" width="14" height="8" tilewidth="16" tileheight="16" infinite="0" nextlayerid="19" nextobjectid="137">
 <properties>
  <property name="AllowGiantCrops" value="T"/>
  <property name="AllowGrassSurviveInWinter" value="T"/>
  <property name="CanBuildHere" value="T"/>
  <property name="ClearEmptyDirtOnNewMonth" value="T"/>
  <property name="EnableGrassSpread" value="T"/>
  <property name="ForceAllowTreePlanting" value="T"/>
  <property name="IsFarm" value="T"/>
  <property name="Outdoors" value="T"/>
  <property name="PassOutSafe" value="T"/>
  <property name="SpawnBeachFarmForage" value="T"/>
  <property name="SpawnDebrisOnNewMonth" value="T"/>
  <property name="SpawnDebrisOnNewYear" value="T"/>
  <property name="SpawnGrassFromPathsOnNewYear" value="T"/>
 </properties>
 <tileset firstgid="1" name="untitled tile sheet" tilewidth="16" tileheight="16" tilecount="1975" columns="25">
  <image source="spring_outdoorsTileSheet.png" width="400" height="1264"/>
  <tile id="150">
   <properties>
    <property name="Buildable" value="T"/>
    <property name="Type" value="Grass"/>
   </properties>
  </tile>
  <tile id="151">
   <properties>
    <property name="Buildable" value="T"/>
    <property name="Type" value="Grass"/>
   </properties>
   <animation>
    <frame tileid="151" duration="1000"/>
    <frame tileid="152" duration="1000"/>
   </animation>
  </tile>
  <tile id="152">
   <properties>
    <property name="Buildable" value="T"/>
    <property name="Type" value="Grass"/>
   </properties>
  </tile>
  <tile id="153">
   <properties>
    <property name="Buildable" value="T"/>
    <property name="Diggable" value="T"/>
    <property name="Type" value="Dirt"/>
   </properties>
  </tile>
  <tile id="156">
   <properties>
    <property name="Buildable" value="T"/>
   </properties>
  </tile>
  <tile id="175">
   <properties>
    <property name="Buildable" value="T"/>
    <property name="Type" value="Grass"/>
   </properties>
  </tile>
  <tile id="176">
   <properties>
    <property name="Buildable" value="T"/>
    <property name="Diggable" value="T"/>
    <property name="Type" value="Dirt"/>
   </properties>
  </tile>
  <tile id="177">
   <properties>
    <property name="Buildable" value="T"/>
    <property name="CanPlantTrees" value="T"/>
    <property name="NoSpawn" value="T"/>
   </properties>
  </tile>
  <tile id="178">
   <properties>
    <property name="Buildable" value="T"/>
    <property name="Diggable" value="T"/>
    <property name="Type" value="Dirt"/>
   </properties>
  </tile>
  <tile id="179">
   <properties>
    <property name="Buildable" value="T"/>
    <property name="CanPlantTrees" value="T"/>
    <property name="NoSpawn" value="T"/>
   </properties>
  </tile>
  <tile id="180">
   <properties>
    <property name="Buildable" value="T"/>
    <property name="CanPlantTrees" value="T"/>
    <property name="NoSpawn" value="T"/>
   </properties>
  </tile>
  <tile id="181">
   <properties>
    <property name="Buildable" value="T"/>
   </properties>
  </tile>
  <tile id="182">
   <properties>
    <property name="Buildable" value="T"/>
   </properties>
  </tile>
  <tile id="183">
   <animation>
    <frame tileid="183" duration="1000"/>
    <frame tileid="1182" duration="1000"/>
   </animation>
  </tile>
  <tile id="184">
   <animation>
    <frame tileid="184" duration="1000"/>
    <frame tileid="1183" duration="1000"/>
   </animation>
  </tile>
  <tile id="185">
   <animation>
    <frame tileid="185" duration="1000"/>
    <frame tileid="1184" duration="1000"/>
   </animation>
  </tile>
  <tile id="200">
   <properties>
    <property name="Buildable" value="T"/>
    <property name="CanPlantTrees" value="T"/>
    <property name="NoSpawn" value="T"/>
   </properties>
  </tile>
  <tile id="201">
   <properties>
    <property name="Buildable" value="T"/>
    <property name="CanPlantTrees" value="T"/>
    <property name="NoSpawn" value="T"/>
   </properties>
  </tile>
  <tile id="202">
   <properties>
    <property name="Buildable" value="T"/>
    <property name="CanPlantTrees" value="T"/>
    <property name="NoSpawn" value="T"/>
    <property name="Type" value="Dirt"/>
   </properties>
  </tile>
  <tile id="203">
   <properties>
    <property name="Buildable" value="T"/>
    <property name="CanPlantTrees" value="T"/>
    <property name="NoSpawn" value="T"/>
   </properties>
  </tile>
  <tile id="204">
   <properties>
    <property name="Buildable" value="T"/>
    <property name="NoSpawn" value="T"/>
   </properties>
  </tile>
  <tile id="205">
   <properties>
    <property name="Buildable" value="T"/>
    <property name="CanPlantTrees" value="T"/>
    <property name="NoSpawn" value="T"/>
   </properties>
  </tile>
  <tile id="206">
   <properties>
    <property name="Buildable" value="T"/>
    <property name="Diggable" value="T"/>
    <property name="Type" value="Dirt"/>
   </properties>
  </tile>
  <tile id="207">
   <properties>
    <property name="Buildable" value="T"/>
    <property name="Diggable" value="T"/>
    <property name="Type" value="Dirt"/>
   </properties>
  </tile>
  <tile id="208">
   <animation>
    <frame tileid="208" duration="1000"/>
    <frame tileid="1207" duration="1000"/>
   </animation>
  </tile>
  <tile id="210">
   <animation>
    <frame tileid="210" duration="1000"/>
    <frame tileid="1209" duration="1000"/>
   </animation>
  </tile>
  <tile id="225">
   <properties>
    <property name="Buildable" value="T"/>
    <property name="CanPlantTrees" value="T"/>
    <property name="NoSpawn" value="T"/>
   </properties>
  </tile>
  <tile id="226">
   <properties>
    <property name="Buildable" value="T"/>
    <property name="Diggable" value="T"/>
    <property name="Type" value="Dirt"/>
   </properties>
  </tile>
  <tile id="227">
   <properties>
    <property name="Buildable" value="T"/>
    <property name="Diggable" value="T"/>
    <property name="Type" value="Dirt"/>
   </properties>
  </tile>
  <tile id="228">
   <properties>
    <property name="Buildable" value="T"/>
    <property name="CanPlantTrees" value="T"/>
    <property name="NoSpawn" value="T"/>
   </properties>
  </tile>
  <tile id="229">
   <properties>
    <property name="Buildable" value="T"/>
    <property name="NoSpawn" value="T"/>
   </properties>
  </tile>
  <tile id="230">
   <properties>
    <property name="Buildable" value="T"/>
    <property name="NoSpawn" value="T"/>
   </properties>
  </tile>
  <tile id="231">
   <properties>
    <property name="Buildable" value="T"/>
    <property name="Diggable" value="T"/>
    <property name="Type" value="Dirt"/>
   </properties>
  </tile>
  <tile id="250">
   <properties>
    <property name="Buildable" value="T"/>
    <property name="NoSpawn" value="T"/>
   </properties>
  </tile>
  <tile id="251">
   <properties>
    <property name="Buildable" value="T"/>
    <property name="NoSpawn" value="T"/>
   </properties>
  </tile>
  <tile id="252">
   <properties>
    <property name="Buildable" value="T"/>
    <property name="NoSpawn" value="T"/>
    <property name="Type" value="Dirt"/>
   </properties>
  </tile>
  <tile id="253">
   <properties>
    <property name="Buildable" value="T"/>
    <property name="NoSpawn" value="T"/>
   </properties>
  </tile>
  <tile id="254">
   <properties>
    <property name="Buildable" value="T"/>
   </properties>
  </tile>
  <tile id="255">
   <properties>
    <property name="Buildable" value="T"/>
   </properties>
  </tile>
  <tile id="256">
   <properties>
    <property name="Buildable" value="T"/>
   </properties>
  </tile>
  <tile id="258">
   <animation>
    <frame tileid="258" duration="1000"/>
    <frame tileid="1257" duration="1000"/>
   </animation>
  </tile>
  <tile id="260">
   <animation>
    <frame tileid="260" duration="1000"/>
    <frame tileid="1315" duration="1000"/>
   </animation>
  </tile>
  <tile id="261">
   <properties>
    <property name="Buildable" value="T"/>
    <property name="NoSpawn" value="T"/>
    <property name="Type" value="Grass"/>
   </properties>
  </tile>
  <tile id="275">
   <properties>
    <property name="Buildable" value="T"/>
    <property name="Type" value="Grass"/>
   </properties>
  </tile>
  <tile id="276">
   <properties>
    <property name="Buildable" value="T"/>
    <property name="NoSpawn" value="T"/>
    <property name="Type" value="Grass"/>
   </properties>
  </tile>
  <tile id="277">
   <properties>
    <property name="Buildable" value="T"/>
    <property name="NoSpawn" value="T"/>
    <property name="Type" value="Grass"/>
   </properties>
  </tile>
  <tile id="278">
   <properties>
    <property name="Buildable" value="T"/>
    <property name="NoSpawn" value="T"/>
    <property name="Type" value="Grass"/>
   </properties>
  </tile>
  <tile id="279">
   <properties>
    <property name="Buildable" value="T"/>
    <property name="Type" value="Grass"/>
   </properties>
  </tile>
  <tile id="281">
   <properties>
    <property name="Buildable" value="T"/>
    <property name="NoSpawn" value="T"/>
    <property name="Type" value="Grass"/>
   </properties>
  </tile>
  <tile id="283">
   <animation>
    <frame tileid="283" duration="1000"/>
    <frame tileid="1312" duration="1000"/>
   </animation>
  </tile>
  <tile id="284">
   <animation>
    <frame tileid="284" duration="1000"/>
    <frame tileid="1313" duration="1000"/>
   </animation>
  </tile>
  <tile id="286">
   <properties>
    <property name="Buildable" value="T"/>
    <property name="NoSpawn" value="T"/>
    <property name="Type" value="Grass"/>
   </properties>
  </tile>
  <tile id="300">
   <properties>
    <property name="Buildable" value="T"/>
   </properties>
  </tile>
  <tile id="301">
   <properties>
    <property name="Buildable" value="T"/>
    <property name="NoSpawn" value="T"/>
    <property name="Type" value="Grass"/>
   </properties>
  </tile>
  <tile id="302">
   <properties>
    <property name="Buildable" value="T"/>
    <property name="NoSpawn" value="T"/>
    <property name="Type" value="Grass"/>
   </properties>
  </tile>
  <tile id="303">
   <properties>
    <property name="Buildable" value="T"/>
    <property name="NoSpawn" value="T"/>
    <property name="Type" value="Grass"/>
   </properties>
  </tile>
  <tile id="304">
   <properties>
    <property name="Buildable" value="T"/>
   </properties>
  </tile>
  <tile id="305">
   <properties>
    <property name="Buildable" value="T"/>
   </properties>
  </tile>
  <tile id="306">
   <properties>
    <property name="Buildable" value="T"/>
    <property name="NoSpawn" value="T"/>
    <property name="Type" value="Grass"/>
   </properties>
  </tile>
  <tile id="311">
   <properties>
    <property name="Buildable" value="T"/>
    <property name="NoSpawn" value="T"/>
    <property name="Type" value="Grass"/>
   </properties>
  </tile>
  <tile id="312">
   <properties>
    <property name="Type" value="Wood"/>
   </properties>
  </tile>
  <tile id="313">
   <properties>
    <property name="Type" value="Wood"/>
   </properties>
  </tile>
  <tile id="314">
   <properties>
    <property name="Type" value="Wood"/>
   </properties>
  </tile>
  <tile id="325">
   <properties>
    <property name="Buildable" value="T"/>
    <property name="NoSpawn" value="T"/>
    <property name="Type" value="Grass"/>
   </properties>
  </tile>
  <tile id="326">
   <properties>
    <property name="Buildable" value="T"/>
    <property name="NoSpawn" value="T"/>
    <property name="Type" value="Grass"/>
   </properties>
  </tile>
  <tile id="327">
   <properties>
    <property name="Buildable" value="T"/>
    <property name="NoSpawn" value="T"/>
    <property name="Type" value="Grass"/>
   </properties>
  </tile>
  <tile id="328">
   <properties>
    <property name="Buildable" value="T"/>
    <property name="NoSpawn" value="T"/>
   </properties>
  </tile>
  <tile id="329">
   <properties>
    <property name="Buildable" value="T"/>
   </properties>
  </tile>
  <tile id="331">
   <properties>
    <property name="Buildable" value="T"/>
    <property name="NoSpawn" value="T"/>
    <property name="Type" value="Grass"/>
   </properties>
  </tile>
  <tile id="332">
   <properties>
    <property name="Buildable" value="T"/>
   </properties>
  </tile>
  <tile id="337">
   <properties>
    <property name="Type" value="Wood"/>
   </properties>
  </tile>
  <tile id="338">
   <properties>
    <property name="Type" value="Wood"/>
   </properties>
  </tile>
  <tile id="339">
   <properties>
    <property name="Type" value="Wood"/>
   </properties>
  </tile>
  <tile id="350">
   <properties>
    <property name="Buildable" value="T"/>
    <property name="NoSpawn" value="T"/>
    <property name="Type" value="Grass"/>
   </properties>
  </tile>
  <tile id="351">
   <properties>
    <property name="Buildable" value="T"/>
    <property name="Type" value="Grass"/>
   </properties>
  </tile>
  <tile id="352">
   <properties>
    <property name="Buildable" value="T"/>
    <property name="NoSpawn" value="T"/>
    <property name="Type" value="Grass"/>
   </properties>
  </tile>
  <tile id="353">
   <properties>
    <property name="Buildable" value="T"/>
    <property name="NoSpawn" value="T"/>
   </properties>
  </tile>
  <tile id="354">
   <properties>
    <property name="Buildable" value="T"/>
   </properties>
  </tile>
  <tile id="355">
   <properties>
    <property name="Buildable" value="T"/>
   </properties>
  </tile>
  <tile id="356">
   <properties>
    <property name="Buildable" value="T"/>
   </properties>
  </tile>
  <tile id="357">
   <properties>
    <property name="Buildable" value="T"/>
   </properties>
  </tile>
  <tile id="375">
   <properties>
    <property name="Buildable" value="T"/>
    <property name="NoSpawn" value="T"/>
    <property name="Type" value="Grass"/>
   </properties>
  </tile>
  <tile id="376">
   <properties>
    <property name="Buildable" value="T"/>
    <property name="NoSpawn" value="T"/>
    <property name="Type" value="Grass"/>
   </properties>
  </tile>
  <tile id="377">
   <properties>
    <property name="Buildable" value="T"/>
    <property name="NoSpawn" value="T"/>
    <property name="Type" value="Grass"/>
   </properties>
  </tile>
  <tile id="378">
   <properties>
    <property name="Buildable" value="T"/>
    <property name="NoSpawn" value="T"/>
   </properties>
  </tile>
  <tile id="379">
   <properties>
    <property name="Buildable" value="T"/>
   </properties>
  </tile>
  <tile id="380">
   <properties>
    <property name="Buildable" value="T"/>
   </properties>
  </tile>
  <tile id="381">
   <properties>
    <property name="Buildable" value="T"/>
   </properties>
  </tile>
  <tile id="382">
   <properties>
    <property name="Buildable" value="T"/>
   </properties>
  </tile>
  <tile id="400">
   <properties>
    <property name="Buildable" value="T"/>
   </properties>
  </tile>
  <tile id="401">
   <properties>
    <property name="Buildable" value="T"/>
   </properties>
  </tile>
  <tile id="402">
   <properties>
    <property name="Buildable" value="T"/>
   </properties>
  </tile>
  <tile id="403">
   <properties>
    <property name="Buildable" value="T"/>
    <property name="NoSpawn" value="T"/>
   </properties>
  </tile>
  <tile id="404">
   <properties>
    <property name="Buildable" value="T"/>
   </properties>
  </tile>
  <tile id="405">
   <properties>
    <property name="Buildable" value="T"/>
   </properties>
  </tile>
  <tile id="406">
   <properties>
    <property name="Buildable" value="T"/>
   </properties>
  </tile>
  <tile id="407">
   <properties>
    <property name="Buildable" value="T"/>
   </properties>
  </tile>
  <tile id="463">
   <properties>
    <property name="Buildable" value="T"/>
    <property name="Diggable" value="T"/>
    <property name="Type" value="Dirt"/>
   </properties>
  </tile>
  <tile id="488">
   <properties>
    <property name="Buildable" value="T"/>
    <property name="Diggable" value="T"/>
    <property name="Type" value="Dirt"/>
   </properties>
  </tile>
  <tile id="490">
   <properties>
    <property name="Diggable" value="T"/>
    <property name="Type" value="Dirt"/>
   </properties>
  </tile>
  <tile id="513">
   <properties>
    <property name="Buildable" value="T"/>
    <property name="Diggable" value="T"/>
    <property name="Type" value="Dirt"/>
   </properties>
  </tile>
  <tile id="524">
   <properties>
    <property name="Type" value="Dirt"/>
   </properties>
  </tile>
  <tile id="534">
   <properties>
    <property name="Type" value="Dirt"/>
   </properties>
  </tile>
  <tile id="538">
   <properties>
    <property name="Buildable" value="T"/>
   </properties>
  </tile>
  <tile id="558">
   <properties>
    <property name="AllSpawn" value="T"/>
    <property name="Type" value="Dirt"/>
   </properties>
  </tile>
  <tile id="560">
   <properties>
    <property name="Buildable" value="T"/>
    <property name="Diggable" value="T"/>
    <property name="Type" value="Dirt"/>
   </properties>
  </tile>
  <tile id="561">
   <properties>
    <property name="Buildable" value="T"/>
   </properties>
  </tile>
  <tile id="562">
   <properties>
    <property name="Buildable" value="T"/>
   </properties>
  </tile>
  <tile id="563">
   <properties>
    <property name="Buildable" value="T"/>
   </properties>
  </tile>
  <tile id="564">
   <properties>
    <property name="Buildable" value="T"/>
    <property name="Diggable" value="T"/>
    <property name="Type" value="Dirt"/>
   </properties>
  </tile>
  <tile id="571">
   <properties>
    <property name="NoSpawn" value="T"/>
    <property name="Spawnable" value="F"/>
    <property name="Type" value="Dirt"/>
   </properties>
  </tile>
  <tile id="572">
   <properties>
    <property name="NoSpawn" value="T"/>
    <property name="Spawnable" value="F"/>
    <property name="Type" value="Dirt"/>
   </properties>
  </tile>
  <tile id="573">
   <properties>
    <property name="NoSpawn" value="T"/>
    <property name="Spawnable" value="F"/>
    <property name="Type" value="Dirt"/>
   </properties>
  </tile>
  <tile id="574">
   <properties>
    <property name="NoSpawn" value="T"/>
    <property name="Spawnable" value="F"/>
    <property name="Type" value="Dirt"/>
   </properties>
  </tile>
  <tile id="585">
   <properties>
    <property name="Buildable" value="T"/>
    <property name="Diggable" value="T"/>
    <property name="Type" value="Dirt"/>
   </properties>
  </tile>
  <tile id="586">
   <properties>
    <property name="Buildable" value="T"/>
   </properties>
  </tile>
  <tile id="587">
   <properties>
    <property name="Buildable" value="T"/>
   </properties>
  </tile>
  <tile id="588">
   <properties>
    <property name="Buildable" value="T"/>
   </properties>
  </tile>
  <tile id="589">
   <properties>
    <property name="Buildable" value="T"/>
    <property name="Diggable" value="T"/>
    <property name="Type" value="Dirt"/>
   </properties>
  </tile>
  <tile id="596">
   <properties>
    <property name="NoSpawn" value="T"/>
    <property name="Spawnable" value="F"/>
    <property name="Type" value="Dirt"/>
   </properties>
  </tile>
  <tile id="597">
   <properties>
    <property name="NoSpawn" value="T"/>
    <property name="Spawnable" value="F"/>
    <property name="Type" value="Dirt"/>
   </properties>
  </tile>
  <tile id="598">
   <properties>
    <property name="NoSpawn" value="T"/>
    <property name="Spawnable" value="F"/>
    <property name="Type" value="Dirt"/>
   </properties>
  </tile>
  <tile id="599">
   <properties>
    <property name="NoSpawn" value="T"/>
    <property name="Spawnable" value="F"/>
    <property name="Type" value="Dirt"/>
   </properties>
  </tile>
  <tile id="603">
   <animation>
    <frame tileid="603" duration="1000"/>
    <frame tileid="1287" duration="1000"/>
   </animation>
  </tile>
  <tile id="604">
   <animation>
    <frame tileid="604" duration="1000"/>
    <frame tileid="1288" duration="1000"/>
   </animation>
  </tile>
  <tile id="610">
   <properties>
    <property name="Buildable" value="T"/>
    <property name="Diggable" value="T"/>
    <property name="Type" value="Dirt"/>
   </properties>
  </tile>
  <tile id="611">
   <properties>
    <property name="Buildable" value="T"/>
   </properties>
  </tile>
  <tile id="612">
   <properties>
    <property name="Buildable" value="T"/>
   </properties>
  </tile>
  <tile id="613">
   <properties>
    <property name="Buildable" value="T"/>
   </properties>
  </tile>
  <tile id="614">
   <properties>
    <property name="Buildable" value="T"/>
    <property name="Diggable" value="T"/>
    <property name="Type" value="Dirt"/>
   </properties>
  </tile>
  <tile id="621">
   <properties>
    <property name="NoSpawn" value="T"/>
    <property name="Spawnable" value="F"/>
    <property name="Type" value="Dirt"/>
   </properties>
  </tile>
  <tile id="622">
   <properties>
    <property name="NoSpawn" value="T"/>
    <property name="Spawnable" value="F"/>
    <property name="Type" value="Dirt"/>
   </properties>
  </tile>
  <tile id="623">
   <properties>
    <property name="NoSpawn" value="T"/>
    <property name="Spawnable" value="F"/>
    <property name="Type" value="Dirt"/>
   </properties>
  </tile>
  <tile id="624">
   <properties>
    <property name="NoSpawn" value="T"/>
    <property name="Spawnable" value="F"/>
    <property name="Type" value="Dirt"/>
   </properties>
  </tile>
  <tile id="708">
   <animation>
    <frame tileid="708" duration="1000"/>
    <frame tileid="1234" duration="1000"/>
   </animation>
  </tile>
  <tile id="709">
   <animation>
    <frame tileid="709" duration="1000"/>
    <frame tileid="1235" duration="1000"/>
   </animation>
  </tile>
  <tile id="710">
   <animation>
    <frame tileid="710" duration="1000"/>
    <frame tileid="1236" duration="1000"/>
   </animation>
  </tile>
  <tile id="735">
   <animation>
    <frame tileid="735" duration="1000"/>
    <frame tileid="1261" duration="1000"/>
   </animation>
  </tile>
  <tile id="758">
   <animation>
    <frame tileid="758" duration="1000"/>
    <frame tileid="1284" duration="1000"/>
   </animation>
  </tile>
  <tile id="779">
   <properties>
    <property name="Passable" value="T"/>
    <property name="Type" value="Wood"/>
   </properties>
  </tile>
  <tile id="780">
   <properties>
    <property name="Passable" value="T"/>
    <property name="Type" value="Wood"/>
   </properties>
  </tile>
  <tile id="781">
   <properties>
    <property name="Passable" value="T"/>
    <property name="Type" value="Wood"/>
   </properties>
  </tile>
  <tile id="782">
   <properties>
    <property name="Passable" value="T"/>
    <property name="Type" value="Wood"/>
   </properties>
  </tile>
  <tile id="809">
   <properties>
    <property name="NPCBarrier" value="T"/>
    <property name="NoSpawn" value="All"/>
    <property name="Type" value="Wood"/>
   </properties>
  </tile>
  <tile id="812">
   <properties>
    <property name="Type" value="Stone"/>
   </properties>
  </tile>
  <tile id="838">
   <properties>
    <property name="NoSpawn" value="T"/>
    <property name="Spawnable" value="F"/>
    <property name="Type" value="Stone"/>
   </properties>
  </tile>
  <tile id="974">
   <properties>
    <property name="NoSpawn" value="All"/>
    <property name="Type" value="Grass"/>
   </properties>
  </tile>
  <tile id="1227">
   <properties>
    <property name="Water" value="T"/>
   </properties>
  </tile>
  <tile id="1228">
   <properties>
    <property name="Water" value="T"/>
   </properties>
  </tile>
  <tile id="1229">
   <properties>
    <property name="Water" value="T"/>
   </properties>
  </tile>
  <tile id="1230">
   <properties>
    <property name="Water" value="T"/>
   </properties>
  </tile>
  <tile id="1231">
   <properties>
    <property name="Water" value="T"/>
   </properties>
  </tile>
  <tile id="1240">
   <properties>
    <property name="Water" value="T"/>
   </properties>
  </tile>
  <tile id="1241">
   <properties>
    <property name="Water" value="T"/>
   </properties>
  </tile>
  <tile id="1242">
   <properties>
    <property name="Water" value="T"/>
   </properties>
  </tile>
  <tile id="1243">
   <properties>
    <property name="Water" value="T"/>
   </properties>
  </tile>
  <tile id="1244">
   <properties>
    <property name="Water" value="T"/>
   </properties>
  </tile>
  <tile id="1245">
   <properties>
    <property name="Water" value="T"/>
   </properties>
  </tile>
  <tile id="1246">
   <properties>
    <property name="Water" value="T"/>
   </properties>
  </tile>
  <tile id="1247">
   <properties>
    <property name="Water" value="T"/>
   </properties>
  </tile>
  <tile id="1248">
   <properties>
    <property name="Water" value="T"/>
   </properties>
  </tile>
  <tile id="1249">
   <properties>
    <property name="Water" value="T"/>
   </properties>
  </tile>
  <tile id="1252">
   <properties>
    <property name="Water" value="T"/>
   </properties>
  </tile>
  <tile id="1253">
   <properties>
    <property name="Water" value="T"/>
   </properties>
  </tile>
  <tile id="1254">
   <properties>
    <property name="Water" value="T"/>
   </properties>
  </tile>
  <tile id="1255">
   <properties>
    <property name="Water" value="T"/>
   </properties>
  </tile>
  <tile id="1256">
   <properties>
    <property name="Water" value="T"/>
   </properties>
  </tile>
  <tile id="1265">
   <properties>
    <property name="Water" value="T"/>
   </properties>
  </tile>
  <tile id="1266">
   <properties>
    <property name="Water" value="T"/>
   </properties>
  </tile>
  <tile id="1267">
   <properties>
    <property name="Water" value="T"/>
   </properties>
  </tile>
  <tile id="1268">
   <properties>
    <property name="Water" value="T"/>
   </properties>
  </tile>
  <tile id="1269">
   <properties>
    <property name="Water" value="T"/>
   </properties>
  </tile>
  <tile id="1270">
   <properties>
    <property name="Water" value="T"/>
   </properties>
  </tile>
  <tile id="1271">
   <properties>
    <property name="Water" value="T"/>
   </properties>
  </tile>
  <tile id="1272">
   <properties>
    <property name="Water" value="T"/>
   </properties>
  </tile>
  <tile id="1273">
   <properties>
    <property name="Water" value="T"/>
   </properties>
  </tile>
  <tile id="1274">
   <properties>
    <property name="Water" value="T"/>
   </properties>
  </tile>
  <tile id="1277">
   <properties>
    <property name="Water" value="T"/>
   </properties>
  </tile>
  <tile id="1278">
   <properties>
    <property name="Water" value="T"/>
   </properties>
  </tile>
  <tile id="1279">
   <properties>
    <property name="Water" value="T"/>
   </properties>
  </tile>
  <tile id="1280">
   <properties>
    <property name="Water" value="T"/>
   </properties>
  </tile>
  <tile id="1281">
   <properties>
    <property name="Water" value="T"/>
   </properties>
  </tile>
  <tile id="1297">
   <properties>
    <property name="Water" value="T"/>
   </properties>
  </tile>
  <tile id="1298">
   <properties>
    <property name="Water" value="T"/>
   </properties>
  </tile>
  <tile id="1299">
   <properties>
    <property name="Water" value="T"/>
   </properties>
  </tile>
  <tile id="1302">
   <properties>
    <property name="Water" value="T"/>
   </properties>
  </tile>
  <tile id="1303">
   <properties>
    <property name="Water" value="T"/>
   </properties>
  </tile>
  <tile id="1304">
   <properties>
    <property name="Water" value="T"/>
   </properties>
  </tile>
  <tile id="1305">
   <properties>
    <property name="Water" value="T"/>
   </properties>
  </tile>
  <tile id="1306">
   <properties>
    <property name="Water" value="T"/>
   </properties>
  </tile>
  <tile id="1322">
   <properties>
    <property name="Water" value="T"/>
   </properties>
  </tile>
  <tile id="1323">
   <properties>
    <property name="Water" value="T"/>
   </properties>
  </tile>
  <tile id="1324">
   <properties>
    <property name="Water" value="T"/>
   </properties>
  </tile>
  <tile id="1937">
   <properties>
    <property name="NoFurniture" value="T"/>
    <property name="NoSpawn" value="All"/>
    <property name="Type" value="Wood"/>
   </properties>
  </tile>
  <tile id="1938">
   <properties>
    <property name="Type" value="Wood"/>
   </properties>
  </tile>
  <tile id="1962">
   <properties>
    <property name="NoFurniture" value="T"/>
    <property name="NoSpawn" value="All"/>
    <property name="Type" value="Wood"/>
   </properties>
  </tile>
  <tile id="1963">
   <properties>
    <property name="NoFurniture" value="T"/>
    <property name="NoSpawn" value="All"/>
    <property name="Type" value="Wood"/>
   </properties>
  </tile>
  <tile id="1964">
   <properties>
    <property name="NoFurniture" value="T"/>
    <property name="NoSpawn" value="All"/>
    <property name="Type" value="Stone"/>
    <property name="placeable" value="F"/>
   </properties>
  </tile>
  <tile id="1965">
   <properties>
    <property name="NoFurniture" value="T"/>
    <property name="NoSpawn" value="All"/>
    <property name="Type" value="Stone"/>
    <property name="placeable" value="F"/>
   </properties>
  </tile>
  <tile id="1966">
   <properties>
    <property name="NoFurniture" value="T"/>
    <property name="NoSpawn" value="All"/>
    <property name="Type" value="Stone"/>
    <property name="placeable" value="F"/>
   </properties>
  </tile>
 </tileset>
 <tileset firstgid="1976" name="untitled tile sheet2" tilewidth="16" tileheight="16" tilecount="1280" columns="32">
  <image source="spring_island_tilesheet_1.png" width="512" height="640"/>
  <tile id="7">
   <properties>
    <property name="Water" value="T"/>
   </properties>
  </tile>
  <tile id="8">
   <properties>
    <property name="Water" value="T"/>
   </properties>
  </tile>
  <tile id="33">
   <properties>
    <property name="Buildable" value="T"/>
    <property name="Diggable" value="T"/>
    <property name="NoSprinklers" value="T"/>
    <property name="Type" value="Dirt"/>
   </properties>
  </tile>
  <tile id="34">
   <properties>
    <property name="Buildable" value="T"/>
    <property name="Diggable" value="T"/>
    <property name="NoSprinklers" value="T"/>
    <property name="Type" value="Dirt"/>
   </properties>
  </tile>
  <tile id="35">
   <properties>
    <property name="Buildable" value="T"/>
    <property name="Diggable" value="T"/>
    <property name="NoSprinklers" value="T"/>
    <property name="Type" value="Dirt"/>
   </properties>
  </tile>
  <tile id="36">
   <properties>
    <property name="Buildable" value="T"/>
    <property name="NoSprinklers" value="T"/>
    <property name="Type" value="Dirt"/>
   </properties>
  </tile>
  <tile id="37">
   <properties>
    <property name="Buildable" value="T"/>
    <property name="NoSprinklers" value="T"/>
    <property name="Type" value="Dirt"/>
   </properties>
  </tile>
  <tile id="38">
   <properties>
    <property name="Buildable" value="T"/>
    <property name="NoSprinklers" value="T"/>
    <property name="Type" value="Dirt"/>
   </properties>
  </tile>
  <tile id="39">
   <properties>
    <property name="BeachSpawn" value="T"/>
    <property name="Buildable" value="T"/>
    <property name="NoSprinklers" value="T"/>
    <property name="Spawnable" value="T"/>
    <property name="Type" value="Dirt"/>
   </properties>
  </tile>
  <tile id="40">
   <properties>
    <property name="Buildable" value="T"/>
    <property name="Diggable" value="T"/>
    <property name="NoSprinklers" value="T"/>
    <property name="Type" value="Dirt"/>
   </properties>
  </tile>
  <tile id="41">
   <properties>
    <property name="Buildable" value="T"/>
    <property name="Diggable" value="T"/>
    <property name="NoSprinklers" value="T"/>
    <property name="Type" value="Dirt"/>
   </properties>
  </tile>
  <tile id="64">
   <properties>
    <property name="BeachSpawn" value="T"/>
    <property name="Buildable" value="T"/>
    <property name="NoSprinklers" value="T"/>
    <property name="Type" value="Dirt"/>
   </properties>
  </tile>
  <tile id="65">
   <properties>
    <property name="BeachSpawn" value="T"/>
    <property name="Buildable" value="T"/>
    <property name="NoSprinklers" value="T"/>
    <property name="Type" value="Dirt"/>
   </properties>
  </tile>
  <tile id="66">
   <properties>
    <property name="BeachSpawn" value="T"/>
    <property name="Buildable" value="T"/>
    <property name="NoSprinklers" value="T"/>
    <property name="Type" value="Dirt"/>
   </properties>
  </tile>
  <tile id="67">
   <properties>
    <property name="BeachSpawn" value="T"/>
    <property name="Buildable" value="T"/>
    <property name="NoSprinklers" value="T"/>
    <property name="Type" value="Dirt"/>
   </properties>
  </tile>
  <tile id="71">
   <properties>
    <property name="Buildable" value="T"/>
    <property name="NoSprinklers" value="T"/>
    <property name="Type" value="Dirt"/>
   </properties>
  </tile>
  <tile id="72">
   <properties>
    <property name="Buildable" value="T"/>
    <property name="Diggable" value="T"/>
    <property name="NoSprinklers" value="T"/>
    <property name="Type" value="Dirt"/>
   </properties>
  </tile>
  <tile id="73">
   <properties>
    <property name="Buildable" value="T"/>
    <property name="Diggable" value="T"/>
    <property name="NoSprinklers" value="T"/>
    <property name="Type" value="Dirt"/>
   </properties>
  </tile>
  <tile id="96">
   <properties>
    <property name="BeachSpawn" value="T"/>
    <property name="Buildable" value="T"/>
    <property name="NoSprinklers" value="T"/>
    <property name="Type" value="Dirt"/>
   </properties>
  </tile>
  <tile id="97">
   <properties>
    <property name="BeachSpawn" value="T"/>
    <property name="Buildable" value="T"/>
    <property name="NoSprinklers" value="T"/>
    <property name="Type" value="Dirt"/>
   </properties>
  </tile>
  <tile id="98">
   <properties>
    <property name="BeachSpawn" value="T"/>
    <property name="Buildable" value="T"/>
    <property name="NoSprinklers" value="T"/>
    <property name="Type" value="Dirt"/>
   </properties>
  </tile>
  <tile id="99">
   <properties>
    <property name="BeachSpawn" value="T"/>
    <property name="Buildable" value="T"/>
    <property name="NoSprinklers" value="T"/>
    <property name="Type" value="Dirt"/>
   </properties>
  </tile>
  <tile id="101">
   <properties>
    <property name="Type" value="Stone"/>
   </properties>
  </tile>
  <tile id="103">
   <properties>
    <property name="Buildable" value="T"/>
    <property name="NoSprinklers" value="T"/>
    <property name="Type" value="Dirt"/>
   </properties>
  </tile>
  <tile id="104">
   <properties>
    <property name="Buildable" value="T"/>
    <property name="NoSprinklers" value="T"/>
    <property name="Type" value="Dirt"/>
   </properties>
  </tile>
  <tile id="128">
   <properties>
    <property name="BeachSpawn" value="T"/>
    <property name="Buildable" value="T"/>
    <property name="NoSprinklers" value="T"/>
    <property name="Type" value="Dirt"/>
   </properties>
  </tile>
  <tile id="129">
   <properties>
    <property name="BeachSpawn" value="T"/>
    <property name="Buildable" value="T"/>
    <property name="NoSprinklers" value="T"/>
    <property name="Type" value="Dirt"/>
   </properties>
  </tile>
  <tile id="130">
   <properties>
    <property name="BeachSpawn" value="T"/>
    <property name="Buildable" value="T"/>
    <property name="NoSprinklers" value="T"/>
    <property name="Type" value="Dirt"/>
   </properties>
  </tile>
  <tile id="131">
   <properties>
    <property name="BeachSpawn" value="T"/>
    <property name="Buildable" value="T"/>
    <property name="NoSprinklers" value="T"/>
    <property name="Type" value="Dirt"/>
   </properties>
  </tile>
  <tile id="135">
   <properties>
    <property name="Water" value="T"/>
   </properties>
  </tile>
  <tile id="160">
   <properties>
    <property name="Water" value="T"/>
   </properties>
  </tile>
  <tile id="161">
   <properties>
    <property name="Water" value="T"/>
   </properties>
  </tile>
  <tile id="162">
   <properties>
    <property name="Water" value="T"/>
   </properties>
  </tile>
  <tile id="163">
   <properties>
    <property name="Water" value="T"/>
   </properties>
  </tile>
  <tile id="164">
   <properties>
    <property name="Water" value="T"/>
   </properties>
  </tile>
  <tile id="165">
   <properties>
    <property name="Water" value="T"/>
   </properties>
  </tile>
  <tile id="166">
   <properties>
    <property name="Water" value="T"/>
   </properties>
  </tile>
  <tile id="167">
   <properties>
    <property name="Water" value="T"/>
   </properties>
  </tile>
  <tile id="168">
   <properties>
    <property name="Water" value="T"/>
   </properties>
  </tile>
  <tile id="173">
   <properties>
    <property name="Buildable" value="T"/>
    <property name="Diggable" value="T"/>
    <property name="NoSprinklers" value="T"/>
    <property name="Type" value="Dirt"/>
   </properties>
  </tile>
  <tile id="174">
   <properties>
    <property name="Buildable" value="T"/>
    <property name="Diggable" value="T"/>
    <property name="NoSprinklers" value="T"/>
    <property name="Type" value="Dirt"/>
   </properties>
  </tile>
  <tile id="175">
   <properties>
    <property name="Buildable" value="T"/>
    <property name="Diggable" value="T"/>
    <property name="NoSprinklers" value="T"/>
    <property name="Type" value="Dirt"/>
   </properties>
  </tile>
  <tile id="176">
   <properties>
    <property name="Buildable" value="T"/>
    <property name="Diggable" value="T"/>
    <property name="NoSprinklers" value="T"/>
    <property name="Type" value="Dirt"/>
   </properties>
  </tile>
  <tile id="192">
   <properties>
    <property name="Water" value="T"/>
   </properties>
  </tile>
  <tile id="193">
   <properties>
    <property name="Water" value="T"/>
   </properties>
  </tile>
  <tile id="197">
   <properties>
    <property name="Type" value="Dirt"/>
    <property name="Water" value="T"/>
   </properties>
  </tile>
  <tile id="198">
   <properties>
    <property name="Water" value="T"/>
   </properties>
  </tile>
  <tile id="199">
   <properties>
    <property name="Water" value="T"/>
   </properties>
  </tile>
  <tile id="200">
   <properties>
    <property name="Water" value="T"/>
   </properties>
  </tile>
  <tile id="201">
   <properties>
    <property name="Type" value="Stone"/>
   </properties>
  </tile>
  <tile id="202">
   <properties>
    <property name="Type" value="Stone"/>
   </properties>
  </tile>
  <tile id="203">
   <properties>
    <property name="Type" value="Stone"/>
   </properties>
  </tile>
  <tile id="205">
   <properties>
    <property name="Buildable" value="T"/>
    <property name="Diggable" value="T"/>
    <property name="NoSprinklers" value="T"/>
    <property name="Type" value="Dirt"/>
   </properties>
  </tile>
  <tile id="206">
   <properties>
    <property name="Buildable" value="T"/>
    <property name="Diggable" value="T"/>
    <property name="NoSprinklers" value="T"/>
    <property name="Type" value="Dirt"/>
   </properties>
  </tile>
  <tile id="207">
   <properties>
    <property name="Buildable" value="T"/>
    <property name="Diggable" value="T"/>
    <property name="NoSprinklers" value="T"/>
    <property name="Type" value="Dirt"/>
   </properties>
  </tile>
  <tile id="208">
   <properties>
    <property name="Buildable" value="T"/>
    <property name="Diggable" value="T"/>
    <property name="NoSprinklers" value="T"/>
    <property name="Type" value="Dirt"/>
   </properties>
  </tile>
  <tile id="225">
   <properties>
    <property name="Water" value="T"/>
   </properties>
  </tile>
  <tile id="229">
   <properties>
    <property name="Water" value="T"/>
   </properties>
  </tile>
  <tile id="230">
   <properties>
    <property name="Water" value="T"/>
   </properties>
  </tile>
  <tile id="231">
   <properties>
    <property name="Water" value="T"/>
   </properties>
  </tile>
  <tile id="232">
   <properties>
    <property name="Water" value="T"/>
   </properties>
  </tile>
  <tile id="234">
   <properties>
    <property name="Water" value="T"/>
   </properties>
  </tile>
  <tile id="235">
   <properties>
    <property name="Water" value="T"/>
   </properties>
  </tile>
  <tile id="236">
   <properties>
    <property name="Water" value="T"/>
   </properties>
  </tile>
  <tile id="237">
   <properties>
    <property name="Buildable" value="T"/>
    <property name="Diggable" value="T"/>
    <property name="NoSprinklers" value="T"/>
    <property name="Type" value="Dirt"/>
   </properties>
  </tile>
  <tile id="238">
   <properties>
    <property name="Buildable" value="T"/>
    <property name="Diggable" value="T"/>
    <property name="NoSprinklers" value="T"/>
    <property name="Type" value="Dirt"/>
   </properties>
  </tile>
  <tile id="239">
   <properties>
    <property name="Buildable" value="T"/>
    <property name="NoSprinklers" value="T"/>
    <property name="Type" value="Dirt"/>
   </properties>
  </tile>
  <tile id="240">
   <properties>
    <property name="Buildable" value="T"/>
    <property name="NoSprinklers" value="T"/>
    <property name="Type" value="Dirt"/>
   </properties>
  </tile>
  <tile id="256">
   <properties>
    <property name="Water" value="T"/>
   </properties>
  </tile>
  <tile id="257">
   <properties>
    <property name="Water" value="T"/>
   </properties>
  </tile>
  <tile id="261">
   <properties>
    <property name="Passable" value="T"/>
    <property name="Type" value="Dirt"/>
   </properties>
   <animation>
    <frame tileid="261" duration="250"/>
    <frame tileid="261" duration="250"/>
    <frame tileid="261" duration="250"/>
    <frame tileid="261" duration="250"/>
    <frame tileid="262" duration="250"/>
    <frame tileid="263" duration="250"/>
    <frame tileid="264" duration="250"/>
    <frame tileid="264" duration="250"/>
    <frame tileid="265" duration="250"/>
    <frame tileid="266" duration="250"/>
    <frame tileid="267" duration="250"/>
    <frame tileid="261" duration="250"/>
    <frame tileid="261" duration="250"/>
   </animation>
  </tile>
  <tile id="262">
   <properties>
    <property name="Passable" value="T"/>
    <property name="Type" value="Dirt"/>
   </properties>
  </tile>
  <tile id="263">
   <properties>
    <property name="Passable" value="T"/>
    <property name="Type" value="Dirt"/>
   </properties>
  </tile>
  <tile id="264">
   <properties>
    <property name="Passable" value="T"/>
    <property name="Type" value="Dirt"/>
   </properties>
  </tile>
  <tile id="265">
   <properties>
    <property name="Passable" value="T"/>
    <property name="Type" value="Dirt"/>
   </properties>
  </tile>
  <tile id="266">
   <properties>
    <property name="Passable" value="T"/>
    <property name="Type" value="Dirt"/>
   </properties>
  </tile>
  <tile id="267">
   <properties>
    <property name="Passable" value="T"/>
    <property name="Type" value="Dirt"/>
   </properties>
  </tile>
  <tile id="268">
   <properties>
    <property name="Water" value="T"/>
   </properties>
  </tile>
  <tile id="273">
   <properties>
    <property name="BeachSpawn" value="T"/>
    <property name="Buildable" value="T"/>
    <property name="NoSprinklers" value="T"/>
    <property name="Type" value="Dirt"/>
   </properties>
  </tile>
  <tile id="288">
   <properties>
    <property name="Water" value="T"/>
   </properties>
  </tile>
  <tile id="289">
   <properties>
    <property name="Water" value="T"/>
   </properties>
  </tile>
  <tile id="293">
   <properties>
    <property name="Passable" value="T"/>
    <property name="Type" value="Dirt"/>
   </properties>
   <animation>
    <frame tileid="293" duration="250"/>
    <frame tileid="293" duration="250"/>
    <frame tileid="293" duration="250"/>
    <frame tileid="293" duration="250"/>
    <frame tileid="294" duration="250"/>
    <frame tileid="295" duration="250"/>
    <frame tileid="296" duration="250"/>
    <frame tileid="296" duration="250"/>
    <frame tileid="297" duration="250"/>
    <frame tileid="298" duration="250"/>
    <frame tileid="299" duration="250"/>
    <frame tileid="293" duration="250"/>
    <frame tileid="293" duration="250"/>
   </animation>
  </tile>
  <tile id="294">
   <properties>
    <property name="Passable" value="T"/>
    <property name="Type" value="Dirt"/>
   </properties>
  </tile>
  <tile id="295">
   <properties>
    <property name="Passable" value="T"/>
    <property name="Type" value="Dirt"/>
   </properties>
  </tile>
  <tile id="296">
   <properties>
    <property name="Passable" value="T"/>
    <property name="Type" value="Dirt"/>
   </properties>
  </tile>
  <tile id="297">
   <properties>
    <property name="Passable" value="T"/>
    <property name="Type" value="Dirt"/>
   </properties>
  </tile>
  <tile id="298">
   <properties>
    <property name="Passable" value="T"/>
    <property name="Type" value="Dirt"/>
   </properties>
  </tile>
  <tile id="299">
   <properties>
    <property name="Passable" value="T"/>
    <property name="Type" value="Dirt"/>
   </properties>
  </tile>
  <tile id="300">
   <properties>
    <property name="Water" value="T"/>
   </properties>
  </tile>
  <tile id="303">
   <properties>
    <property name="Buildable" value="T"/>
    <property name="Diggable" value="T"/>
    <property name="NoSprinklers" value="T"/>
    <property name="Type" value="Dirt"/>
   </properties>
  </tile>
  <tile id="304">
   <properties>
    <property name="NoSprinklers" value="T"/>
    <property name="Type" value="Stone"/>
   </properties>
  </tile>
  <tile id="305">
   <properties>
    <property name="Buildable" value="T"/>
    <property name="Type" value="Grass"/>
   </properties>
  </tile>
  <tile id="306">
   <properties>
    <property name="Buildable" value="T"/>
   </properties>
  </tile>
  <tile id="320">
   <properties>
    <property name="Water" value="T"/>
   </properties>
  </tile>
  <tile id="321">
   <properties>
    <property name="Water" value="T"/>
   </properties>
  </tile>
  <tile id="325">
   <properties>
    <property name="Passable" value="T"/>
    <property name="Type" value="Dirt"/>
   </properties>
   <animation>
    <frame tileid="325" duration="250"/>
    <frame tileid="325" duration="250"/>
    <frame tileid="325" duration="250"/>
    <frame tileid="325" duration="250"/>
    <frame tileid="326" duration="250"/>
    <frame tileid="327" duration="250"/>
    <frame tileid="328" duration="250"/>
    <frame tileid="328" duration="250"/>
    <frame tileid="329" duration="250"/>
    <frame tileid="330" duration="250"/>
    <frame tileid="331" duration="250"/>
    <frame tileid="325" duration="250"/>
    <frame tileid="325" duration="250"/>
   </animation>
  </tile>
  <tile id="326">
   <properties>
    <property name="Passable" value="T"/>
    <property name="Type" value="Dirt"/>
   </properties>
  </tile>
  <tile id="327">
   <properties>
    <property name="Passable" value="T"/>
    <property name="Type" value="Dirt"/>
   </properties>
  </tile>
  <tile id="328">
   <properties>
    <property name="Passable" value="T"/>
    <property name="Type" value="Dirt"/>
   </properties>
  </tile>
  <tile id="329">
   <properties>
    <property name="Passable" value="T"/>
    <property name="Type" value="Dirt"/>
   </properties>
  </tile>
  <tile id="330">
   <properties>
    <property name="Passable" value="T"/>
    <property name="Type" value="Dirt"/>
   </properties>
  </tile>
  <tile id="331">
   <properties>
    <property name="Passable" value="T"/>
    <property name="Type" value="Dirt"/>
   </properties>
  </tile>
  <tile id="335">
   <properties>
    <property name="Water" value="T"/>
   </properties>
  </tile>
  <tile id="357">
   <properties>
    <property name="Passable" value="T"/>
    <property name="Type" value="Dirt"/>
   </properties>
   <animation>
    <frame tileid="357" duration="250"/>
    <frame tileid="357" duration="250"/>
    <frame tileid="357" duration="250"/>
    <frame tileid="357" duration="250"/>
    <frame tileid="358" duration="250"/>
    <frame tileid="359" duration="250"/>
    <frame tileid="360" duration="250"/>
    <frame tileid="360" duration="250"/>
    <frame tileid="361" duration="250"/>
    <frame tileid="362" duration="250"/>
    <frame tileid="363" duration="250"/>
    <frame tileid="357" duration="250"/>
    <frame tileid="357" duration="250"/>
   </animation>
  </tile>
  <tile id="358">
   <properties>
    <property name="Passable" value="T"/>
    <property name="Type" value="Dirt"/>
   </properties>
  </tile>
  <tile id="359">
   <properties>
    <property name="Passable" value="T"/>
    <property name="Type" value="Dirt"/>
   </properties>
  </tile>
  <tile id="360">
   <properties>
    <property name="Passable" value="T"/>
    <property name="Type" value="Dirt"/>
   </properties>
  </tile>
  <tile id="361">
   <properties>
    <property name="Passable" value="T"/>
    <property name="Type" value="Dirt"/>
   </properties>
  </tile>
  <tile id="362">
   <properties>
    <property name="Passable" value="T"/>
    <property name="Type" value="Dirt"/>
   </properties>
  </tile>
  <tile id="363">
   <properties>
    <property name="Passable" value="T"/>
    <property name="Type" value="Dirt"/>
   </properties>
  </tile>
  <tile id="367">
   <properties>
    <property name="Buildable" value="T"/>
    <property name="Type" value="Dirt"/>
   </properties>
  </tile>
  <tile id="368">
   <properties>
    <property name="Water" value="T"/>
   </properties>
  </tile>
  <tile id="389">
   <properties>
    <property name="Passable" value="T"/>
    <property name="Type" value="Dirt"/>
   </properties>
   <animation>
    <frame tileid="389" duration="250"/>
    <frame tileid="389" duration="250"/>
    <frame tileid="389" duration="250"/>
    <frame tileid="389" duration="250"/>
    <frame tileid="390" duration="250"/>
    <frame tileid="391" duration="250"/>
    <frame tileid="392" duration="250"/>
    <frame tileid="392" duration="250"/>
    <frame tileid="393" duration="250"/>
    <frame tileid="394" duration="250"/>
    <frame tileid="395" duration="250"/>
    <frame tileid="389" duration="250"/>
    <frame tileid="389" duration="250"/>
   </animation>
  </tile>
  <tile id="390">
   <properties>
    <property name="Passable" value="T"/>
    <property name="Type" value="Dirt"/>
   </properties>
  </tile>
  <tile id="391">
   <properties>
    <property name="Passable" value="T"/>
    <property name="Type" value="Dirt"/>
   </properties>
  </tile>
  <tile id="392">
   <properties>
    <property name="Passable" value="T"/>
    <property name="Type" value="Dirt"/>
   </properties>
  </tile>
  <tile id="393">
   <properties>
    <property name="Passable" value="T"/>
    <property name="Type" value="Dirt"/>
   </properties>
  </tile>
  <tile id="394">
   <properties>
    <property name="Passable" value="T"/>
    <property name="Type" value="Dirt"/>
   </properties>
  </tile>
  <tile id="395">
   <properties>
    <property name="Passable" value="T"/>
    <property name="Type" value="Dirt"/>
   </properties>
  </tile>
  <tile id="421">
   <properties>
    <property name="Passable" value="T"/>
    <property name="Type" value="Dirt"/>
   </properties>
   <animation>
    <frame tileid="421" duration="250"/>
    <frame tileid="421" duration="250"/>
    <frame tileid="421" duration="250"/>
    <frame tileid="421" duration="250"/>
    <frame tileid="422" duration="250"/>
    <frame tileid="423" duration="250"/>
    <frame tileid="424" duration="250"/>
    <frame tileid="424" duration="250"/>
    <frame tileid="425" duration="250"/>
    <frame tileid="426" duration="250"/>
    <frame tileid="427" duration="250"/>
    <frame tileid="421" duration="250"/>
    <frame tileid="421" duration="250"/>
   </animation>
  </tile>
  <tile id="422">
   <properties>
    <property name="Passable" value="T"/>
    <property name="Type" value="Dirt"/>
   </properties>
  </tile>
  <tile id="423">
   <properties>
    <property name="Passable" value="T"/>
    <property name="Type" value="Dirt"/>
   </properties>
  </tile>
  <tile id="424">
   <properties>
    <property name="Passable" value="T"/>
    <property name="Type" value="Dirt"/>
   </properties>
  </tile>
  <tile id="425">
   <properties>
    <property name="Passable" value="T"/>
    <property name="Type" value="Dirt"/>
   </properties>
  </tile>
  <tile id="426">
   <properties>
    <property name="Passable" value="T"/>
    <property name="Type" value="Dirt"/>
   </properties>
  </tile>
  <tile id="427">
   <properties>
    <property name="Passable" value="T"/>
    <property name="Type" value="Dirt"/>
   </properties>
  </tile>
  <tile id="453">
   <properties>
    <property name="Passable" value="T"/>
    <property name="Type" value="Dirt"/>
   </properties>
   <animation>
    <frame tileid="453" duration="250"/>
    <frame tileid="453" duration="250"/>
    <frame tileid="453" duration="250"/>
    <frame tileid="453" duration="250"/>
    <frame tileid="454" duration="250"/>
    <frame tileid="455" duration="250"/>
    <frame tileid="456" duration="250"/>
    <frame tileid="456" duration="250"/>
    <frame tileid="457" duration="250"/>
    <frame tileid="458" duration="250"/>
    <frame tileid="459" duration="250"/>
    <frame tileid="453" duration="250"/>
    <frame tileid="453" duration="250"/>
   </animation>
  </tile>
  <tile id="454">
   <properties>
    <property name="Passable" value="T"/>
    <property name="Type" value="Dirt"/>
   </properties>
  </tile>
  <tile id="455">
   <properties>
    <property name="Passable" value="T"/>
    <property name="Type" value="Dirt"/>
   </properties>
  </tile>
  <tile id="456">
   <properties>
    <property name="Passable" value="T"/>
    <property name="Type" value="Dirt"/>
   </properties>
  </tile>
  <tile id="457">
   <properties>
    <property name="Passable" value="T"/>
    <property name="Type" value="Dirt"/>
   </properties>
  </tile>
  <tile id="458">
   <properties>
    <property name="Passable" value="T"/>
    <property name="Type" value="Dirt"/>
   </properties>
  </tile>
  <tile id="459">
   <properties>
    <property name="Passable" value="T"/>
    <property name="Type" value="Dirt"/>
   </properties>
  </tile>
  <tile id="485">
   <properties>
    <property name="Passable" value="T"/>
    <property name="Type" value="Dirt"/>
   </properties>
   <animation>
    <frame tileid="485" duration="250"/>
    <frame tileid="485" duration="250"/>
    <frame tileid="485" duration="250"/>
    <frame tileid="485" duration="250"/>
    <frame tileid="486" duration="250"/>
    <frame tileid="487" duration="250"/>
    <frame tileid="488" duration="250"/>
    <frame tileid="488" duration="250"/>
    <frame tileid="489" duration="250"/>
    <frame tileid="490" duration="250"/>
    <frame tileid="491" duration="250"/>
    <frame tileid="485" duration="250"/>
    <frame tileid="485" duration="250"/>
   </animation>
  </tile>
  <tile id="486">
   <properties>
    <property name="Passable" value="T"/>
    <property name="Type" value="Dirt"/>
   </properties>
  </tile>
  <tile id="487">
   <properties>
    <property name="Passable" value="T"/>
    <property name="Type" value="Dirt"/>
   </properties>
  </tile>
  <tile id="488">
   <properties>
    <property name="Passable" value="T"/>
    <property name="Type" value="Dirt"/>
   </properties>
  </tile>
  <tile id="489">
   <properties>
    <property name="Passable" value="T"/>
    <property name="Type" value="Dirt"/>
   </properties>
  </tile>
  <tile id="490">
   <properties>
    <property name="Passable" value="T"/>
    <property name="Type" value="Dirt"/>
   </properties>
  </tile>
  <tile id="491">
   <properties>
    <property name="Passable" value="T"/>
    <property name="Type" value="Dirt"/>
   </properties>
  </tile>
  <tile id="517">
   <properties>
    <property name="Type" value="Wood"/>
   </properties>
  </tile>
  <tile id="518">
   <properties>
    <property name="Type" value="Wood"/>
   </properties>
  </tile>
  <tile id="519">
   <properties>
    <property name="Type" value="Wood"/>
   </properties>
  </tile>
  <tile id="520">
   <properties>
    <property name="Type" value="Wood"/>
   </properties>
  </tile>
  <tile id="521">
   <properties>
    <property name="Type" value="Wood"/>
   </properties>
  </tile>
  <tile id="522">
   <properties>
    <property name="Type" value="Wood"/>
   </properties>
  </tile>
  <tile id="549">
   <properties>
    <property name="Type" value="Wood"/>
   </properties>
  </tile>
  <tile id="550">
   <properties>
    <property name="Type" value="Wood"/>
   </properties>
  </tile>
  <tile id="551">
   <properties>
    <property name="Type" value="Wood"/>
   </properties>
  </tile>
  <tile id="552">
   <properties>
    <property name="Type" value="Wood"/>
   </properties>
  </tile>
  <tile id="553">
   <properties>
    <property name="Type" value="Wood"/>
   </properties>
  </tile>
  <tile id="554">
   <properties>
    <property name="Type" value="Wood"/>
   </properties>
  </tile>
  <tile id="576">
   <properties>
    <property name="Buildable" value="T"/>
   </properties>
  </tile>
  <tile id="577">
   <properties>
    <property name="Buildable" value="T"/>
   </properties>
  </tile>
  <tile id="580">
   <properties>
    <property name="Buildable" value="T"/>
    <property name="NoSprinklers" value="T"/>
   </properties>
  </tile>
  <tile id="581">
   <properties>
    <property name="Type" value="Wood"/>
   </properties>
  </tile>
  <tile id="582">
   <properties>
    <property name="Type" value="Wood"/>
   </properties>
  </tile>
  <tile id="583">
   <properties>
    <property name="Type" value="Wood"/>
   </properties>
  </tile>
  <tile id="584">
   <properties>
    <property name="Type" value="Wood"/>
   </properties>
  </tile>
  <tile id="585">
   <properties>
    <property name="Type" value="Wood"/>
   </properties>
  </tile>
  <tile id="586">
   <properties>
    <property name="Type" value="Wood"/>
   </properties>
  </tile>
  <tile id="588">
   <properties>
    <property name="Water" value="T"/>
   </properties>
  </tile>
  <tile id="589">
   <properties>
    <property name="Water" value="T"/>
   </properties>
  </tile>
  <tile id="590">
   <properties>
    <property name="Water" value="T"/>
   </properties>
  </tile>
  <tile id="591">
   <properties>
    <property name="Water" value="T"/>
   </properties>
  </tile>
  <tile id="592">
   <properties>
    <property name="Water" value="T"/>
   </properties>
  </tile>
  <tile id="593">
   <properties>
    <property name="Water" value="T"/>
   </properties>
  </tile>
  <tile id="608">
   <properties>
    <property name="Buildable" value="T"/>
    <property name="Type" value="Grass"/>
   </properties>
  </tile>
  <tile id="609">
   <properties>
    <property name="Buildable" value="T"/>
   </properties>
  </tile>
  <tile id="610">
   <properties>
    <property name="Buildable" value="T"/>
    <property name="NoSprinklers" value="T"/>
    <property name="Type" value="Dirt"/>
   </properties>
  </tile>
  <tile id="611">
   <properties>
    <property name="Buildable" value="T"/>
    <property name="NoSprinklers" value="T"/>
    <property name="Type" value="Dirt"/>
   </properties>
  </tile>
  <tile id="612">
   <properties>
    <property name="Buildable" value="T"/>
   </properties>
  </tile>
  <tile id="613">
   <properties>
    <property name="Buildable" value="T"/>
    <property name="Type" value="Grass"/>
   </properties>
  </tile>
  <tile id="614">
   <properties>
    <property name="Buildable" value="T"/>
   </properties>
  </tile>
  <tile id="615">
   <properties>
    <property name="Buildable" value="T"/>
   </properties>
  </tile>
  <tile id="619">
   <properties>
    <property name="Water" value="T"/>
   </properties>
  </tile>
  <tile id="620">
   <properties>
    <property name="Water" value="T"/>
   </properties>
  </tile>
  <tile id="621">
   <properties>
    <property name="Water" value="T"/>
   </properties>
  </tile>
  <tile id="622">
   <properties>
    <property name="Water" value="T"/>
   </properties>
  </tile>
  <tile id="623">
   <properties>
    <property name="Water" value="T"/>
   </properties>
  </tile>
  <tile id="624">
   <properties>
    <property name="Water" value="T"/>
   </properties>
  </tile>
  <tile id="625">
   <properties>
    <property name="Water" value="T"/>
   </properties>
  </tile>
  <tile id="626">
   <properties>
    <property name="Water" value="T"/>
   </properties>
  </tile>
  <tile id="640">
   <properties>
    <property name="Buildable" value="T"/>
    <property name="NoSprinklers" value="T"/>
    <property name="Type" value="Grass"/>
   </properties>
  </tile>
  <tile id="641">
   <properties>
    <property name="Buildable" value="T"/>
    <property name="NoSprinklers" value="T"/>
   </properties>
  </tile>
  <tile id="642">
   <properties>
    <property name="Buildable" value="T"/>
    <property name="NoSprinklers" value="T"/>
    <property name="Type" value="Dirt"/>
   </properties>
  </tile>
  <tile id="643">
   <properties>
    <property name="Buildable" value="T"/>
    <property name="Type" value="Grass"/>
   </properties>
  </tile>
  <tile id="644">
   <properties>
    <property name="Buildable" value="T"/>
   </properties>
  </tile>
  <tile id="645">
   <properties>
    <property name="Buildable" value="T"/>
   </properties>
  </tile>
  <tile id="646">
   <properties>
    <property name="Buildable" value="T"/>
   </properties>
  </tile>
  <tile id="647">
   <properties>
    <property name="Buildable" value="T"/>
   </properties>
  </tile>
  <tile id="651">
   <properties>
    <property name="Passable" value="T"/>
   </properties>
   <animation>
    <frame tileid="651" duration="250"/>
    <frame tileid="651" duration="250"/>
    <frame tileid="651" duration="250"/>
    <frame tileid="651" duration="250"/>
    <frame tileid="652" duration="250"/>
    <frame tileid="653" duration="250"/>
    <frame tileid="654" duration="250"/>
    <frame tileid="654" duration="250"/>
    <frame tileid="655" duration="250"/>
    <frame tileid="656" duration="250"/>
    <frame tileid="657" duration="250"/>
    <frame tileid="651" duration="250"/>
    <frame tileid="651" duration="250"/>
   </animation>
  </tile>
  <tile id="652">
   <properties>
    <property name="Passable" value="T"/>
   </properties>
  </tile>
  <tile id="653">
   <properties>
    <property name="Passable" value="T"/>
   </properties>
  </tile>
  <tile id="654">
   <properties>
    <property name="Passable" value="T"/>
   </properties>
  </tile>
  <tile id="655">
   <properties>
    <property name="Passable" value="T"/>
   </properties>
  </tile>
  <tile id="656">
   <properties>
    <property name="Passable" value="T"/>
   </properties>
  </tile>
  <tile id="657">
   <properties>
    <property name="Passable" value="T"/>
   </properties>
  </tile>
  <tile id="658">
   <properties>
    <property name="Water" value="T"/>
   </properties>
  </tile>
  <tile id="659">
   <properties>
    <property name="Water" value="T"/>
   </properties>
  </tile>
  <tile id="672">
   <properties>
    <property name="Buildable" value="T"/>
    <property name="NoSprinklers" value="T"/>
   </properties>
  </tile>
  <tile id="673">
   <properties>
    <property name="Buildable" value="T"/>
    <property name="Diggable" value="T"/>
    <property name="NoSprinklers" value="T"/>
    <property name="Type" value="Dirt"/>
   </properties>
  </tile>
  <tile id="674">
   <properties>
    <property name="Buildable" value="T"/>
    <property name="Diggable" value="T"/>
    <property name="NoSprinklers" value="T"/>
    <property name="Type" value="Dirt"/>
   </properties>
  </tile>
  <tile id="675">
   <properties>
    <property name="Buildable" value="T"/>
   </properties>
  </tile>
  <tile id="676">
   <properties>
    <property name="Buildable" value="T"/>
   </properties>
  </tile>
  <tile id="677">
   <properties>
    <property name="Buildable" value="T"/>
    <property name="NoSprinklers" value="T"/>
   </properties>
  </tile>
  <tile id="678">
   <properties>
    <property name="Buildable" value="T"/>
   </properties>
  </tile>
  <tile id="679">
   <properties>
    <property name="Buildable" value="T"/>
   </properties>
  </tile>
  <tile id="683">
   <properties>
    <property name="Passable" value="T"/>
   </properties>
   <animation>
    <frame tileid="683" duration="250"/>
    <frame tileid="683" duration="250"/>
    <frame tileid="683" duration="250"/>
    <frame tileid="683" duration="250"/>
    <frame tileid="684" duration="250"/>
    <frame tileid="685" duration="250"/>
    <frame tileid="686" duration="250"/>
    <frame tileid="686" duration="250"/>
    <frame tileid="687" duration="250"/>
    <frame tileid="688" duration="250"/>
    <frame tileid="689" duration="250"/>
    <frame tileid="683" duration="250"/>
    <frame tileid="683" duration="250"/>
   </animation>
  </tile>
  <tile id="684">
   <properties>
    <property name="Passable" value="T"/>
   </properties>
  </tile>
  <tile id="685">
   <properties>
    <property name="Passable" value="T"/>
   </properties>
  </tile>
  <tile id="686">
   <properties>
    <property name="Passable" value="T"/>
   </properties>
  </tile>
  <tile id="687">
   <properties>
    <property name="Passable" value="T"/>
   </properties>
  </tile>
  <tile id="688">
   <properties>
    <property name="Passable" value="T"/>
   </properties>
  </tile>
  <tile id="689">
   <properties>
    <property name="Passable" value="T"/>
   </properties>
  </tile>
  <tile id="690">
   <properties>
    <property name="Water" value="T"/>
   </properties>
  </tile>
  <tile id="704">
   <properties>
    <property name="Buildable" value="T"/>
    <property name="NoSprinklers" value="T"/>
    <property name="Type" value="Grass"/>
   </properties>
  </tile>
  <tile id="705">
   <properties>
    <property name="Buildable" value="T"/>
    <property name="NoSprinklers" value="T"/>
   </properties>
  </tile>
  <tile id="706">
   <properties>
    <property name="Buildable" value="T"/>
    <property name="NoSprinklers" value="T"/>
    <property name="Type" value="Dirt"/>
   </properties>
  </tile>
  <tile id="707">
   <properties>
    <property name="Buildable" value="T"/>
    <property name="Type" value="Grass"/>
   </properties>
  </tile>
  <tile id="715">
   <properties>
    <property name="Passable" value="T"/>
   </properties>
   <animation>
    <frame tileid="715" duration="250"/>
    <frame tileid="715" duration="250"/>
    <frame tileid="715" duration="250"/>
    <frame tileid="715" duration="250"/>
    <frame tileid="716" duration="250"/>
    <frame tileid="717" duration="250"/>
    <frame tileid="718" duration="250"/>
    <frame tileid="718" duration="250"/>
    <frame tileid="719" duration="250"/>
    <frame tileid="720" duration="250"/>
    <frame tileid="721" duration="250"/>
    <frame tileid="715" duration="250"/>
    <frame tileid="715" duration="250"/>
   </animation>
  </tile>
  <tile id="716">
   <properties>
    <property name="Passable" value="T"/>
   </properties>
  </tile>
  <tile id="717">
   <properties>
    <property name="Passable" value="T"/>
   </properties>
  </tile>
  <tile id="718">
   <properties>
    <property name="Passable" value="T"/>
   </properties>
  </tile>
  <tile id="719">
   <properties>
    <property name="Passable" value="T"/>
   </properties>
  </tile>
  <tile id="720">
   <properties>
    <property name="Passable" value="T"/>
   </properties>
  </tile>
  <tile id="721">
   <properties>
    <property name="Passable" value="T"/>
   </properties>
  </tile>
  <tile id="736">
   <properties>
    <property name="Buildable" value="T"/>
   </properties>
  </tile>
  <tile id="744">
   <properties>
    <property name="Passable" value="T"/>
   </properties>
   <animation>
    <frame tileid="744" duration="250"/>
    <frame tileid="744" duration="250"/>
    <frame tileid="744" duration="250"/>
    <frame tileid="744" duration="250"/>
    <frame tileid="745" duration="250"/>
    <frame tileid="746" duration="250"/>
    <frame tileid="746" duration="250"/>
    <frame tileid="746" duration="250"/>
    <frame tileid="746" duration="250"/>
    <frame tileid="745" duration="250"/>
    <frame tileid="744" duration="250"/>
    <frame tileid="744" duration="250"/>
    <frame tileid="744" duration="250"/>
   </animation>
  </tile>
  <tile id="745">
   <properties>
    <property name="Passable" value="T"/>
   </properties>
  </tile>
  <tile id="746">
   <properties>
    <property name="Passable" value="T"/>
   </properties>
  </tile>
  <tile id="747">
   <properties>
    <property name="Passable" value="T"/>
   </properties>
   <animation>
    <frame tileid="747" duration="250"/>
    <frame tileid="747" duration="250"/>
    <frame tileid="747" duration="250"/>
    <frame tileid="747" duration="250"/>
    <frame tileid="748" duration="250"/>
    <frame tileid="749" duration="250"/>
    <frame tileid="750" duration="250"/>
    <frame tileid="750" duration="250"/>
    <frame tileid="751" duration="250"/>
    <frame tileid="752" duration="250"/>
    <frame tileid="753" duration="250"/>
    <frame tileid="747" duration="250"/>
    <frame tileid="747" duration="250"/>
   </animation>
  </tile>
  <tile id="748">
   <properties>
    <property name="Passable" value="T"/>
   </properties>
  </tile>
  <tile id="749">
   <properties>
    <property name="Passable" value="T"/>
   </properties>
  </tile>
  <tile id="750">
   <properties>
    <property name="Passable" value="T"/>
   </properties>
  </tile>
  <tile id="751">
   <properties>
    <property name="Passable" value="T"/>
   </properties>
  </tile>
  <tile id="752">
   <properties>
    <property name="Passable" value="T"/>
   </properties>
  </tile>
  <tile id="753">
   <properties>
    <property name="Passable" value="T"/>
   </properties>
  </tile>
  <tile id="768">
   <properties>
    <property name="Buildable" value="T"/>
    <property name="Type" value="Grass"/>
   </properties>
  </tile>
  <tile id="776">
   <properties>
    <property name="Passable" value="T"/>
   </properties>
   <animation>
    <frame tileid="776" duration="250"/>
    <frame tileid="776" duration="250"/>
    <frame tileid="776" duration="250"/>
    <frame tileid="776" duration="250"/>
    <frame tileid="777" duration="250"/>
    <frame tileid="778" duration="250"/>
    <frame tileid="778" duration="250"/>
    <frame tileid="778" duration="250"/>
    <frame tileid="778" duration="250"/>
    <frame tileid="777" duration="250"/>
    <frame tileid="776" duration="250"/>
    <frame tileid="776" duration="250"/>
    <frame tileid="776" duration="250"/>
   </animation>
  </tile>
  <tile id="777">
   <properties>
    <property name="Passable" value="T"/>
   </properties>
  </tile>
  <tile id="778">
   <properties>
    <property name="Passable" value="T"/>
   </properties>
  </tile>
  <tile id="779">
   <properties>
    <property name="Type" value="Wood"/>
   </properties>
  </tile>
  <tile id="800">
   <properties>
    <property name="Buildable" value="T"/>
   </properties>
  </tile>
  <tile id="811">
   <properties>
    <property name="Type" value="Wood"/>
   </properties>
  </tile>
  <tile id="843">
   <properties>
    <property name="Type" value="Wood"/>
   </properties>
  </tile>
  <tile id="948">
   <properties>
    <property name="Water" value="T"/>
   </properties>
  </tile>
  <tile id="949">
   <properties>
    <property name="Water" value="T"/>
   </properties>
  </tile>
  <tile id="980">
   <properties>
    <property name="Water" value="T"/>
   </properties>
  </tile>
  <tile id="981">
   <properties>
    <property name="Water" value="T"/>
   </properties>
  </tile>
  <tile id="992">
   <properties>
    <property name="Passable" value="T"/>
    <property name="Type" value="Wood"/>
   </properties>
  </tile>
  <tile id="993">
   <properties>
    <property name="Passable" value="T"/>
    <property name="Type" value="Wood"/>
   </properties>
  </tile>
  <tile id="994">
   <properties>
    <property name="Passable" value="T"/>
   </properties>
  </tile>
  <tile id="995">
   <properties>
    <property name="Passable" value="T"/>
   </properties>
  </tile>
  <tile id="996">
   <properties>
    <property name="Passable" value="T"/>
    <property name="Type" value="Wood"/>
   </properties>
  </tile>
  <tile id="997">
   <properties>
    <property name="Passable" value="T"/>
    <property name="Type" value="Wood"/>
   </properties>
  </tile>
  <tile id="1012">
   <animation>
    <frame tileid="1012" duration="1000"/>
    <frame tileid="756" duration="1000"/>
   </animation>
  </tile>
  <tile id="1013">
   <animation>
    <frame tileid="1013" duration="1000"/>
    <frame tileid="757" duration="1000"/>
   </animation>
  </tile>
  <tile id="1024">
   <properties>
    <property name="NoSprinklers" value="T"/>
    <property name="Type" value="Dirt"/>
   </properties>
  </tile>
  <tile id="1025">
   <properties>
    <property name="NoSprinklers" value="T"/>
    <property name="Type" value="Dirt"/>
   </properties>
  </tile>
  <tile id="1026">
   <properties>
    <property name="NoSprinklers" value="T"/>
    <property name="Type" value="Dirt"/>
   </properties>
  </tile>
  <tile id="1027">
   <properties>
    <property name="NoSprinklers" value="T"/>
    <property name="Type" value="Dirt"/>
   </properties>
  </tile>
  <tile id="1028">
   <properties>
    <property name="NoSprinklers" value="T"/>
    <property name="Type" value="Dirt"/>
   </properties>
  </tile>
  <tile id="1056">
   <properties>
    <property name="NoSprinklers" value="T"/>
    <property name="Type" value="Dirt"/>
   </properties>
  </tile>
  <tile id="1057">
   <properties>
    <property name="NoSprinklers" value="T"/>
    <property name="Type" value="Dirt"/>
   </properties>
  </tile>
  <tile id="1058">
   <properties>
    <property name="NoSprinklers" value="T"/>
    <property name="Type" value="Dirt"/>
   </properties>
  </tile>
  <tile id="1059">
   <properties>
    <property name="NoSprinklers" value="T"/>
    <property name="Type" value="Dirt"/>
   </properties>
  </tile>
  <tile id="1216">
   <properties>
    <property name="Type" value="Wood"/>
   </properties>
  </tile>
  <tile id="1217">
   <properties>
    <property name="Type" value="Wood"/>
   </properties>
  </tile>
  <tile id="1218">
   <properties>
    <property name="Type" value="Wood"/>
   </properties>
  </tile>
  <tile id="1219">
   <properties>
    <property name="Type" value="Wood"/>
   </properties>
  </tile>
  <tile id="1220">
   <properties>
    <property name="Type" value="Wood"/>
   </properties>
  </tile>
  <tile id="1221">
   <properties>
    <property name="Type" value="Wood"/>
   </properties>
  </tile>
  <tile id="1222">
   <properties>
    <property name="Type" value="Wood"/>
   </properties>
  </tile>
  <tile id="1238">
   <properties>
    <property name="Passable" value="T"/>
   </properties>
   <animation>
    <frame tileid="1238" duration="250"/>
    <frame tileid="1238" duration="250"/>
    <frame tileid="1238" duration="250"/>
    <frame tileid="1238" duration="250"/>
    <frame tileid="1239" duration="250"/>
    <frame tileid="1240" duration="250"/>
    <frame tileid="1241" duration="250"/>
    <frame tileid="1241" duration="250"/>
    <frame tileid="1242" duration="250"/>
    <frame tileid="1243" duration="250"/>
    <frame tileid="1244" duration="250"/>
    <frame tileid="1238" duration="250"/>
    <frame tileid="1238" duration="250"/>
   </animation>
  </tile>
  <tile id="1239">
   <properties>
    <property name="Passable" value="T"/>
   </properties>
  </tile>
  <tile id="1240">
   <properties>
    <property name="Passable" value="T"/>
   </properties>
  </tile>
  <tile id="1241">
   <properties>
    <property name="Passable" value="T"/>
   </properties>
  </tile>
  <tile id="1242">
   <properties>
    <property name="Passable" value="T"/>
   </properties>
  </tile>
  <tile id="1243">
   <properties>
    <property name="Passable" value="T"/>
   </properties>
  </tile>
  <tile id="1244">
   <properties>
    <property name="Passable" value="T"/>
   </properties>
  </tile>
  <tile id="1250">
   <properties>
    <property name="Type" value="Wood"/>
   </properties>
  </tile>
  <tile id="1251">
   <properties>
    <property name="Type" value="Wood"/>
   </properties>
  </tile>
  <tile id="1252">
   <properties>
    <property name="Type" value="Wood"/>
   </properties>
  </tile>
  <tile id="1270">
   <properties>
    <property name="Passable" value="T"/>
   </properties>
   <animation>
    <frame tileid="1270" duration="250"/>
    <frame tileid="1270" duration="250"/>
    <frame tileid="1270" duration="250"/>
    <frame tileid="1270" duration="250"/>
    <frame tileid="1271" duration="250"/>
    <frame tileid="1272" duration="250"/>
    <frame tileid="1273" duration="250"/>
    <frame tileid="1273" duration="250"/>
    <frame tileid="1274" duration="250"/>
    <frame tileid="1275" duration="250"/>
    <frame tileid="1276" duration="250"/>
    <frame tileid="1270" duration="250"/>
    <frame tileid="1270" duration="250"/>
   </animation>
  </tile>
  <tile id="1271">
   <properties>
    <property name="Passable" value="T"/>
   </properties>
  </tile>
  <tile id="1272">
   <properties>
    <property name="Passable" value="T"/>
   </properties>
  </tile>
  <tile id="1273">
   <properties>
    <property name="Passable" value="T"/>
   </properties>
  </tile>
  <tile id="1274">
   <properties>
    <property name="Passable" value="T"/>
   </properties>
  </tile>
  <tile id="1275">
   <properties>
    <property name="Passable" value="T"/>
   </properties>
  </tile>
  <tile id="1276">
   <properties>
    <property name="Passable" value="T"/>
   </properties>
  </tile>
 </tileset>
 <layer id="1" name="Back" width="14" height="8">
  <data encoding="csv">
1073744031,1073744031,1073744031,1073744031,1073744031,1073744031,2175,2175,2206,2173,2015,2015,2072,2651,
2567,2567,2567,2567,2567,2567,2567,2567,2173,2173,2015,2015,2072,2586,
2173,2173,2173,2173,2173,2173,2173,2173,2173,2015,2015,2040,2074,2649,
2042,2041,2042,2041,2041,2042,2041,2042,2041,2041,2041,2074,2649,2649,
2012,2013,2012,2014,2013,2012,2012,2012,2013,2012,2013,2013,2013,2012,
2173,2173,2173,2173,2173,2173,2173,2173,2173,2173,2015,2015,2015,2015,
2205,2205,2205,2205,2173,2173,2173,2173,2173,2173,2173,2173,2173,2015,
2207,2207,2207,2175,2142,2173,2173,2173,2173,2173,2173,2173,2173,2173
</data>
 </layer>
 <layer id="2" name="Back2" width="14" height="8" visible="0">
  <properties>
   <property name="Draw" value="Back"/>
  </properties>
  <data encoding="csv">
0,0,0,0,0,0,0,0,0,0,0,0,0,0,
0,0,0,0,0,0,0,0,0,0,0,0,0,0,
0,0,0,0,0,0,0,0,0,0,0,0,0,0,
0,0,0,0,0,0,0,0,0,0,0,0,0,0,
0,0,0,0,0,0,0,0,0,0,0,0,0,0,
0,0,0,0,0,0,0,0,0,0,0,0,0,0,
0,0,0,0,0,0,0,0,0,0,0,0,0,0,
0,0,0,0,0,0,0,0,0,0,0,0,0,0
</data>
 </layer>
 <layer id="3" name="Buildings" width="14" height="8">
  <data encoding="csv">
0,0,0,0,0,0,0,103,103,2365,0,0,0,0,
103,103,103,103,103,103,103,103,2627,2659,0,0,0,0,
3214,3214,3246,3246,3214,3214,3246,3214,2659,0,0,0,0,0,
0,0,0,0,0,0,0,0,0,0,0,0,0,0,
0,0,0,0,0,0,0,0,0,0,0,0,0,0,
2269,2269,2269,2269,2269,2269,2269,2269,2269,2301,0,0,0,0,
103,103,103,103,103,103,103,103,103,2333,2269,2269,2301,0,
0,0,0,0,0,0,0,0,103,103,103,103,2333,2269
</data>
 </layer>
 <layer id="4" name="Buildings2" width="14" height="8" visible="0">
  <properties>
   <property name="Draw" value="Buildings"/>
  </properties>
  <data encoding="csv">
0,0,0,0,0,0,0,0,0,0,0,0,0,0,
0,0,0,0,0,0,0,0,0,0,0,0,0,0,
0,0,0,0,0,0,0,0,0,0,0,0,0,0,
0,0,0,0,0,0,0,0,0,0,0,0,0,0,
0,0,0,0,0,0,0,0,0,0,0,0,0,0,
0,0,0,0,0,0,0,0,0,0,0,0,0,0,
0,0,0,0,0,0,0,0,0,0,0,0,0,0,
0,0,0,0,0,0,0,0,0,0,0,0,0,0
</data>
 </layer>
 <layer id="5" name="Front" width="14" height="8" visible="0">
  <data encoding="csv">
0,0,0,0,0,0,0,0,0,0,0,0,0,0,
0,0,0,0,0,0,0,0,0,0,0,0,0,0,
0,0,0,0,0,0,0,0,0,0,0,0,0,0,
0,0,0,0,0,0,0,0,0,0,0,0,0,0,
0,0,0,0,0,0,0,0,0,0,0,0,0,0,
0,0,0,0,0,0,0,0,0,0,0,0,0,0,
0,0,0,0,0,0,0,0,0,0,0,0,0,0,
0,0,0,0,0,0,0,0,0,0,0,0,0,0
</data>
 </layer>
 <layer id="6" name="AlwaysFront" width="14" height="8" visible="0">
  <data encoding="csv">
0,0,0,0,0,0,0,0,0,0,0,0,0,0,
0,0,0,0,0,0,0,0,0,0,0,0,0,0,
0,0,0,0,0,0,0,0,0,0,0,0,0,0,
0,0,0,0,0,0,0,0,0,0,0,0,0,0,
0,0,0,0,0,0,0,0,0,0,0,0,0,0,
0,0,0,0,0,0,0,0,0,0,0,0,0,0,
0,0,0,0,0,0,0,0,0,0,0,0,0,0,
0,0,0,0,0,0,0,0,0,0,0,0,0,0
</data>
 </layer>
 <layer id="7" name="AlwaysFront2" width="14" height="8" visible="0">
  <properties>
   <property name="Draw" value="AlwaysFront"/>
  </properties>
  <data encoding="csv">
0,0,0,0,0,0,0,0,0,0,0,0,0,0,
0,0,0,0,0,0,0,0,0,0,0,0,0,0,
0,0,0,0,0,0,0,0,0,0,0,0,0,0,
0,0,0,0,0,0,0,0,0,0,0,0,0,0,
0,0,0,0,0,0,0,0,0,0,0,0,0,0,
0,0,0,0,0,0,0,0,0,0,0,0,0,0,
0,0,0,0,0,0,0,0,0,0,0,0,0,0,
0,0,0,0,0,0,0,0,0,0,0,0,0,0
</data>
 </layer>
 <layer id="8" name="AlwaysFront3" width="14" height="8" visible="0">
  <properties>
   <property name="Draw" value="AlwaysFront"/>
  </properties>
  <data encoding="csv">
0,0,0,0,0,0,0,0,0,0,0,0,0,0,
0,0,0,0,0,0,0,0,0,0,0,0,0,0,
0,0,0,0,0,0,0,0,0,0,0,0,0,0,
0,0,0,0,0,0,0,0,0,0,0,0,0,0,
0,0,0,0,0,0,0,0,0,0,0,0,0,0,
0,0,0,0,0,0,0,0,0,0,0,0,0,0,
0,0,0,0,0,0,0,0,0,0,0,0,0,0,
0,0,0,0,0,0,0,0,0,0,0,0,0,0
</data>
 </layer>
 <objectgroup id="10" name="Back"/>
 <objectgroup id="11" name="Back2"/>
 <objectgroup id="12" name="Buildings"/>
 <objectgroup id="13" name="Buildings2"/>
 <objectgroup id="14" name="Front"/>
 <objectgroup id="15" name="AlwaysFront"/>
 <objectgroup id="16" name="AlwaysFront2"/>
 <objectgroup id="17" name="AlwaysFront3"/>
</map>
