<?xml version="1.0" encoding="UTF-8"?>
<map version="1.5" tiledversion="1.7.0" orientation="orthogonal" renderorder="right-down" width="21" height="21" tilewidth="16" tileheight="16" infinite="0" nextlayerid="11" nextobjectid="531">
 <editorsettings>
  <export target="Everything Map no Paths.tmx" format="tmx"/>
 </editorsettings>
 <properties>
  <property name="Outdoors" value="T"/>
  <property name="Warp" value="1 1 Farm 100 100"/>
 </properties>
 <tileset firstgid="1" name="z_Warps" tilewidth="16" tileheight="16" tilecount="16" columns="8">
  <image source="z_Warps.png" width="128" height="32"/>
  <tile id="0">
   <properties>
    <property name="Passable" value="T"/>
   </properties>
  </tile>
  <tile id="1">
   <properties>
    <property name="Passable" value="T"/>
   </properties>
  </tile>
  <tile id="2">
   <properties>
    <property name="Passable" value="T"/>
   </properties>
  </tile>
  <tile id="3">
   <properties>
    <property name="Passable" value="T"/>
   </properties>
  </tile>
  <tile id="4">
   <properties>
    <property name="Passable" value="T"/>
   </properties>
  </tile>
  <tile id="5">
   <properties>
    <property name="Passable" value="T"/>
   </properties>
  </tile>
  <tile id="6">
   <properties>
    <property name="Passable" value="T"/>
   </properties>
  </tile>
  <tile id="7">
   <properties>
    <property name="Passable" value="T"/>
   </properties>
  </tile>
 </tileset>
 <tileset firstgid="17" name="mine_dark_dangerous" tilewidth="16" tileheight="16" tilecount="288" columns="16">
  <image source="mine_dark_dangerous.png" width="256" height="288"/>
 </tileset>
 <layer id="1" name="Back" width="21" height="21">
  <data encoding="csv">
62,62,62,62,62,62,63,62,62,62,62,63,62,62,62,62,62,63,62,62,62,
62,62,62,63,62,62,62,63,62,62,62,62,62,63,62,62,62,62,62,63,62,
62,62,62,62,62,63,62,62,62,62,62,62,63,62,62,62,62,62,62,62,62,
63,62,62,62,62,62,62,63,62,62,63,62,62,62,62,62,63,62,63,62,62,
62,62,62,63,62,62,62,62,62,62,62,63,62,62,63,62,62,62,62,62,62,
62,62,62,62,62,62,62,63,62,62,62,62,62,62,62,62,62,62,63,62,62,
62,63,62,62,63,62,62,62,198,198,198,198,182,62,62,63,62,62,62,62,62,
62,62,62,62,62,62,62,182,198,182,182,198,182,198,62,62,62,62,62,62,62,
62,62,63,62,63,62,182,198,182,198,198,182,182,198,198,62,62,62,62,63,62,
62,62,62,62,62,62,182,182,182,182,182,198,198,198,198,62,63,62,62,62,62,
62,62,62,62,62,62,182,182,198,198,198,182,198,182,198,62,62,62,62,62,62,
62,62,62,63,62,62,182,182,182,198,198,182,198,182,182,62,62,63,62,62,63,
62,63,62,62,62,62,182,198,198,182,198,182,198,198,198,62,62,62,62,62,62,
62,62,62,62,62,62,62,182,182,182,198,198,198,198,62,62,63,62,62,62,62,
62,62,62,62,62,63,62,62,182,198,198,182,182,62,62,62,62,62,63,62,62,
63,62,62,62,62,62,62,62,62,62,62,62,63,62,63,62,62,62,62,62,62,
62,62,62,63,62,62,62,62,63,62,62,62,62,62,62,62,62,62,62,62,62,
62,63,62,62,62,62,62,62,62,62,63,62,62,62,62,63,62,62,62,63,62,
62,62,62,62,62,63,62,62,62,62,62,62,63,62,62,62,62,62,62,62,62,
62,62,63,62,62,62,62,62,62,63,62,62,62,62,62,62,63,62,62,62,62,
62,62,62,62,62,62,62,62,62,62,62,62,63,62,62,62,62,62,62,63,62
</data>
 </layer>
 <objectgroup id="2" name="Back">
  <object id="521" name="TileData" x="208" y="160" width="16" height="16">
   <properties>
    <property name="NPCBarrier" value="T"/>
    <property name="NoFurniture" value="T"/>
    <property name="NoSpawn" value="All"/>
    <property name="Placeable" value="f"/>
    <property name="TouchAction" value="MagicWarp Farm 142 86"/>
   </properties>
  </object>
  <object id="525" name="TileData" x="112" y="160" width="16" height="16">
   <properties>
    <property name="NPCBarrier" value="T"/>
    <property name="NoFurniture" value="T"/>
    <property name="NoSpawn" value="All"/>
    <property name="Placeable" value="f"/>
    <property name="TouchAction" value="MagicWarp Farm 101 50"/>
   </properties>
  </object>
  <object id="526" name="TileData" x="160" y="112" width="16" height="16">
   <properties>
    <property name="NPCBarrier" value="T"/>
    <property name="NoFurniture" value="T"/>
    <property name="NoSpawn" value="All"/>
    <property name="Placeable" value="f"/>
    <property name="TouchAction" value="MagicWarp Farm 70 7"/>
   </properties>
  </object>
  <object id="527" name="TileData" x="192" y="192" width="16" height="16">
   <properties>
    <property name="NPCBarrier" value="T"/>
    <property name="NoFurniture" value="T"/>
    <property name="NoSpawn" value="All"/>
    <property name="Placeable" value="f"/>
    <property name="TouchAction" value="MagicWarp Farm 177 121"/>
   </properties>
  </object>
  <object id="528" name="TileData" x="128" y="192" width="16" height="16">
   <properties>
    <property name="NPCBarrier" value="T"/>
    <property name="NoFurniture" value="T"/>
    <property name="NoSpawn" value="All"/>
    <property name="Placeable" value="f"/>
    <property name="TouchAction" value="MagicWarp Farm 53 102"/>
   </properties>
  </object>
  <object id="529" name="TileData" x="128" y="128" width="16" height="16">
   <properties>
    <property name="NPCBarrier" value="T"/>
    <property name="NoFurniture" value="T"/>
    <property name="NoSpawn" value="All"/>
    <property name="Placeable" value="f"/>
    <property name="TouchAction" value="MagicWarp Farm 10 40"/>
   </properties>
  </object>
  <object id="530" name="TileData" x="192" y="128" width="16" height="16">
   <properties>
    <property name="NPCBarrier" value="T"/>
    <property name="NoFurniture" value="T"/>
    <property name="NoSpawn" value="All"/>
    <property name="Placeable" value="f"/>
    <property name="TouchAction" value="MagicWarp Farm 177 5"/>
   </properties>
  </object>
 </objectgroup>
 <layer id="3" name="Buildings" width="21" height="21">
  <data encoding="csv">
0,0,0,0,0,0,0,0,0,0,0,0,0,0,0,0,0,0,0,0,0,
0,0,0,0,0,0,0,0,0,0,0,0,0,0,0,0,0,0,0,0,0,
0,0,0,0,0,0,0,0,0,0,0,0,0,0,0,0,0,0,0,0,0,
0,0,0,0,0,0,0,0,0,0,0,0,0,0,0,0,0,0,0,0,0,
0,0,0,0,0,0,0,0,0,0,0,0,0,0,0,0,0,0,0,0,0,
0,0,0,0,0,0,0,0,0,0,0,0,0,0,0,0,0,0,0,0,0,
0,0,0,0,0,0,0,0,2684354790,3221225704,3221225703,3221225704,1610612974,0,0,0,0,0,0,0,0,
0,0,0,0,0,0,0,2684354790,2684354774,0,3,0,1610612958,1610612974,0,0,0,0,0,0,0,
0,0,0,0,0,0,2684354790,2684354774,7,0,0,0,8,1610612958,1610612974,0,0,0,0,0,0,
0,0,0,0,0,0,2684354792,0,0,0,0,0,0,0,1610612967,0,0,0,0,0,0,
0,0,0,0,0,0,2684354791,4,0,0,0,0,0,2,1610612968,0,0,0,0,0,0,
0,0,0,0,0,0,2684354792,0,0,0,0,0,0,0,1610612967,0,0,0,0,0,0,
0,0,0,0,0,0,230,214,5,0,0,0,6,222,238,0,0,0,0,0,0,
0,0,0,0,0,0,0,230,214,0,0,0,222,238,0,0,0,0,0,0,0,
0,0,0,0,0,0,0,0,230,232,231,232,238,0,0,0,0,0,0,0,0,
0,0,0,0,0,0,0,0,0,0,0,0,0,0,0,0,0,0,0,0,0,
0,0,0,0,0,0,0,0,0,0,0,0,0,0,0,0,0,0,0,0,0,
0,0,0,0,0,0,0,0,0,0,0,0,0,0,0,0,0,0,0,0,0,
0,0,0,0,0,0,0,0,0,0,0,0,0,0,0,0,0,0,0,0,0,
0,0,0,0,0,0,0,0,0,0,0,0,0,0,0,0,0,0,0,0,0,
0,0,0,0,0,0,0,0,0,0,0,0,0,0,0,0,0,0,0,0,0
</data>
 </layer>
 <objectgroup id="4" name="Buildings"/>
 <layer id="5" name="Paths" width="21" height="21">
  <data encoding="csv">
0,0,0,0,0,0,0,0,0,0,0,0,0,0,0,0,0,0,0,0,0,
0,0,0,0,0,0,0,0,0,0,0,0,0,0,0,0,0,0,0,0,0,
0,0,0,0,0,0,0,0,0,0,0,0,0,0,0,0,0,0,0,0,0,
0,0,0,0,0,0,0,0,0,0,0,0,0,0,0,0,0,0,0,0,0,
0,0,0,0,0,0,0,0,0,0,0,0,0,0,0,0,0,0,0,0,0,
0,0,0,0,0,0,0,0,0,0,0,0,0,0,0,0,0,0,0,0,0,
0,0,0,0,0,0,0,0,0,0,0,0,0,0,0,0,0,0,0,0,0,
0,0,0,0,0,0,0,0,0,0,0,0,0,0,0,0,0,0,0,0,0,
0,0,0,0,0,0,0,0,0,0,0,0,0,0,0,0,0,0,0,0,0,
0,0,0,0,0,0,0,0,0,0,0,0,0,0,0,0,0,0,0,0,0,
0,0,0,0,0,0,0,0,0,0,0,0,0,0,0,0,0,0,0,0,0,
0,0,0,0,0,0,0,0,0,0,0,0,0,0,0,0,0,0,0,0,0,
0,0,0,0,0,0,0,0,0,0,0,0,0,0,0,0,0,0,0,0,0,
0,0,0,0,0,0,0,0,0,0,0,0,0,0,0,0,0,0,0,0,0,
0,0,0,0,0,0,0,0,0,0,0,0,0,0,0,0,0,0,0,0,0,
0,0,0,0,0,0,0,0,0,0,0,0,0,0,0,0,0,0,0,0,0,
0,0,0,0,0,0,0,0,0,0,0,0,0,0,0,0,0,0,0,0,0,
0,0,0,0,0,0,0,0,0,0,0,0,0,0,0,0,0,0,0,0,0,
0,0,0,0,0,0,0,0,0,0,0,0,0,0,0,0,0,0,0,0,0,
0,0,0,0,0,0,0,0,0,0,0,0,0,0,0,0,0,0,0,0,0,
0,0,0,0,0,0,0,0,0,0,0,0,0,0,0,0,0,0,0,0,0
</data>
 </layer>
 <objectgroup id="6" name="Paths"/>
 <layer id="7" name="Front" width="21" height="21">
  <data encoding="csv">
0,0,0,0,0,0,0,0,0,0,0,0,0,0,0,0,0,0,0,0,0,
0,0,0,0,0,0,0,0,0,0,0,0,0,0,0,0,0,0,0,0,0,
0,0,0,0,0,0,0,0,0,0,0,0,0,0,0,0,0,0,0,0,0,
0,0,0,0,0,0,0,0,0,0,0,0,0,0,0,0,0,0,0,0,0,
0,0,0,0,0,0,0,0,0,0,0,0,0,0,0,0,0,0,0,0,0,
0,0,0,0,0,0,0,0,0,0,0,0,0,0,0,0,0,0,0,0,0,
0,0,0,0,0,0,0,0,0,0,0,0,0,0,0,0,0,0,0,0,0,
0,0,0,0,0,0,0,0,0,0,0,0,0,0,0,0,0,0,0,0,0,
0,0,0,0,0,0,0,0,0,0,0,0,0,0,0,0,0,0,0,0,0,
0,0,0,0,0,0,0,0,0,0,0,0,0,0,0,0,0,0,0,0,0,
0,0,0,0,0,0,0,0,0,0,0,0,0,0,0,0,0,0,0,0,0,
0,0,0,0,0,0,0,0,0,0,0,0,0,0,0,0,0,0,0,0,0,
0,0,0,0,0,0,0,0,0,0,0,0,0,0,0,0,0,0,0,0,0,
0,0,0,0,0,0,0,0,0,0,0,0,0,0,0,0,0,0,0,0,0,
0,0,0,0,0,0,0,0,0,0,0,0,0,0,0,0,0,0,0,0,0,
0,0,0,0,0,0,0,0,0,0,0,0,0,0,0,0,0,0,0,0,0,
0,0,0,0,0,0,0,0,0,0,0,0,0,0,0,0,0,0,0,0,0,
0,0,0,0,0,0,0,0,0,0,0,0,0,0,0,0,0,0,0,0,0,
0,0,0,0,0,0,0,0,0,0,0,0,0,0,0,0,0,0,0,0,0,
0,0,0,0,0,0,0,0,0,0,0,0,0,0,0,0,0,0,0,0,0,
0,0,0,0,0,0,0,0,0,0,0,0,0,0,0,0,0,0,0,0,0
</data>
 </layer>
 <objectgroup id="8" name="Front"/>
 <layer id="9" name="AlwaysFront" width="21" height="21">
  <data encoding="csv">
62,62,62,62,62,62,63,62,62,62,62,63,62,62,62,62,62,63,62,62,62,
62,62,62,63,62,62,62,63,62,62,62,62,62,63,62,62,62,62,62,63,62,
62,62,62,62,62,63,62,62,62,62,62,62,63,62,62,62,62,62,62,62,62,
63,62,62,62,62,62,62,63,62,62,63,62,62,62,62,62,63,62,63,62,62,
62,62,62,63,62,62,62,62,62,62,62,63,62,62,63,62,62,62,62,62,62,
62,62,62,62,62,62,62,63,62,62,62,62,62,62,62,62,62,62,63,62,62,
62,63,62,62,63,62,62,62,2684354790,3221225704,3221225703,3221225704,1610612974,62,62,63,62,62,62,62,62,
62,62,62,62,62,62,62,2684354790,2684354774,0,0,0,1610612958,1610612974,62,62,62,62,62,62,62,
62,62,63,62,63,62,2684354790,2684354774,0,0,0,0,0,1610612958,1610612974,62,62,62,62,63,62,
62,62,62,62,62,62,2684354792,0,0,0,0,0,0,0,1610612967,62,63,62,62,62,62,
62,62,62,62,62,62,2684354791,0,0,0,0,0,0,0,1610612968,62,62,62,62,62,62,
62,62,62,63,62,62,2684354792,0,0,0,0,0,0,0,1610612967,62,62,63,62,62,63,
62,63,62,62,62,62,230,214,0,0,0,0,0,222,238,62,62,62,62,62,62,
62,62,62,62,62,62,62,230,214,0,0,0,222,238,62,62,63,62,62,62,62,
62,62,62,62,62,63,62,62,230,232,231,232,238,62,62,62,62,62,63,62,62,
63,62,62,62,62,62,62,62,62,62,62,62,63,62,63,62,62,62,62,62,62,
62,62,62,63,62,62,62,62,63,62,62,62,62,62,62,62,62,62,62,62,62,
62,63,62,62,62,62,62,62,62,62,63,62,62,62,62,63,62,62,62,63,62,
62,62,62,62,62,63,62,62,62,62,62,62,63,62,62,62,62,62,62,62,62,
62,62,63,62,62,62,62,62,62,63,62,62,62,62,62,62,63,62,62,62,62,
62,62,62,62,62,62,62,62,62,62,62,62,63,62,62,62,62,62,62,63,62
</data>
 </layer>
 <objectgroup id="10" name="AlwaysFront"/>
</map>
