<?xml version="1.0" encoding="UTF-8"?>
<map version="1.10" tiledversion="1.10.1" orientation="orthogonal" renderorder="right-down" compressionlevel="0" width="40" height="27" tilewidth="16" tileheight="16" infinite="0" nextlayerid="15" nextobjectid="1">
 <properties>
  <property name="AmbientLight" value="95 95 95"/>
  <property name="Warp" value="6 12 Farm 83 5"/>
 </properties>
 <tileset firstgid="1" name="cave" tilewidth="16" tileheight="16" tilecount="288" columns="16">
  <image source="Mines/mine.png" width="256" height="288"/>
 </tileset>
 <tileset firstgid="289" name="paths" tilewidth="16" tileheight="16" tilecount="64" columns="4">
  <image source="paths" width="64" height="256"/>
 </tileset>
 <tileset firstgid="353" name="mine_frost_dangerous" tilewidth="16" tileheight="16" tilecount="288" columns="16">
  <image source="Mines/mine_frost_dangerous.png" width="256" height="288"/>
  <tile id="137">
   <properties>
    <property name="Spawnable" value="T"/>
    <property name="Type" value="Grass"/>
   </properties>
  </tile>
  <tile id="138">
   <properties>
    <property name="Spawnable" value="T"/>
    <property name="Type" value="Grass"/>
   </properties>
  </tile>
  <tile id="139">
   <properties>
    <property name="Spawnable" value="T"/>
    <property name="Type" value="Grass"/>
   </properties>
  </tile>
  <tile id="140">
   <properties>
    <property name="Spawnable" value="T"/>
    <property name="Type" value="Grass"/>
   </properties>
  </tile>
  <tile id="149">
   <properties>
    <property name="Type" value="Dirt"/>
   </properties>
  </tile>
  <tile id="150">
   <properties>
    <property name="Type" value="Dirt"/>
   </properties>
  </tile>
  <tile id="151">
   <properties>
    <property name="Type" value="Dirt"/>
   </properties>
  </tile>
  <tile id="152">
   <properties>
    <property name="Type" value="Dirt"/>
   </properties>
  </tile>
  <tile id="153">
   <properties>
    <property name="Spawnable" value="T"/>
    <property name="Type" value="Grass"/>
   </properties>
  </tile>
  <tile id="154">
   <properties>
    <property name="Spawnable" value="T"/>
    <property name="Type" value="Grass"/>
   </properties>
  </tile>
  <tile id="155">
   <properties>
    <property name="Spawnable" value="T"/>
    <property name="Type" value="Grass"/>
   </properties>
  </tile>
  <tile id="165">
   <properties>
    <property name="Type" value="Dirt"/>
   </properties>
  </tile>
  <tile id="166">
   <properties>
    <property name="Type" value="Grass"/>
   </properties>
  </tile>
  <tile id="167">
   <properties>
    <property name="Type" value="Grass"/>
   </properties>
  </tile>
  <tile id="168">
   <properties>
    <property name="Type" value="Grass"/>
   </properties>
  </tile>
  <tile id="169">
   <properties>
    <property name="Spawnable" value="T"/>
    <property name="Type" value="Grass"/>
   </properties>
  </tile>
  <tile id="170">
   <properties>
    <property name="Spawnable" value="T"/>
    <property name="Type" value="Grass"/>
   </properties>
  </tile>
  <tile id="171">
   <properties>
    <property name="Spawnable" value="T"/>
    <property name="Type" value="Grass"/>
   </properties>
  </tile>
  <tile id="172">
   <properties>
    <property name="Spawnable" value="T"/>
    <property name="Type" value="Grass"/>
   </properties>
  </tile>
  <tile id="181">
   <properties>
    <property name="Type" value="Dirt"/>
   </properties>
  </tile>
  <tile id="182">
   <properties>
    <property name="Type" value="Grass"/>
   </properties>
  </tile>
  <tile id="183">
   <properties>
    <property name="Type" value="Dirt"/>
   </properties>
  </tile>
  <tile id="184">
   <properties>
    <property name="Type" value="Grass"/>
   </properties>
  </tile>
  <tile id="185">
   <properties>
    <property name="Spawnable" value="T"/>
    <property name="Type" value="Grass"/>
   </properties>
  </tile>
  <tile id="186">
   <properties>
    <property name="Spawnable" value="T"/>
    <property name="Type" value="Grass"/>
   </properties>
  </tile>
  <tile id="187">
   <properties>
    <property name="Spawnable" value="T"/>
    <property name="Type" value="Grass"/>
   </properties>
  </tile>
  <tile id="188">
   <properties>
    <property name="Spawnable" value="T"/>
    <property name="Type" value="Grass"/>
   </properties>
  </tile>
  <tile id="198">
   <properties>
    <property name="Type" value="Grass"/>
   </properties>
  </tile>
  <tile id="199">
   <properties>
    <property name="Type" value="Grass"/>
   </properties>
  </tile>
  <tile id="200">
   <properties>
    <property name="Type" value="Grass"/>
   </properties>
  </tile>
  <tile id="201">
   <properties>
    <property name="Spawnable" value="T"/>
    <property name="Type" value="Grass"/>
   </properties>
  </tile>
  <tile id="202">
   <properties>
    <property name="Spawnable" value="T"/>
    <property name="Type" value="Grass"/>
   </properties>
  </tile>
  <tile id="203">
   <properties>
    <property name="Spawnable" value="T"/>
    <property name="Type" value="Grass"/>
   </properties>
  </tile>
  <tile id="217">
   <properties>
    <property name="Spawnable" value="T"/>
    <property name="Type" value="Grass"/>
   </properties>
  </tile>
  <tile id="218">
   <properties>
    <property name="Spawnable" value="T"/>
    <property name="Type" value="Grass"/>
   </properties>
  </tile>
  <tile id="219">
   <properties>
    <property name="Spawnable" value="T"/>
    <property name="Type" value="Grass"/>
   </properties>
  </tile>
  <tile id="233">
   <properties>
    <property name="Spawnable" value="T"/>
    <property name="Type" value="Grass"/>
   </properties>
  </tile>
  <tile id="234">
   <properties>
    <property name="Spawnable" value="T"/>
    <property name="Type" value="Grass"/>
   </properties>
  </tile>
  <tile id="235">
   <properties>
    <property name="Spawnable" value="T"/>
    <property name="Type" value="Grass"/>
   </properties>
  </tile>
  <tile id="260">
   <properties>
    <property name="Water" value="T"/>
   </properties>
  </tile>
  <tile id="262">
   <properties>
    <property name="Water" value="T"/>
   </properties>
  </tile>
  <tile id="263">
   <properties>
    <property name="Water" value="T"/>
   </properties>
  </tile>
  <tile id="264">
   <properties>
    <property name="Water" value="T"/>
   </properties>
  </tile>
  <tile id="265">
   <properties>
    <property name="Water" value="T"/>
   </properties>
  </tile>
  <tile id="266">
   <properties>
    <property name="Water" value="T"/>
   </properties>
  </tile>
  <tile id="275">
   <properties>
    <property name="Water" value="T"/>
   </properties>
  </tile>
  <tile id="276">
   <properties>
    <property name="Water" value="T"/>
   </properties>
  </tile>
  <tile id="277">
   <properties>
    <property name="Water" value="T"/>
   </properties>
  </tile>
  <tile id="281">
   <properties>
    <property name="Water" value="T"/>
   </properties>
  </tile>
  <tile id="282">
   <properties>
    <property name="Water" value="T"/>
   </properties>
  </tile>
 </tileset>
 <tileset firstgid="641" name="spring_Waterfalls" tilewidth="16" tileheight="16" tilecount="900" columns="36">
  <image source="spring_Waterfalls" width="576" height="400"/>
  <tile id="1">
   <animation>
    <frame tileid="1" duration="100"/>
    <frame tileid="5" duration="100"/>
    <frame tileid="9" duration="100"/>
    <frame tileid="13" duration="100"/>
    <frame tileid="17" duration="100"/>
    <frame tileid="21" duration="100"/>
    <frame tileid="25" duration="100"/>
    <frame tileid="29" duration="100"/>
   </animation>
  </tile>
  <tile id="2">
   <animation>
    <frame tileid="2" duration="100"/>
    <frame tileid="6" duration="100"/>
    <frame tileid="10" duration="100"/>
    <frame tileid="14" duration="100"/>
    <frame tileid="18" duration="100"/>
    <frame tileid="22" duration="100"/>
    <frame tileid="26" duration="100"/>
    <frame tileid="30" duration="100"/>
   </animation>
  </tile>
  <tile id="17">
   <animation>
    <frame tileid="17" duration="100"/>
    <frame tileid="21" duration="100"/>
    <frame tileid="25" duration="100"/>
    <frame tileid="29" duration="100"/>
    <frame tileid="1" duration="100"/>
    <frame tileid="5" duration="100"/>
    <frame tileid="9" duration="100"/>
    <frame tileid="13" duration="100"/>
   </animation>
  </tile>
  <tile id="18">
   <animation>
    <frame tileid="18" duration="100"/>
    <frame tileid="22" duration="100"/>
    <frame tileid="26" duration="100"/>
    <frame tileid="30" duration="100"/>
    <frame tileid="2" duration="100"/>
    <frame tileid="6" duration="100"/>
    <frame tileid="10" duration="100"/>
    <frame tileid="14" duration="100"/>
   </animation>
  </tile>
  <tile id="37">
   <animation>
    <frame tileid="37" duration="100"/>
    <frame tileid="41" duration="100"/>
    <frame tileid="45" duration="100"/>
    <frame tileid="49" duration="100"/>
    <frame tileid="53" duration="100"/>
    <frame tileid="57" duration="100"/>
    <frame tileid="61" duration="100"/>
    <frame tileid="65" duration="100"/>
   </animation>
  </tile>
  <tile id="38">
   <animation>
    <frame tileid="38" duration="100"/>
    <frame tileid="42" duration="100"/>
    <frame tileid="46" duration="100"/>
    <frame tileid="50" duration="100"/>
    <frame tileid="54" duration="100"/>
    <frame tileid="58" duration="100"/>
    <frame tileid="62" duration="100"/>
    <frame tileid="66" duration="100"/>
   </animation>
  </tile>
  <tile id="53">
   <animation>
    <frame tileid="53" duration="100"/>
    <frame tileid="57" duration="100"/>
    <frame tileid="61" duration="100"/>
    <frame tileid="65" duration="100"/>
    <frame tileid="37" duration="100"/>
    <frame tileid="41" duration="100"/>
    <frame tileid="45" duration="100"/>
    <frame tileid="49" duration="100"/>
   </animation>
  </tile>
  <tile id="54">
   <animation>
    <frame tileid="54" duration="100"/>
    <frame tileid="58" duration="100"/>
    <frame tileid="62" duration="100"/>
    <frame tileid="66" duration="100"/>
    <frame tileid="38" duration="100"/>
    <frame tileid="42" duration="100"/>
    <frame tileid="46" duration="100"/>
    <frame tileid="50" duration="100"/>
   </animation>
  </tile>
  <tile id="72">
   <animation>
    <frame tileid="72" duration="100"/>
    <frame tileid="76" duration="100"/>
    <frame tileid="80" duration="100"/>
    <frame tileid="84" duration="100"/>
    <frame tileid="88" duration="100"/>
    <frame tileid="92" duration="100"/>
    <frame tileid="96" duration="100"/>
    <frame tileid="100" duration="100"/>
   </animation>
  </tile>
  <tile id="73">
   <animation>
    <frame tileid="73" duration="100"/>
    <frame tileid="77" duration="100"/>
    <frame tileid="81" duration="100"/>
    <frame tileid="85" duration="100"/>
    <frame tileid="89" duration="100"/>
    <frame tileid="93" duration="100"/>
    <frame tileid="97" duration="100"/>
    <frame tileid="101" duration="100"/>
   </animation>
  </tile>
  <tile id="74">
   <animation>
    <frame tileid="74" duration="100"/>
    <frame tileid="78" duration="100"/>
    <frame tileid="82" duration="100"/>
    <frame tileid="86" duration="100"/>
    <frame tileid="90" duration="100"/>
    <frame tileid="94" duration="100"/>
    <frame tileid="98" duration="100"/>
    <frame tileid="102" duration="100"/>
   </animation>
  </tile>
  <tile id="75">
   <animation>
    <frame tileid="75" duration="100"/>
    <frame tileid="79" duration="100"/>
    <frame tileid="83" duration="100"/>
    <frame tileid="87" duration="100"/>
    <frame tileid="91" duration="100"/>
    <frame tileid="95" duration="100"/>
    <frame tileid="99" duration="100"/>
    <frame tileid="103" duration="100"/>
   </animation>
  </tile>
  <tile id="88">
   <animation>
    <frame tileid="88" duration="100"/>
    <frame tileid="92" duration="100"/>
    <frame tileid="96" duration="100"/>
    <frame tileid="100" duration="100"/>
    <frame tileid="72" duration="100"/>
    <frame tileid="76" duration="100"/>
    <frame tileid="80" duration="100"/>
    <frame tileid="84" duration="100"/>
   </animation>
  </tile>
  <tile id="89">
   <animation>
    <frame tileid="89" duration="100"/>
    <frame tileid="93" duration="100"/>
    <frame tileid="97" duration="100"/>
    <frame tileid="101" duration="100"/>
    <frame tileid="73" duration="100"/>
    <frame tileid="77" duration="100"/>
    <frame tileid="81" duration="100"/>
    <frame tileid="85" duration="100"/>
   </animation>
  </tile>
  <tile id="90">
   <animation>
    <frame tileid="90" duration="100"/>
    <frame tileid="94" duration="100"/>
    <frame tileid="98" duration="100"/>
    <frame tileid="102" duration="100"/>
    <frame tileid="74" duration="100"/>
    <frame tileid="78" duration="100"/>
    <frame tileid="82" duration="100"/>
    <frame tileid="86" duration="100"/>
   </animation>
  </tile>
  <tile id="91">
   <animation>
    <frame tileid="91" duration="100"/>
    <frame tileid="95" duration="100"/>
    <frame tileid="99" duration="100"/>
    <frame tileid="103" duration="100"/>
    <frame tileid="75" duration="100"/>
    <frame tileid="79" duration="100"/>
    <frame tileid="83" duration="100"/>
    <frame tileid="87" duration="100"/>
   </animation>
  </tile>
  <tile id="108">
   <animation>
    <frame tileid="108" duration="100"/>
    <frame tileid="112" duration="100"/>
    <frame tileid="116" duration="100"/>
    <frame tileid="120" duration="100"/>
    <frame tileid="124" duration="100"/>
    <frame tileid="128" duration="100"/>
    <frame tileid="132" duration="100"/>
    <frame tileid="136" duration="100"/>
   </animation>
  </tile>
  <tile id="109">
   <animation>
    <frame tileid="109" duration="100"/>
    <frame tileid="113" duration="100"/>
    <frame tileid="117" duration="100"/>
    <frame tileid="121" duration="100"/>
    <frame tileid="125" duration="100"/>
    <frame tileid="129" duration="100"/>
    <frame tileid="133" duration="100"/>
    <frame tileid="137" duration="100"/>
   </animation>
  </tile>
  <tile id="110">
   <animation>
    <frame tileid="110" duration="100"/>
    <frame tileid="114" duration="100"/>
    <frame tileid="118" duration="100"/>
    <frame tileid="122" duration="100"/>
    <frame tileid="126" duration="100"/>
    <frame tileid="130" duration="100"/>
    <frame tileid="134" duration="100"/>
    <frame tileid="138" duration="100"/>
   </animation>
  </tile>
  <tile id="111">
   <animation>
    <frame tileid="111" duration="100"/>
    <frame tileid="115" duration="100"/>
    <frame tileid="119" duration="100"/>
    <frame tileid="123" duration="100"/>
    <frame tileid="127" duration="100"/>
    <frame tileid="131" duration="100"/>
    <frame tileid="135" duration="100"/>
    <frame tileid="139" duration="100"/>
   </animation>
  </tile>
  <tile id="124">
   <animation>
    <frame tileid="124" duration="100"/>
    <frame tileid="128" duration="100"/>
    <frame tileid="132" duration="100"/>
    <frame tileid="136" duration="100"/>
    <frame tileid="108" duration="100"/>
    <frame tileid="112" duration="100"/>
    <frame tileid="116" duration="100"/>
    <frame tileid="120" duration="100"/>
   </animation>
  </tile>
  <tile id="125">
   <animation>
    <frame tileid="125" duration="100"/>
    <frame tileid="129" duration="100"/>
    <frame tileid="133" duration="100"/>
    <frame tileid="137" duration="100"/>
    <frame tileid="109" duration="100"/>
    <frame tileid="113" duration="100"/>
    <frame tileid="117" duration="100"/>
    <frame tileid="121" duration="100"/>
   </animation>
  </tile>
  <tile id="126">
   <animation>
    <frame tileid="126" duration="100"/>
    <frame tileid="130" duration="100"/>
    <frame tileid="134" duration="100"/>
    <frame tileid="138" duration="100"/>
    <frame tileid="110" duration="100"/>
    <frame tileid="114" duration="100"/>
    <frame tileid="118" duration="100"/>
    <frame tileid="122" duration="100"/>
   </animation>
  </tile>
  <tile id="127">
   <animation>
    <frame tileid="127" duration="100"/>
    <frame tileid="131" duration="100"/>
    <frame tileid="135" duration="100"/>
    <frame tileid="139" duration="100"/>
    <frame tileid="111" duration="100"/>
    <frame tileid="115" duration="100"/>
    <frame tileid="119" duration="100"/>
    <frame tileid="123" duration="100"/>
   </animation>
  </tile>
  <tile id="145">
   <animation>
    <frame tileid="145" duration="100"/>
    <frame tileid="151" duration="100"/>
    <frame tileid="157" duration="100"/>
    <frame tileid="163" duration="100"/>
    <frame tileid="169" duration="100"/>
    <frame tileid="175" duration="100"/>
    <frame tileid="397" duration="100"/>
    <frame tileid="403" duration="100"/>
    <frame tileid="409" duration="100"/>
    <frame tileid="415" duration="100"/>
    <frame tileid="421" duration="100"/>
    <frame tileid="427" duration="100"/>
    <frame tileid="649" duration="100"/>
    <frame tileid="655" duration="100"/>
    <frame tileid="661" duration="100"/>
    <frame tileid="667" duration="100"/>
    <frame tileid="673" duration="100"/>
   </animation>
  </tile>
  <tile id="146">
   <animation>
    <frame tileid="146" duration="100"/>
    <frame tileid="152" duration="100"/>
    <frame tileid="158" duration="100"/>
    <frame tileid="164" duration="100"/>
    <frame tileid="170" duration="100"/>
    <frame tileid="176" duration="100"/>
    <frame tileid="398" duration="100"/>
    <frame tileid="404" duration="100"/>
    <frame tileid="410" duration="100"/>
    <frame tileid="416" duration="100"/>
    <frame tileid="422" duration="100"/>
    <frame tileid="428" duration="100"/>
    <frame tileid="650" duration="100"/>
    <frame tileid="656" duration="100"/>
    <frame tileid="662" duration="100"/>
    <frame tileid="668" duration="100"/>
    <frame tileid="674" duration="100"/>
   </animation>
  </tile>
  <tile id="147">
   <animation>
    <frame tileid="147" duration="100"/>
    <frame tileid="153" duration="100"/>
    <frame tileid="159" duration="100"/>
    <frame tileid="165" duration="100"/>
    <frame tileid="171" duration="100"/>
    <frame tileid="177" duration="100"/>
    <frame tileid="399" duration="100"/>
    <frame tileid="405" duration="100"/>
    <frame tileid="411" duration="100"/>
    <frame tileid="417" duration="100"/>
    <frame tileid="423" duration="100"/>
    <frame tileid="429" duration="100"/>
    <frame tileid="651" duration="100"/>
    <frame tileid="657" duration="100"/>
    <frame tileid="663" duration="100"/>
    <frame tileid="669" duration="100"/>
    <frame tileid="675" duration="100"/>
   </animation>
  </tile>
  <tile id="148">
   <animation>
    <frame tileid="148" duration="100"/>
    <frame tileid="154" duration="100"/>
    <frame tileid="160" duration="100"/>
    <frame tileid="166" duration="100"/>
    <frame tileid="172" duration="100"/>
    <frame tileid="178" duration="100"/>
    <frame tileid="400" duration="100"/>
    <frame tileid="406" duration="100"/>
    <frame tileid="412" duration="100"/>
    <frame tileid="418" duration="100"/>
    <frame tileid="424" duration="100"/>
    <frame tileid="430" duration="100"/>
    <frame tileid="652" duration="100"/>
    <frame tileid="658" duration="100"/>
    <frame tileid="664" duration="100"/>
    <frame tileid="670" duration="100"/>
    <frame tileid="676" duration="100"/>
   </animation>
  </tile>
  <tile id="181">
   <animation>
    <frame tileid="181" duration="100"/>
    <frame tileid="187" duration="100"/>
    <frame tileid="193" duration="100"/>
    <frame tileid="199" duration="100"/>
    <frame tileid="205" duration="100"/>
    <frame tileid="211" duration="100"/>
    <frame tileid="433" duration="100"/>
    <frame tileid="439" duration="100"/>
    <frame tileid="445" duration="100"/>
    <frame tileid="451" duration="100"/>
    <frame tileid="457" duration="100"/>
    <frame tileid="463" duration="100"/>
    <frame tileid="685" duration="100"/>
    <frame tileid="691" duration="100"/>
    <frame tileid="697" duration="100"/>
    <frame tileid="703" duration="100"/>
    <frame tileid="709" duration="100"/>
   </animation>
  </tile>
  <tile id="182">
   <animation>
    <frame tileid="182" duration="100"/>
    <frame tileid="188" duration="100"/>
    <frame tileid="194" duration="100"/>
    <frame tileid="200" duration="100"/>
    <frame tileid="206" duration="100"/>
    <frame tileid="212" duration="100"/>
    <frame tileid="434" duration="100"/>
    <frame tileid="440" duration="100"/>
    <frame tileid="446" duration="100"/>
    <frame tileid="452" duration="100"/>
    <frame tileid="458" duration="100"/>
    <frame tileid="464" duration="100"/>
    <frame tileid="686" duration="100"/>
    <frame tileid="692" duration="100"/>
    <frame tileid="698" duration="100"/>
    <frame tileid="704" duration="100"/>
    <frame tileid="710" duration="100"/>
   </animation>
  </tile>
  <tile id="183">
   <animation>
    <frame tileid="183" duration="100"/>
    <frame tileid="189" duration="100"/>
    <frame tileid="195" duration="100"/>
    <frame tileid="201" duration="100"/>
    <frame tileid="207" duration="100"/>
    <frame tileid="213" duration="100"/>
    <frame tileid="435" duration="100"/>
    <frame tileid="441" duration="100"/>
    <frame tileid="447" duration="100"/>
    <frame tileid="453" duration="100"/>
    <frame tileid="459" duration="100"/>
    <frame tileid="465" duration="100"/>
    <frame tileid="687" duration="100"/>
    <frame tileid="693" duration="100"/>
    <frame tileid="699" duration="100"/>
    <frame tileid="705" duration="100"/>
    <frame tileid="711" duration="100"/>
   </animation>
  </tile>
  <tile id="184">
   <animation>
    <frame tileid="184" duration="100"/>
    <frame tileid="190" duration="100"/>
    <frame tileid="196" duration="100"/>
    <frame tileid="202" duration="100"/>
    <frame tileid="208" duration="100"/>
    <frame tileid="214" duration="100"/>
    <frame tileid="436" duration="100"/>
    <frame tileid="442" duration="100"/>
    <frame tileid="448" duration="100"/>
    <frame tileid="454" duration="100"/>
    <frame tileid="460" duration="100"/>
    <frame tileid="466" duration="100"/>
    <frame tileid="688" duration="100"/>
    <frame tileid="694" duration="100"/>
    <frame tileid="700" duration="100"/>
    <frame tileid="706" duration="100"/>
    <frame tileid="712" duration="100"/>
   </animation>
  </tile>
  <tile id="217">
   <animation>
    <frame tileid="217" duration="100"/>
    <frame tileid="223" duration="100"/>
    <frame tileid="229" duration="100"/>
    <frame tileid="235" duration="100"/>
    <frame tileid="241" duration="100"/>
    <frame tileid="247" duration="100"/>
    <frame tileid="469" duration="100"/>
    <frame tileid="475" duration="100"/>
    <frame tileid="481" duration="100"/>
    <frame tileid="487" duration="100"/>
    <frame tileid="493" duration="100"/>
    <frame tileid="499" duration="100"/>
    <frame tileid="721" duration="100"/>
    <frame tileid="727" duration="100"/>
    <frame tileid="733" duration="100"/>
    <frame tileid="739" duration="100"/>
    <frame tileid="745" duration="100"/>
   </animation>
  </tile>
  <tile id="218">
   <animation>
    <frame tileid="218" duration="100"/>
    <frame tileid="224" duration="100"/>
    <frame tileid="230" duration="100"/>
    <frame tileid="236" duration="100"/>
    <frame tileid="242" duration="100"/>
    <frame tileid="248" duration="100"/>
    <frame tileid="470" duration="100"/>
    <frame tileid="476" duration="100"/>
    <frame tileid="482" duration="100"/>
    <frame tileid="488" duration="100"/>
    <frame tileid="494" duration="100"/>
    <frame tileid="500" duration="100"/>
    <frame tileid="722" duration="100"/>
    <frame tileid="728" duration="100"/>
    <frame tileid="734" duration="100"/>
    <frame tileid="740" duration="100"/>
    <frame tileid="746" duration="100"/>
   </animation>
  </tile>
  <tile id="219">
   <animation>
    <frame tileid="219" duration="100"/>
    <frame tileid="225" duration="100"/>
    <frame tileid="231" duration="100"/>
    <frame tileid="237" duration="100"/>
    <frame tileid="243" duration="100"/>
    <frame tileid="249" duration="100"/>
    <frame tileid="471" duration="100"/>
    <frame tileid="477" duration="100"/>
    <frame tileid="483" duration="100"/>
    <frame tileid="489" duration="100"/>
    <frame tileid="495" duration="100"/>
    <frame tileid="501" duration="100"/>
    <frame tileid="723" duration="100"/>
    <frame tileid="729" duration="100"/>
    <frame tileid="735" duration="100"/>
    <frame tileid="741" duration="100"/>
    <frame tileid="747" duration="100"/>
   </animation>
  </tile>
  <tile id="220">
   <animation>
    <frame tileid="220" duration="100"/>
    <frame tileid="226" duration="100"/>
    <frame tileid="232" duration="100"/>
    <frame tileid="238" duration="100"/>
    <frame tileid="244" duration="100"/>
    <frame tileid="250" duration="100"/>
    <frame tileid="472" duration="100"/>
    <frame tileid="478" duration="100"/>
    <frame tileid="484" duration="100"/>
    <frame tileid="490" duration="100"/>
    <frame tileid="496" duration="100"/>
    <frame tileid="502" duration="100"/>
    <frame tileid="724" duration="100"/>
    <frame tileid="730" duration="100"/>
    <frame tileid="736" duration="100"/>
    <frame tileid="742" duration="100"/>
    <frame tileid="748" duration="100"/>
   </animation>
  </tile>
  <tile id="253">
   <animation>
    <frame tileid="253" duration="100"/>
    <frame tileid="259" duration="100"/>
    <frame tileid="265" duration="100"/>
    <frame tileid="271" duration="100"/>
    <frame tileid="277" duration="100"/>
    <frame tileid="283" duration="100"/>
    <frame tileid="505" duration="100"/>
    <frame tileid="511" duration="100"/>
    <frame tileid="517" duration="100"/>
    <frame tileid="523" duration="100"/>
    <frame tileid="529" duration="100"/>
    <frame tileid="535" duration="100"/>
    <frame tileid="757" duration="100"/>
    <frame tileid="763" duration="100"/>
    <frame tileid="769" duration="100"/>
    <frame tileid="775" duration="100"/>
    <frame tileid="781" duration="100"/>
   </animation>
  </tile>
  <tile id="254">
   <animation>
    <frame tileid="254" duration="100"/>
    <frame tileid="260" duration="100"/>
    <frame tileid="266" duration="100"/>
    <frame tileid="272" duration="100"/>
    <frame tileid="278" duration="100"/>
    <frame tileid="284" duration="100"/>
    <frame tileid="506" duration="100"/>
    <frame tileid="512" duration="100"/>
    <frame tileid="518" duration="100"/>
    <frame tileid="524" duration="100"/>
    <frame tileid="530" duration="100"/>
    <frame tileid="536" duration="100"/>
    <frame tileid="758" duration="100"/>
    <frame tileid="764" duration="100"/>
    <frame tileid="770" duration="100"/>
    <frame tileid="776" duration="100"/>
    <frame tileid="782" duration="100"/>
   </animation>
  </tile>
  <tile id="255">
   <animation>
    <frame tileid="255" duration="100"/>
    <frame tileid="261" duration="100"/>
    <frame tileid="267" duration="100"/>
    <frame tileid="273" duration="100"/>
    <frame tileid="279" duration="100"/>
    <frame tileid="285" duration="100"/>
    <frame tileid="507" duration="100"/>
    <frame tileid="513" duration="100"/>
    <frame tileid="519" duration="100"/>
    <frame tileid="525" duration="100"/>
    <frame tileid="531" duration="100"/>
    <frame tileid="537" duration="100"/>
    <frame tileid="759" duration="100"/>
    <frame tileid="765" duration="100"/>
    <frame tileid="771" duration="100"/>
    <frame tileid="777" duration="100"/>
    <frame tileid="783" duration="100"/>
   </animation>
  </tile>
  <tile id="256">
   <animation>
    <frame tileid="256" duration="100"/>
    <frame tileid="262" duration="100"/>
    <frame tileid="268" duration="100"/>
    <frame tileid="274" duration="100"/>
    <frame tileid="280" duration="100"/>
    <frame tileid="286" duration="100"/>
    <frame tileid="508" duration="100"/>
    <frame tileid="514" duration="100"/>
    <frame tileid="520" duration="100"/>
    <frame tileid="526" duration="100"/>
    <frame tileid="532" duration="100"/>
    <frame tileid="538" duration="100"/>
    <frame tileid="760" duration="100"/>
    <frame tileid="766" duration="100"/>
    <frame tileid="772" duration="100"/>
    <frame tileid="778" duration="100"/>
    <frame tileid="784" duration="100"/>
   </animation>
  </tile>
  <tile id="288">
   <animation>
    <frame tileid="288" duration="100"/>
    <frame tileid="294" duration="100"/>
    <frame tileid="300" duration="100"/>
    <frame tileid="306" duration="100"/>
    <frame tileid="312" duration="100"/>
    <frame tileid="318" duration="100"/>
    <frame tileid="540" duration="100"/>
    <frame tileid="546" duration="100"/>
    <frame tileid="552" duration="100"/>
    <frame tileid="558" duration="100"/>
    <frame tileid="564" duration="100"/>
    <frame tileid="570" duration="100"/>
    <frame tileid="792" duration="100"/>
    <frame tileid="798" duration="100"/>
    <frame tileid="804" duration="100"/>
    <frame tileid="810" duration="100"/>
    <frame tileid="816" duration="100"/>
   </animation>
  </tile>
  <tile id="289">
   <animation>
    <frame tileid="289" duration="100"/>
    <frame tileid="295" duration="100"/>
    <frame tileid="301" duration="100"/>
    <frame tileid="307" duration="100"/>
    <frame tileid="313" duration="100"/>
    <frame tileid="319" duration="100"/>
    <frame tileid="541" duration="100"/>
    <frame tileid="547" duration="100"/>
    <frame tileid="553" duration="100"/>
    <frame tileid="559" duration="100"/>
    <frame tileid="565" duration="100"/>
    <frame tileid="571" duration="100"/>
    <frame tileid="793" duration="100"/>
    <frame tileid="799" duration="100"/>
    <frame tileid="805" duration="100"/>
    <frame tileid="811" duration="100"/>
    <frame tileid="817" duration="100"/>
   </animation>
  </tile>
  <tile id="290">
   <animation>
    <frame tileid="290" duration="100"/>
    <frame tileid="296" duration="100"/>
    <frame tileid="302" duration="100"/>
    <frame tileid="308" duration="100"/>
    <frame tileid="314" duration="100"/>
    <frame tileid="320" duration="100"/>
    <frame tileid="542" duration="100"/>
    <frame tileid="548" duration="100"/>
    <frame tileid="554" duration="100"/>
    <frame tileid="560" duration="100"/>
    <frame tileid="566" duration="100"/>
    <frame tileid="572" duration="100"/>
    <frame tileid="794" duration="100"/>
    <frame tileid="800" duration="100"/>
    <frame tileid="806" duration="100"/>
    <frame tileid="812" duration="100"/>
    <frame tileid="818" duration="100"/>
   </animation>
  </tile>
  <tile id="291">
   <animation>
    <frame tileid="291" duration="100"/>
    <frame tileid="297" duration="100"/>
    <frame tileid="303" duration="100"/>
    <frame tileid="309" duration="100"/>
    <frame tileid="315" duration="100"/>
    <frame tileid="321" duration="100"/>
    <frame tileid="543" duration="100"/>
    <frame tileid="549" duration="100"/>
    <frame tileid="555" duration="100"/>
    <frame tileid="561" duration="100"/>
    <frame tileid="567" duration="100"/>
    <frame tileid="573" duration="100"/>
    <frame tileid="795" duration="100"/>
    <frame tileid="801" duration="100"/>
    <frame tileid="807" duration="100"/>
    <frame tileid="813" duration="100"/>
    <frame tileid="819" duration="100"/>
   </animation>
  </tile>
  <tile id="292">
   <animation>
    <frame tileid="292" duration="100"/>
    <frame tileid="298" duration="100"/>
    <frame tileid="304" duration="100"/>
    <frame tileid="310" duration="100"/>
    <frame tileid="316" duration="100"/>
    <frame tileid="322" duration="100"/>
    <frame tileid="544" duration="100"/>
    <frame tileid="550" duration="100"/>
    <frame tileid="556" duration="100"/>
    <frame tileid="562" duration="100"/>
    <frame tileid="568" duration="100"/>
    <frame tileid="574" duration="100"/>
    <frame tileid="796" duration="100"/>
    <frame tileid="802" duration="100"/>
    <frame tileid="808" duration="100"/>
    <frame tileid="814" duration="100"/>
    <frame tileid="820" duration="100"/>
   </animation>
  </tile>
  <tile id="293">
   <animation>
    <frame tileid="293" duration="100"/>
    <frame tileid="299" duration="100"/>
    <frame tileid="305" duration="100"/>
    <frame tileid="311" duration="100"/>
    <frame tileid="317" duration="100"/>
    <frame tileid="323" duration="100"/>
    <frame tileid="545" duration="100"/>
    <frame tileid="551" duration="100"/>
    <frame tileid="557" duration="100"/>
    <frame tileid="563" duration="100"/>
    <frame tileid="569" duration="100"/>
    <frame tileid="575" duration="100"/>
    <frame tileid="797" duration="100"/>
    <frame tileid="803" duration="100"/>
    <frame tileid="809" duration="100"/>
    <frame tileid="815" duration="100"/>
    <frame tileid="821" duration="100"/>
   </animation>
  </tile>
  <tile id="324">
   <animation>
    <frame tileid="324" duration="100"/>
    <frame tileid="330" duration="100"/>
    <frame tileid="336" duration="100"/>
    <frame tileid="342" duration="100"/>
    <frame tileid="348" duration="100"/>
    <frame tileid="354" duration="100"/>
    <frame tileid="576" duration="100"/>
    <frame tileid="582" duration="100"/>
    <frame tileid="588" duration="100"/>
    <frame tileid="594" duration="100"/>
    <frame tileid="600" duration="100"/>
    <frame tileid="606" duration="100"/>
    <frame tileid="828" duration="100"/>
    <frame tileid="834" duration="100"/>
    <frame tileid="840" duration="100"/>
    <frame tileid="846" duration="100"/>
    <frame tileid="852" duration="100"/>
   </animation>
  </tile>
  <tile id="325">
   <animation>
    <frame tileid="325" duration="100"/>
    <frame tileid="331" duration="100"/>
    <frame tileid="337" duration="100"/>
    <frame tileid="343" duration="100"/>
    <frame tileid="349" duration="100"/>
    <frame tileid="355" duration="100"/>
    <frame tileid="577" duration="100"/>
    <frame tileid="583" duration="100"/>
    <frame tileid="589" duration="100"/>
    <frame tileid="595" duration="100"/>
    <frame tileid="601" duration="100"/>
    <frame tileid="607" duration="100"/>
    <frame tileid="829" duration="100"/>
    <frame tileid="835" duration="100"/>
    <frame tileid="841" duration="100"/>
    <frame tileid="847" duration="100"/>
    <frame tileid="853" duration="100"/>
   </animation>
  </tile>
  <tile id="326">
   <animation>
    <frame tileid="326" duration="100"/>
    <frame tileid="332" duration="100"/>
    <frame tileid="338" duration="100"/>
    <frame tileid="344" duration="100"/>
    <frame tileid="350" duration="100"/>
    <frame tileid="356" duration="100"/>
    <frame tileid="578" duration="100"/>
    <frame tileid="584" duration="100"/>
    <frame tileid="590" duration="100"/>
    <frame tileid="596" duration="100"/>
    <frame tileid="602" duration="100"/>
    <frame tileid="608" duration="100"/>
    <frame tileid="830" duration="100"/>
    <frame tileid="836" duration="100"/>
    <frame tileid="842" duration="100"/>
    <frame tileid="848" duration="100"/>
    <frame tileid="854" duration="100"/>
   </animation>
  </tile>
  <tile id="327">
   <animation>
    <frame tileid="327" duration="100"/>
    <frame tileid="333" duration="100"/>
    <frame tileid="339" duration="100"/>
    <frame tileid="345" duration="100"/>
    <frame tileid="351" duration="100"/>
    <frame tileid="357" duration="100"/>
    <frame tileid="579" duration="100"/>
    <frame tileid="585" duration="100"/>
    <frame tileid="591" duration="100"/>
    <frame tileid="597" duration="100"/>
    <frame tileid="603" duration="100"/>
    <frame tileid="831" duration="100"/>
    <frame tileid="837" duration="100"/>
    <frame tileid="843" duration="100"/>
    <frame tileid="849" duration="100"/>
    <frame tileid="855" duration="100"/>
   </animation>
  </tile>
  <tile id="328">
   <animation>
    <frame tileid="328" duration="100"/>
    <frame tileid="334" duration="100"/>
    <frame tileid="340" duration="100"/>
    <frame tileid="346" duration="100"/>
    <frame tileid="352" duration="100"/>
    <frame tileid="358" duration="100"/>
    <frame tileid="580" duration="100"/>
    <frame tileid="586" duration="100"/>
    <frame tileid="592" duration="100"/>
    <frame tileid="598" duration="100"/>
    <frame tileid="604" duration="100"/>
    <frame tileid="610" duration="100"/>
    <frame tileid="832" duration="100"/>
    <frame tileid="838" duration="100"/>
    <frame tileid="844" duration="100"/>
    <frame tileid="850" duration="100"/>
    <frame tileid="856" duration="100"/>
   </animation>
  </tile>
  <tile id="329">
   <animation>
    <frame tileid="329" duration="100"/>
    <frame tileid="335" duration="100"/>
    <frame tileid="341" duration="100"/>
    <frame tileid="347" duration="100"/>
    <frame tileid="353" duration="100"/>
    <frame tileid="359" duration="100"/>
    <frame tileid="581" duration="100"/>
    <frame tileid="587" duration="100"/>
    <frame tileid="593" duration="100"/>
    <frame tileid="599" duration="100"/>
    <frame tileid="605" duration="100"/>
    <frame tileid="611" duration="100"/>
    <frame tileid="833" duration="100"/>
    <frame tileid="839" duration="100"/>
    <frame tileid="845" duration="100"/>
    <frame tileid="851" duration="100"/>
    <frame tileid="857" duration="100"/>
   </animation>
  </tile>
  <tile id="360">
   <animation>
    <frame tileid="360" duration="100"/>
    <frame tileid="366" duration="100"/>
    <frame tileid="372" duration="100"/>
    <frame tileid="378" duration="100"/>
    <frame tileid="384" duration="100"/>
    <frame tileid="390" duration="100"/>
    <frame tileid="612" duration="100"/>
    <frame tileid="618" duration="100"/>
    <frame tileid="624" duration="100"/>
    <frame tileid="630" duration="100"/>
    <frame tileid="636" duration="100"/>
    <frame tileid="642" duration="100"/>
    <frame tileid="864" duration="100"/>
    <frame tileid="870" duration="100"/>
    <frame tileid="876" duration="100"/>
    <frame tileid="882" duration="100"/>
    <frame tileid="888" duration="100"/>
   </animation>
  </tile>
  <tile id="361">
   <animation>
    <frame tileid="361" duration="100"/>
    <frame tileid="367" duration="100"/>
    <frame tileid="373" duration="100"/>
    <frame tileid="379" duration="100"/>
    <frame tileid="385" duration="100"/>
    <frame tileid="391" duration="100"/>
    <frame tileid="613" duration="100"/>
    <frame tileid="619" duration="100"/>
    <frame tileid="625" duration="100"/>
    <frame tileid="631" duration="100"/>
    <frame tileid="637" duration="100"/>
    <frame tileid="643" duration="100"/>
    <frame tileid="865" duration="100"/>
    <frame tileid="871" duration="100"/>
    <frame tileid="877" duration="100"/>
    <frame tileid="883" duration="100"/>
    <frame tileid="889" duration="100"/>
   </animation>
  </tile>
  <tile id="362">
   <animation>
    <frame tileid="362" duration="100"/>
    <frame tileid="368" duration="100"/>
    <frame tileid="374" duration="100"/>
    <frame tileid="380" duration="100"/>
    <frame tileid="386" duration="100"/>
    <frame tileid="392" duration="100"/>
    <frame tileid="614" duration="100"/>
    <frame tileid="620" duration="100"/>
    <frame tileid="626" duration="100"/>
    <frame tileid="632" duration="100"/>
    <frame tileid="638" duration="100"/>
    <frame tileid="644" duration="100"/>
    <frame tileid="866" duration="100"/>
    <frame tileid="872" duration="100"/>
    <frame tileid="878" duration="100"/>
    <frame tileid="884" duration="100"/>
    <frame tileid="890" duration="100"/>
   </animation>
  </tile>
  <tile id="363">
   <animation>
    <frame tileid="363" duration="100"/>
    <frame tileid="369" duration="100"/>
    <frame tileid="375" duration="100"/>
    <frame tileid="381" duration="100"/>
    <frame tileid="387" duration="100"/>
    <frame tileid="393" duration="100"/>
    <frame tileid="615" duration="100"/>
    <frame tileid="621" duration="100"/>
    <frame tileid="627" duration="100"/>
    <frame tileid="633" duration="100"/>
    <frame tileid="639" duration="100"/>
    <frame tileid="645" duration="100"/>
    <frame tileid="867" duration="100"/>
    <frame tileid="873" duration="100"/>
    <frame tileid="879" duration="100"/>
    <frame tileid="885" duration="100"/>
    <frame tileid="891" duration="100"/>
   </animation>
  </tile>
  <tile id="364">
   <animation>
    <frame tileid="364" duration="100"/>
    <frame tileid="370" duration="100"/>
    <frame tileid="376" duration="100"/>
    <frame tileid="382" duration="100"/>
    <frame tileid="388" duration="100"/>
    <frame tileid="394" duration="100"/>
    <frame tileid="616" duration="100"/>
    <frame tileid="622" duration="100"/>
    <frame tileid="628" duration="100"/>
    <frame tileid="634" duration="100"/>
    <frame tileid="640" duration="100"/>
    <frame tileid="646" duration="100"/>
    <frame tileid="868" duration="100"/>
    <frame tileid="874" duration="100"/>
    <frame tileid="880" duration="100"/>
    <frame tileid="886" duration="100"/>
    <frame tileid="892" duration="100"/>
   </animation>
  </tile>
  <tile id="365">
   <animation>
    <frame tileid="365" duration="100"/>
    <frame tileid="371" duration="100"/>
    <frame tileid="377" duration="100"/>
    <frame tileid="383" duration="100"/>
    <frame tileid="389" duration="100"/>
    <frame tileid="395" duration="100"/>
    <frame tileid="617" duration="100"/>
    <frame tileid="623" duration="100"/>
    <frame tileid="629" duration="100"/>
    <frame tileid="635" duration="100"/>
    <frame tileid="641" duration="100"/>
    <frame tileid="647" duration="100"/>
    <frame tileid="869" duration="100"/>
    <frame tileid="875" duration="100"/>
    <frame tileid="881" duration="100"/>
    <frame tileid="887" duration="100"/>
    <frame tileid="893" duration="100"/>
   </animation>
  </tile>
 </tileset>
 <tileset firstgid="1541" name="spring_outdoorsTileSheet" tilewidth="16" tileheight="16" tilecount="1975" columns="25">
  <image source="spring_outdoorsTileSheet.png" width="400" height="1264"/>
 </tileset>
 <tileset firstgid="3516" name="WHFCaveColors" tilewidth="16" tileheight="16" tilecount="1080" columns="40">
  <image source="WHFCaveColors.png" width="640" height="432"/>
 </tileset>
 <layer id="1" name="Back" width="40" height="27">
  <data encoding="csv">
139,139,139,139,139,139,139,139,139,139,139,139,0,0,0,0,0,0,0,0,0,0,0,0,0,0,0,0,0,0,0,0,0,0,0,0,0,0,0,0,
139,139,139,139,139,139,139,139,139,139,139,139,0,0,0,0,0,0,0,0,0,0,0,0,0,0,0,0,0,0,0,0,0,0,0,0,0,0,0,0,
139,139,139,139,139,139,139,139,139,139,139,139,0,0,0,0,0,0,0,0,0,0,0,0,0,0,0,0,0,0,0,0,0,0,0,0,0,0,0,0,
139,491,571,571,571,571,571,571,571,571,491,571,571,571,571,571,571,0,0,0,0,0,599,600,600,600,600,600,601,139,0,0,0,0,0,0,0,0,0,0,
219,571,571,571,539,587,587,587,538,571,571,571,539,587,587,538,571,571,571,571,539,588,615,616,616,616,616,616,617,491,491,491,491,491,491,491,0,0,0,0,
139,571,571,539,588,492,493,491,586,587,587,587,588,507,491,586,587,587,587,587,588,599,618,629,629,629,629,629,619,600,601,599,601,491,491,491,491,491,0,0,
491,571,539,588,506,491,519,520,520,521,507,493,492,506,554,555,556,491,492,491,599,615,634,630,629,629,613,629,635,616,617,615,617,600,600,601,491,491,139,0,
139,587,588,507,491,519,505,534,536,537,519,521,491,554,541,571,540,556,493,491,615,634,629,613,629,630,629,629,629,629,635,634,635,616,616,617,601,491,491,0,
139,491,493,492,519,505,534,536,503,553,551,553,507,586,538,571,571,540,556,506,628,628,629,629,629,629,629,629,629,629,629,629,613,629,629,635,617,600,600,0,
139,491,491,491,551,502,536,503,553,507,491,491,491,491,570,571,571,571,540,556,491,628,628,630,629,613,629,629,629,630,629,613,629,629,630,629,635,616,616,0,
139,491,491,491,491,535,536,537,491,491,491,491,491,491,586,538,571,571,571,572,507,491,628,629,629,629,629,629,629,629,629,629,613,629,629,629,628,628,628,0,
139,139,139,491,491,535,536,553,491,491,491,491,491,491,493,586,571,571,539,588,506,507,628,629,613,629,629,629,599,601,629,629,629,629,630,629,628,628,491,491,
139,139,139,491,491,551,552,491,491,491,491,491,491,491,491,491,491,491,491,493,519,521,628,628,629,629,629,629,615,617,600,601,629,629,629,628,628,139,491,491,
139,139,139,139,139,139,139,139,139,139,139,139,0,0,0,0,0,0,491,492,535,504,521,628,628,628,628,628,628,635,616,617,601,628,628,628,139,139,491,491,
0,0,0,0,0,0,0,0,0,0,0,0,0,0,0,0,0,0,491,491,535,536,504,520,520,521,491,491,139,628,628,635,617,139,139,139,139,139,491,491,
0,0,0,0,0,0,0,0,0,0,0,0,0,0,0,0,0,0,555,556,551,502,534,536,503,553,492,491,139,139,139,139,139,139,139,139,139,139,491,491,
0,0,0,491,507,491,139,139,491,571,571,571,571,571,571,139,491,571,571,572,493,551,502,503,553,554,555,555,0,0,0,0,0,139,491,491,491,491,491,506,
0,491,491,506,519,520,521,491,570,571,539,587,587,538,571,571,571,539,587,588,506,491,551,553,554,541,571,572,0,0,0,0,139,491,491,599,600,600,601,492,
0,491,492,519,505,536,504,521,586,587,588,491,491,586,587,587,587,588,493,554,555,556,507,554,541,571,571,572,491,491,491,491,491,506,599,615,616,616,617,601,
0,491,519,505,536,536,536,504,521,493,492,507,491,519,520,520,520,521,554,541,571,540,555,541,571,571,539,588,599,600,600,600,600,600,615,634,629,630,635,617,
0,491,535,536,536,534,536,536,537,506,506,491,519,505,536,536,503,553,570,571,571,571,571,571,539,587,588,599,615,616,616,616,616,616,634,629,613,629,629,629,
0,491,535,536,536,536,536,536,537,491,491,491,535,536,503,552,553,491,586,538,571,571,571,539,588,491,491,615,634,629,629,629,629,613,629,630,629,629,630,629,
0,491,551,502,536,536,536,503,553,491,491,491,535,503,553,491,491,506,506,586,587,587,587,588,493,492,491,629,629,613,629,630,629,629,629,629,629,629,629,629,
0,491,491,551,552,552,552,553,491,139,491,491,551,553,506,491,491,492,491,491,491,507,491,491,506,506,491,491,629,629,629,629,613,629,629,629,629,629,629,139,
0,139,491,491,491,491,491,491,491,139,139,491,506,491,493,491,491,491,491,491,491,491,491,491,491,491,492,491,491,507,629,629,629,629,629,629,629,629,139,139,
0,0,0,0,0,0,0,0,0,0,0,491,491,492,491,491,0,0,0,0,0,0,0,491,491,507,491,491,491,491,491,491,507,506,492,491,491,491,139,0,
0,0,0,0,0,0,0,0,0,0,0,491,491,491,491,0,0,0,0,0,0,0,139,491,491,491,491,491,491,491,491,491,491,491,491,491,491,491,139,0
</data>
 </layer>
 <layer id="2" name="Buildings" width="40" height="27">
  <data encoding="csv">
78,78,70,71,76,77,74,75,76,94,95,70,71,74,75,94,95,78,78,78,78,78,71,86,74,75,74,76,94,95,78,78,78,78,78,78,78,78,78,78,
78,69,86,87,92,93,90,91,92,110,111,86,87,131,132,110,111,86,76,75,76,86,87,102,90,91,90,92,110,111,94,95,78,78,78,78,78,78,78,78,
78,85,102,103,108,109,106,107,108,126,127,102,103,147,148,126,127,102,92,91,92,102,103,118,106,107,106,108,126,127,110,111,76,74,75,76,94,78,78,78,
78,101,118,119,124,125,122,123,124,142,143,118,119,163,164,142,143,118,108,107,108,118,596,597,597,597,597,597,598,143,126,127,92,90,91,92,110,111,112,78,
78,117,134,3061,3062,0,0,0,0,158,159,134,135,3061,3062,158,159,134,124,123,124,0,612,0,0,0,0,0,614,0,0,0,0,0,0,0,126,127,128,78,
78,133,1809,3063,0,0,0,0,0,0,0,0,0,0,3063,239,0,0,0,0,0,596,602,0,0,0,0,0,603,597,598,596,598,0,0,0,142,143,144,78,
78,133,0,0,0,0,0,0,0,0,0,0,0,0,0,0,0,0,0,0,596,602,0,0,0,0,0,0,0,0,603,602,603,597,597,598,158,159,160,78,
78,165,0,0,0,0,0,0,0,0,0,0,0,0,0,0,0,0,0,0,612,0,0,0,0,0,0,0,0,0,0,0,0,0,0,603,598,3063,176,78,
78,181,0,0,0,0,0,0,0,0,0,0,0,0,0,0,0,0,0,0,631,604,0,0,0,0,0,0,0,0,0,0,0,0,0,0,603,597,597,0,
78,197,0,0,0,0,0,0,0,0,0,0,0,0,0,0,0,0,0,0,0,631,604,0,0,0,0,0,0,0,0,0,0,0,0,0,0,0,0,94,
78,78,214,0,0,0,0,0,0,0,214,78,78,0,0,0,0,0,0,0,0,0,612,0,0,0,0,620,632,632,604,0,0,0,0,0,0,620,632,110,
78,78,78,214,214,233,0,0,78,78,78,78,78,214,0,0,0,0,0,0,0,0,612,0,0,0,620,633,596,598,631,632,604,0,0,0,620,633,0,0,
78,78,78,78,78,214,0,222,78,78,78,78,78,78,78,78,78,78,0,0,0,0,631,604,0,0,603,598,612,603,597,598,631,604,0,620,78,78,0,0,
78,78,70,71,76,94,78,79,70,71,74,75,76,94,95,79,70,71,72,0,0,0,0,631,632,632,632,633,631,78,0,603,598,631,632,222,0,71,72,0,
78,69,86,87,92,110,111,76,86,87,90,91,92,110,111,76,86,87,88,0,0,0,0,0,0,0,0,0,222,78,78,78,78,70,71,86,76,87,88,0,
78,85,102,103,108,126,127,92,102,103,106,107,108,126,127,92,102,103,104,0,0,0,0,0,0,0,0,73,94,95,95,70,71,86,87,102,92,103,104,0,
78,101,118,119,124,142,143,108,118,119,122,123,124,142,143,108,118,119,120,0,0,0,0,0,0,0,0,89,110,111,111,86,87,102,103,118,108,119,120,0,
78,117,134,135,0,158,159,124,134,135,0,0,0,158,159,124,134,135,0,0,0,0,0,0,0,0,0,105,126,127,127,102,103,118,119,596,597,597,598,0,
78,133,0,0,0,0,0,0,0,0,0,0,0,0,0,0,0,0,0,0,0,0,0,0,0,0,0,0,0,0,0,0,0,134,596,602,0,0,603,598,
78,149,0,0,0,0,0,0,0,0,0,0,0,0,0,0,0,0,0,0,0,0,0,0,0,0,0,240,596,597,597,597,597,597,602,0,0,0,0,614,
78,133,0,0,0,0,0,0,0,0,0,0,0,0,0,0,0,0,0,0,0,0,0,0,0,0,0,596,602,0,0,0,0,0,0,0,0,0,0,614,
78,149,0,0,0,0,0,0,0,0,0,0,0,0,0,0,0,0,0,0,0,0,0,0,0,0,240,612,0,0,0,0,0,0,0,0,0,0,0,614,
78,181,0,0,0,0,0,0,0,0,0,0,0,0,0,0,0,0,0,0,0,0,0,0,0,0,0,631,604,0,0,0,0,0,0,0,0,0,620,633,
78,197,0,0,0,0,0,0,0,78,0,0,0,0,0,0,0,0,0,0,0,0,0,0,0,0,0,240,631,632,604,0,0,0,0,0,0,620,633,222,
78,78,214,0,0,0,0,0,222,78,214,0,0,0,0,0,0,0,0,0,0,0,0,0,0,0,0,0,0,0,631,632,632,632,632,632,632,633,222,78,
78,78,78,78,78,78,78,78,78,78,78,0,0,0,0,0,78,78,78,78,78,78,78,0,0,0,0,0,0,0,0,0,0,0,0,0,0,0,78,78,
78,78,78,78,78,78,78,78,78,78,78,214,215,216,215,222,78,78,78,78,78,78,78,214,0,0,0,0,0,0,0,0,0,0,0,0,0,222,78,78
</data>
 </layer>
 <layer id="11" name="Buildings+1" width="40" height="27">
  <data encoding="csv">
0,0,0,0,0,0,0,0,0,0,0,0,0,0,0,0,0,0,0,0,0,0,0,0,0,0,0,0,0,0,0,0,0,0,0,0,0,0,0,0,
0,0,0,0,0,0,0,0,0,0,0,0,0,0,0,0,0,0,0,0,0,0,0,0,0,0,0,0,0,0,0,0,0,0,0,0,0,0,0,0,
0,0,0,0,0,0,0,0,0,0,0,0,0,0,0,0,0,0,0,0,0,0,0,0,0,0,0,0,0,0,0,0,0,0,0,0,0,0,0,0,
0,0,0,0,0,0,0,0,0,0,0,0,0,0,0,0,0,0,0,0,0,0,119,134,122,123,122,124,142,0,0,0,0,0,0,0,0,0,0,0,
0,0,0,0,0,0,0,0,0,0,0,0,0,0,0,0,0,0,0,0,0,134,135,0,0,0,0,0,158,159,142,143,108,106,107,108,0,0,0,0,
0,0,0,0,0,0,0,0,0,0,0,0,0,0,0,0,0,0,0,0,0,0,0,0,0,0,0,0,0,0,158,159,124,122,123,124,0,0,0,0,
0,0,0,0,0,0,0,0,0,0,0,0,0,0,0,0,0,0,0,0,0,0,0,0,0,0,0,0,0,0,0,0,0,0,0,0,0,0,0,0,
0,0,0,0,0,0,0,0,0,0,0,0,0,0,0,0,0,0,0,0,0,0,0,0,0,0,0,0,0,0,0,0,0,0,0,0,0,0,0,0,
0,0,0,0,0,0,0,0,0,0,0,0,0,0,0,0,0,0,0,0,0,0,0,0,0,0,0,0,0,0,0,0,0,0,0,0,0,0,73,74,
0,0,0,0,0,0,0,0,0,0,0,0,0,0,0,0,0,0,0,0,0,0,0,0,0,0,0,0,0,0,0,0,0,0,0,0,0,0,89,90,
0,0,0,0,0,0,0,0,0,0,0,0,0,0,0,0,0,0,0,0,0,0,0,0,0,0,0,0,0,0,0,0,0,0,0,0,0,0,105,106,
0,0,0,0,0,0,0,0,0,0,0,0,0,0,0,0,0,0,0,0,0,0,0,0,0,0,0,0,0,0,0,0,0,0,0,0,0,0,121,122,
0,0,0,0,0,0,0,0,0,0,0,0,0,0,0,0,0,0,0,0,0,0,0,0,0,0,0,0,0,0,0,0,0,0,0,0,0,0,0,0,
0,0,0,0,0,0,0,0,0,0,0,0,0,0,0,0,0,0,0,0,0,0,0,0,0,0,0,0,0,0,0,0,0,0,0,0,70,0,0,0,
0,0,0,0,0,0,0,0,0,0,0,0,0,0,0,0,0,0,0,0,0,0,0,0,0,0,0,0,0,0,0,0,0,0,0,0,0,0,0,0,
0,0,0,0,0,0,0,0,0,0,0,0,0,0,0,0,0,0,0,0,0,0,0,0,0,0,0,0,0,0,0,0,0,0,0,0,0,0,0,0,
0,0,0,0,0,0,0,0,0,0,0,0,0,0,0,0,0,0,0,0,0,0,0,0,0,0,0,0,0,0,0,0,0,0,0,0,0,0,0,0,
0,0,0,0,0,0,0,0,0,0,0,0,0,0,0,0,0,0,0,0,0,0,0,0,0,0,0,0,0,0,0,0,0,0,0,134,124,135,0,0,
0,0,0,0,0,0,0,0,0,0,0,0,0,0,0,0,0,0,0,0,0,0,0,0,0,0,0,121,142,143,143,118,119,0,135,0,0,0,0,0,
0,0,0,0,0,0,0,0,0,0,0,0,0,0,0,0,0,0,0,0,0,0,0,0,0,0,0,0,158,159,159,134,135,0,0,0,0,0,0,0,
0,0,0,0,0,0,0,0,0,0,0,0,0,0,0,0,0,0,0,0,0,0,0,0,0,0,0,0,0,0,0,0,0,0,0,0,0,0,0,0,
0,0,0,0,0,0,0,0,0,0,0,0,0,0,0,0,0,0,0,0,0,0,0,0,0,0,0,0,0,0,0,0,0,0,0,0,0,0,0,0,
0,0,0,0,0,0,0,0,0,0,0,0,0,0,0,0,0,0,0,0,0,0,0,0,0,0,0,0,0,0,0,0,0,0,0,0,0,0,0,0,
0,0,0,0,0,0,0,0,0,0,0,0,0,0,0,0,0,0,0,0,0,0,0,0,0,0,0,0,0,0,0,0,0,0,0,0,0,0,0,0,
0,0,0,0,0,0,0,0,0,0,0,0,0,0,0,0,0,0,0,0,0,0,0,0,0,0,0,0,0,0,0,0,0,0,0,0,0,0,0,0,
0,0,0,0,0,0,0,0,0,0,0,0,0,0,0,0,0,0,0,0,0,0,0,0,0,0,0,0,0,0,0,0,0,0,0,0,0,0,0,0,
0,0,0,0,0,0,0,0,0,0,0,0,0,0,0,0,0,0,0,0,0,0,0,0,0,0,0,0,0,0,0,0,0,0,0,0,0,0,0,0
</data>
 </layer>
 <layer id="3" name="Paths" width="40" height="27">
  <data encoding="csv">
0,0,0,0,0,0,297,0,0,0,0,0,0,0,0,0,0,0,0,0,0,0,0,0,0,0,0,0,0,0,0,0,0,0,0,0,0,0,297,0,
0,297,0,0,0,0,0,0,0,0,0,0,0,0,0,0,0,0,0,0,0,0,0,0,0,297,0,0,0,0,0,0,0,0,0,0,0,0,0,0,
0,0,0,0,0,0,0,0,0,0,297,0,0,0,0,0,297,0,0,0,0,0,0,0,0,0,0,0,0,0,0,0,0,0,0,0,0,0,0,0,
0,0,0,0,0,0,0,0,0,0,0,0,0,0,0,0,0,0,0,0,0,0,0,0,0,0,0,0,0,297,0,0,0,0,0,0,0,0,0,0,
297,0,0,0,0,0,0,0,0,0,0,0,0,0,0,0,0,0,0,0,0,0,0,0,297,0,0,0,0,0,0,0,297,0,0,0,0,297,0,0,
0,0,0,0,0,0,0,0,0,0,0,0,0,0,0,0,0,0,0,0,0,0,0,0,0,0,0,0,0,0,0,0,0,0,0,0,0,0,0,0,
0,0,0,0,0,0,0,0,0,0,0,0,0,0,0,0,0,0,0,0,0,0,0,0,0,0,0,0,0,0,0,0,0,0,0,0,0,0,0,0,
0,0,0,0,0,0,0,0,0,0,0,0,0,0,0,0,0,0,0,0,0,0,0,0,0,0,0,0,0,0,0,297,0,0,0,0,0,0,0,0,
0,0,0,0,0,0,0,0,0,0,0,0,0,0,0,0,0,0,0,0,0,0,0,0,0,0,0,0,0,0,0,0,0,0,0,0,0,0,0,0,
0,0,0,0,0,0,0,0,0,0,0,0,0,0,0,0,0,0,0,0,0,0,0,0,0,0,0,0,0,0,0,0,0,0,0,0,0,0,0,0,
0,0,0,0,0,0,0,0,0,0,0,0,0,0,0,0,0,0,0,0,0,0,0,0,0,0,0,0,0,0,0,0,0,0,0,0,0,0,0,0,
0,0,297,0,0,0,0,0,0,0,0,0,0,0,0,0,0,0,0,0,0,0,0,0,0,0,0,0,0,0,0,0,0,0,0,0,0,0,0,0,
0,0,0,0,0,0,0,0,297,0,0,0,0,0,0,0,0,0,0,0,0,0,0,0,0,0,0,0,0,0,0,0,0,0,0,0,0,297,0,0,
0,0,0,0,0,0,0,0,0,0,0,0,0,0,0,0,0,0,0,0,0,0,0,0,0,0,0,0,0,0,0,0,0,0,0,0,0,0,0,0,
0,0,0,0,297,0,0,0,0,0,0,0,0,0,0,0,0,0,0,0,0,0,0,0,0,0,0,0,0,0,297,0,0,0,0,0,0,0,0,0,
0,0,0,0,0,0,0,297,0,0,0,0,0,0,0,297,0,0,0,0,0,0,0,0,0,0,0,0,0,0,0,0,0,0,0,0,0,0,0,0,
0,0,0,0,0,0,0,0,0,0,0,0,0,0,0,0,0,0,0,0,0,0,0,0,0,0,0,0,0,0,0,0,0,297,0,0,0,0,0,0,
0,297,0,0,0,0,0,0,0,0,0,0,0,0,0,0,0,0,0,0,0,0,0,0,0,0,0,0,0,0,0,0,0,0,0,0,0,0,0,0,
0,0,0,0,0,297,0,0,0,0,0,0,0,0,0,0,0,0,0,0,0,0,0,0,0,0,0,0,0,0,0,0,0,0,0,0,297,0,0,0,
0,0,0,297,0,0,0,297,0,0,0,297,0,0,0,0,0,0,0,0,0,0,0,0,0,0,0,0,0,0,0,0,0,0,0,0,0,0,0,0,
0,0,0,0,0,0,0,0,0,0,0,0,0,0,0,0,0,0,0,0,0,0,0,0,0,0,0,0,0,0,297,0,0,0,0,0,0,0,0,0,
0,0,0,297,0,0,0,297,0,0,0,0,0,0,0,0,0,0,0,0,0,0,0,0,0,0,0,0,0,0,0,0,0,0,0,0,0,0,0,0,
0,0,0,0,0,297,0,0,0,0,0,0,0,0,0,0,0,0,0,0,0,0,0,0,0,0,0,0,0,0,0,0,0,0,0,0,0,0,0,0,
0,0,0,0,0,0,0,0,0,0,0,0,0,0,0,0,0,0,0,0,297,297,0,0,0,0,0,0,0,0,0,0,0,0,0,0,0,297,0,0,
0,0,0,0,0,0,0,0,0,0,0,0,0,0,0,0,0,0,0,0,0,0,0,0,0,0,0,0,0,0,0,0,0,0,0,0,0,0,0,0,
0,297,0,0,0,0,0,297,0,0,0,0,0,0,0,0,297,0,0,0,0,0,0,0,0,0,297,0,0,0,0,0,0,0,0,0,0,0,0,0,
0,0,0,0,0,0,0,0,0,0,0,0,0,0,0,0,0,0,0,0,0,0,0,0,0,0,0,0,0,0,0,297,0,0,0,0,0,0,0,0
</data>
 </layer>
 <layer id="4" name="Front" width="40" height="27">
  <data encoding="csv">
0,78,0,0,0,0,0,0,0,0,0,0,0,0,0,0,0,0,0,0,0,0,0,0,0,0,0,0,0,416,414,0,362,363,0,0,382,0,364,367,
78,0,0,0,114,0,0,98,0,0,0,0,0,0,0,0,0,0,0,0,0,0,0,0,0,0,0,0,0,0,0,378,379,0,416,0,0,382,0,383,
0,0,0,0,0,0,0,0,0,0,114,0,0,0,0,0,98,0,0,0,0,0,0,0,0,0,0,0,0,0,0,0,0,0,0,0,0,0,0,397,
0,0,0,3036,3037,0,0,0,0,0,0,0,0,3036,3037,0,0,0,0,0,0,0,929,930,931,932,933,934,0,114,0,0,0,0,0,0,0,0,0,0,
0,0,1784,3038,0,0,0,0,0,0,0,0,0,0,3038,223,0,0,0,0,0,0,965,966,967,968,969,970,0,0,0,0,0,0,0,0,0,98,0,382,
0,0,0,0,0,0,0,0,0,0,0,0,0,0,0,0,0,0,0,0,0,0,1001,1002,1003,1004,1005,1006,0,0,0,0,0,0,0,0,0,0,0,0,
0,0,0,0,0,0,0,0,0,0,0,0,0,0,0,0,0,0,0,0,0,0,0,0,0,0,0,0,0,929,930,931,932,933,934,0,0,3038,0,0,
0,0,0,0,0,0,0,0,0,0,0,0,0,0,0,0,0,0,0,0,0,0,0,0,0,0,0,0,0,965,966,967,968,969,970,0,0,0,0,0,
78,0,0,0,0,0,0,0,0,0,0,0,0,0,0,0,0,0,0,0,0,0,0,0,0,0,0,0,0,1001,1002,1003,1004,1005,1006,0,0,0,0,0,
0,0,198,0,0,0,0,0,0,0,206,215,216,217,0,0,0,0,0,0,0,0,0,0,0,0,0,0,0,0,0,0,0,0,0,0,0,0,0,0,
78,0,0,215,216,217,0,221,215,216,222,0,0,233,0,0,0,0,0,0,0,0,0,0,0,0,0,0,0,0,0,0,0,0,0,0,0,0,0,0,
78,78,78,78,0,233,0,237,0,0,78,78,0,214,215,216,215,216,217,0,0,0,0,0,0,0,0,0,0,0,0,0,0,0,0,221,215,216,217,0,
78,78,78,78,78,214,216,222,0,0,0,0,0,0,0,0,0,0,233,0,0,0,0,0,0,0,0,0,221,215,198,0,0,0,0,237,0,0,233,0,
0,0,0,0,0,0,0,0,0,0,0,0,0,0,0,0,0,0,0,0,0,0,0,0,0,0,0,0,237,0,214,215,215,216,215,0,0,0,0,0,
0,0,0,0,98,0,0,0,0,0,0,98,0,0,0,0,0,0,0,0,0,0,0,0,0,0,0,221,0,0,0,0,0,0,0,0,0,0,0,0,
0,0,0,0,0,0,0,114,0,0,0,0,0,0,0,114,0,0,0,0,0,0,0,0,0,0,0,0,0,0,0,0,0,0,641,641,0,0,0,0,
0,0,0,0,0,0,0,0,0,0,0,0,0,0,0,0,0,0,0,0,0,0,0,0,0,0,0,0,0,0,0,0,0,98,677,677,0,0,0,0,
0,0,0,0,0,0,0,0,0,0,0,0,0,0,0,0,0,0,0,0,0,0,0,0,0,0,0,0,0,0,0,0,0,0,0,713,714,715,716,0,
0,0,0,0,0,0,0,0,0,0,0,0,0,0,0,0,0,0,0,0,0,0,0,0,0,0,0,0,0,0,0,0,0,0,0,749,750,751,752,0,
0,0,0,0,0,0,0,0,0,0,0,0,0,0,0,0,0,0,0,0,0,0,0,0,0,0,0,0,713,714,715,716,0,0,0,0,0,0,0,0,
0,0,0,0,0,0,0,0,0,0,0,0,0,0,0,0,0,0,0,0,0,0,0,0,0,0,0,0,749,750,751,752,0,0,0,0,0,0,0,0,
0,0,0,0,0,0,0,0,0,0,0,0,0,0,0,0,0,0,0,0,0,0,0,0,0,0,0,0,0,0,0,0,0,0,0,0,0,0,0,0,
0,0,0,0,0,0,0,0,221,215,217,0,0,0,0,0,0,0,0,0,0,0,0,0,0,0,0,0,0,0,0,0,0,0,0,0,0,0,0,221,
0,0,198,0,0,0,0,0,237,0,233,0,0,0,0,0,0,0,0,0,0,0,0,0,0,0,0,0,0,0,0,0,0,0,0,0,0,0,206,0,
0,0,0,215,216,215,216,215,0,0,0,217,0,0,0,221,215,215,216,215,216,215,216,217,0,0,0,0,0,0,0,0,0,0,0,0,0,221,0,0,
0,0,0,0,0,0,0,0,0,0,0,233,0,0,0,237,0,0,0,0,0,0,0,233,0,0,0,0,0,0,0,0,0,0,0,0,0,237,0,0,
0,0,0,0,0,0,0,0,0,0,0,0,0,0,0,0,0,0,0,0,0,0,0,0,215,215,216,215,216,215,216,215,216,215,216,215,216,0,0,0
</data>
 </layer>
 <layer id="9" name="AlwaysFront" width="40" height="27">
  <data encoding="csv">
2487,2487,2487,2487,2487,2487,2487,2481,2482,2507,2533,0,0,0,0,0,0,0,0,0,0,0,0,822,823,824,825,0,0,0,0,0,0,0,0,0,0,0,366,367,
2487,2487,2481,2482,2483,2484,2483,2482,2507,2533,0,0,0,0,0,0,0,0,0,0,0,0,0,858,859,860,861,0,0,0,0,0,0,0,0,0,0,0,0,0,
2487,2487,2506,2507,2508,2509,2508,2509,2533,0,0,0,0,0,0,0,0,0,0,0,0,0,0,894,895,896,897,0,0,0,786,787,788,789,0,0,0,0,0,0,
2487,2487,2531,2532,0,0,0,0,0,0,0,0,0,0,0,0,0,0,0,0,0,0,1463,1464,1465,1466,1467,1468,0,0,822,823,824,825,0,0,0,0,0,0,
2487,2481,2556,2557,0,0,0,0,0,0,0,0,0,0,0,0,0,0,0,0,0,0,1499,1500,1501,1502,1503,1504,0,0,858,859,860,861,0,0,0,0,0,0,
2483,2483,2507,2533,0,0,0,0,0,0,0,0,0,0,0,0,0,0,0,0,0,0,1535,1536,1537,1538,1539,1540,0,0,894,895,896,897,0,0,0,0,0,0,
2508,2509,2533,0,0,0,0,0,0,0,0,0,0,0,0,0,0,0,0,0,0,0,0,0,0,0,0,0,0,1463,1464,1465,1466,1467,1468,0,0,0,0,0,
0,0,0,0,0,0,0,0,0,0,0,0,0,0,0,0,0,0,0,0,0,0,0,0,0,0,0,0,0,1499,1500,1501,1502,1503,1504,0,0,0,0,0,
0,0,0,0,0,0,0,0,0,0,0,0,0,0,0,0,0,0,0,0,0,0,0,0,0,0,0,0,0,1535,1536,1537,1538,1539,1540,0,0,0,0,0,
0,2559,2584,2583,2584,2558,0,0,0,0,0,0,0,0,0,0,0,0,0,0,0,0,0,0,0,0,0,0,0,0,0,0,0,0,0,0,0,0,0,0,
2559,2585,2609,2608,2609,2582,2583,2584,2583,2584,0,0,0,0,0,0,0,0,0,0,0,0,0,0,0,0,0,0,0,0,0,0,0,0,0,0,0,0,0,0,
2585,2610,2611,2487,2606,2607,2608,2609,2608,2609,2582,2558,0,0,0,0,0,0,0,0,0,0,0,0,0,0,0,0,0,0,0,0,0,0,0,0,0,0,0,0,
2610,2611,2487,2481,2482,2485,2486,2487,2487,2606,2556,2532,0,0,0,0,0,0,0,0,0,0,0,0,0,0,0,0,0,0,0,0,0,0,0,0,0,0,0,0,
2487,2487,2481,2482,2507,2510,2483,2484,2485,2486,2556,2557,0,0,0,0,0,0,0,0,0,0,0,0,0,0,0,0,0,0,0,0,0,0,0,0,0,0,0,0,
2487,2487,2506,2507,2533,2534,2508,2509,2510,2511,2581,2582,2558,0,0,0,0,0,0,0,0,0,0,0,0,0,0,0,0,0,0,0,0,0,0,0,0,0,0,0,
2487,2487,2531,2532,0,0,0,0,2534,2510,2511,2581,2582,2558,0,0,0,0,0,0,0,0,0,0,0,0,0,0,0,0,0,0,0,0,0,641,642,643,644,0,
2487,2481,2482,2557,0,0,0,0,0,2535,2536,2606,2556,2557,0,0,0,0,0,0,0,0,0,0,0,0,0,0,0,0,0,0,0,0,0,677,678,679,680,0,
2487,2506,2507,2533,0,0,0,0,0,2560,2561,2486,2531,2532,0,0,0,0,0,0,0,0,0,0,0,0,0,0,641,642,643,644,0,0,0,745,746,747,748,0,
2487,2531,2532,0,0,0,0,0,0,2534,2510,2511,2556,2557,0,0,0,0,0,0,0,0,0,0,0,0,0,0,677,678,679,680,0,0,0,781,782,783,784,0,
2481,2482,2557,0,0,0,0,0,0,0,2560,2561,2531,2532,0,0,0,0,0,0,0,0,0,0,0,0,0,0,745,746,747,748,0,0,0,0,0,0,0,0,
2506,2507,2533,0,0,0,0,0,0,2559,2585,2586,2556,2557,0,0,0,0,0,0,0,0,0,0,0,0,0,0,781,782,783,784,0,0,0,0,0,0,0,0,
2531,2532,0,0,0,0,0,0,0,2560,2610,2482,2507,2533,0,0,0,0,2559,2583,2584,2583,2584,2558,0,0,0,0,0,0,0,0,0,0,0,2559,2583,2584,2583,2584,
2581,2582,2557,0,0,0,0,0,2559,2585,2482,2507,2533,0,0,2559,2583,2584,2585,2610,2609,2608,2609,2532,0,0,0,0,0,0,0,0,0,0,2559,2585,2609,2609,2608,2609,
2606,2581,2582,2583,2558,0,0,2559,2585,2610,2482,2532,0,0,2559,2585,2610,2609,2610,2611,2512,2481,2556,2557,0,2559,2583,2584,2583,2584,2558,0,0,2559,2585,2610,2611,2487,2487,2487,
2487,2606,2607,2581,2582,2583,2584,2585,2610,2611,2556,2557,0,0,2535,2536,2611,2487,2481,2482,2483,2482,2507,2533,2559,2585,2609,2609,2608,2609,2582,2583,2584,2585,2610,2611,2487,2487,2487,2487,
2487,2487,2487,2606,2607,2608,2609,2610,2611,2482,2507,2533,0,0,2560,2561,2512,2481,2482,2507,2508,2509,2533,2559,2585,2610,2611,2487,2487,2606,2607,2608,2609,2610,2611,2487,2487,2487,2487,2487,
2487,2487,2487,2487,2487,2487,2487,2487,2506,2507,2533,0,0,0,2585,2586,2537,2506,2507,2533,0,0,2559,2585,2610,2611,2487,2487,2487,2487,2487,2487,2487,2487,2487,2487,2487,2487,2487,2487
</data>
 </layer>
 <layer id="12" name="AlwaysFront+1" width="40" height="27">
  <data encoding="csv">
2482,2507,2533,0,2512,0,2537,0,0,0,0,0,0,0,0,0,0,0,0,0,0,2534,2510,2483,2507,2508,2509,2510,2511,2486,2512,2487,2487,2537,2487,2487,2537,2487,2512,2487,
2482,2557,0,0,0,0,0,0,0,0,0,0,0,0,0,0,0,0,0,0,0,0,2534,2508,2533,0,0,2534,2510,2511,2486,2487,2512,2487,2481,2482,2483,2485,2486,2487,
2507,2533,0,0,0,0,0,0,0,0,0,0,0,0,0,0,0,0,0,0,0,0,0,0,0,0,0,0,2534,2510,2483,2483,2484,2483,2482,2507,2508,2510,2511,2486,
0,2512,0,0,0,0,0,0,0,0,0,0,0,0,0,0,0,0,0,0,0,0,0,0,0,0,0,0,0,2534,2508,2508,2509,2508,2509,2533,0,2534,2510,2511,
2537,0,0,0,0,0,0,0,0,0,0,0,0,0,0,0,0,0,0,0,0,0,0,0,0,0,0,0,0,0,0,0,0,0,0,0,0,0,2535,2536,
0,0,0,0,0,0,0,0,0,0,0,0,0,0,0,0,0,0,0,0,0,0,0,0,0,0,0,0,0,0,0,0,0,0,0,0,0,0,2560,2561,
0,0,0,0,0,0,0,0,0,0,0,0,0,0,0,0,0,0,0,0,0,0,0,0,0,0,0,0,0,0,0,0,0,0,0,0,0,2559,2585,2586,
0,0,0,0,0,0,0,0,0,0,0,0,0,0,0,0,0,0,0,0,0,0,0,0,0,0,0,0,0,0,0,0,0,0,0,0,2559,2585,2610,2611,
0,0,0,0,0,0,0,0,0,0,0,0,0,0,0,0,0,0,0,0,0,0,0,0,0,0,0,0,0,0,0,0,0,0,0,0,2535,2536,2611,2537,
0,0,0,0,0,0,0,0,0,0,0,0,0,0,0,0,0,0,0,0,0,0,0,0,0,0,0,0,0,0,0,0,0,0,0,0,2560,2561,2487,2487,
0,0,0,0,0,0,0,0,0,0,0,0,0,0,0,0,0,0,0,0,0,0,0,0,0,0,0,0,0,0,0,0,0,0,0,2559,2585,2586,2512,2487,
0,0,0,0,0,0,0,0,2559,2583,2584,2558,0,0,0,0,0,0,0,0,0,0,0,0,0,0,0,0,0,0,0,0,0,0,0,2535,2536,2611,2487,2487,
2558,0,2512,0,0,2559,2583,2584,2585,2610,2581,2582,2558,0,0,0,0,0,0,0,0,0,0,0,0,0,0,0,0,2559,2583,2584,2558,0,0,2560,2561,2487,2487,2537,
2582,2558,0,0,2559,2585,2610,2609,2610,2611,2506,2507,2533,0,0,0,0,0,0,0,0,0,0,0,0,0,2559,2583,2584,2585,2610,2581,2582,2558,2559,2585,2586,2512,2487,2487,
2556,2557,0,0,2534,2510,2511,2486,2512,2537,2531,2532,0,0,0,0,0,0,0,0,0,0,0,0,0,2559,2585,2610,2609,2610,2611,2506,2507,2533,2534,2510,2511,2487,2481,2482,
2531,2532,0,0,0,2534,2510,2511,2486,2481,2482,2557,0,0,0,0,0,0,0,0,0,0,0,0,0,2534,2510,2511,2486,2512,2537,2531,2532,0,0,2535,2536,2483,2482,2507,
2556,2557,0,0,0,0,2534,2510,2511,2483,2507,2533,0,0,0,0,0,0,0,0,0,0,0,0,0,0,2534,2510,2511,2486,2481,2482,2557,0,0,2510,2507,2508,2509,2533,
2507,2533,0,0,0,0,0,2534,2508,2509,2533,0,0,0,0,0,0,0,0,0,0,0,0,0,0,0,0,2534,2510,2511,2483,2507,2533,0,0,2534,0,0,0,0,
2512,0,0,0,0,0,0,0,0,0,0,0,0,0,0,0,0,0,0,0,0,0,0,0,0,0,0,0,2534,2508,2509,2533,0,0,0,0,0,0,0,0,
0,0,0,0,0,0,0,0,0,0,0,0,0,0,0,0,0,0,0,0,0,0,0,0,0,0,0,0,0,0,0,0,0,0,0,0,0,0,0,0,
0,0,0,0,0,0,0,0,0,0,0,0,0,0,0,0,0,0,0,0,0,0,0,0,0,0,0,0,0,0,0,0,0,0,0,0,0,0,0,0,
0,0,0,0,0,0,0,0,0,0,0,0,0,0,0,0,0,0,0,0,0,0,0,0,0,0,0,0,0,0,0,0,0,0,0,0,0,0,0,0,
0,0,0,0,0,0,0,0,0,0,0,0,0,0,0,0,0,0,0,0,0,0,0,0,0,0,0,0,0,0,0,0,0,0,0,0,0,0,0,0,
0,0,0,0,0,0,0,0,0,0,0,0,0,0,0,0,0,0,0,0,0,0,0,0,0,0,0,0,0,0,0,0,0,0,0,0,0,0,2512,2559,
2583,2584,2558,0,0,0,0,0,0,0,0,0,0,0,0,0,0,0,0,0,0,0,0,0,0,0,0,0,0,0,0,0,0,0,0,0,2559,2583,2584,2585,
2608,2609,2582,2583,2584,2558,0,0,0,0,0,0,0,0,0,0,0,0,0,0,0,0,0,0,0,0,2559,2583,2584,2558,0,0,0,0,0,2559,2585,2610,2609,2610,
2512,2606,2607,2608,2556,2582,2558,2512,0,0,0,0,0,0,0,0,0,0,0,0,0,0,0,0,0,2559,2585,2609,2609,2582,2558,2512,0,2537,0,2585,2610,2611,2537,2512
</data>
 </layer>
 <layer id="13" name="AlwaysFront+2" width="40" height="27">
  <data encoding="csv">
0,0,0,0,0,0,0,0,0,0,0,0,0,0,0,0,0,0,0,0,0,0,0,0,0,0,0,0,0,2534,2510,2483,2484,2483,2507,2533,0,0,0,0,
0,0,0,0,0,0,0,0,0,0,0,0,0,0,0,0,0,0,0,0,0,0,0,0,0,0,0,0,0,0,2534,2508,2509,2508,2533,0,0,0,0,0,
0,0,0,0,0,0,0,0,0,0,0,0,0,0,0,0,0,0,0,0,0,0,0,0,0,0,0,0,0,0,0,0,0,0,0,0,0,0,0,0,
0,0,0,0,0,0,0,0,0,0,0,0,0,0,0,0,0,0,0,0,0,0,0,0,0,0,0,0,0,0,0,0,0,0,0,0,0,0,0,0,
0,0,0,0,0,0,0,0,0,0,0,0,0,0,0,0,0,0,0,0,0,0,0,0,0,0,0,0,0,0,0,0,0,0,0,0,0,0,0,0,
0,0,0,0,0,0,0,0,0,0,0,0,0,0,0,0,0,0,0,0,0,0,0,0,0,0,0,0,0,0,0,0,0,0,0,0,0,0,0,0,
0,0,0,0,0,0,0,0,0,0,0,0,0,0,0,0,0,0,0,0,0,0,0,0,0,0,0,0,0,0,0,0,0,0,0,0,0,0,0,0,
0,0,0,0,0,0,0,0,0,0,0,0,0,0,0,0,0,0,0,0,0,0,0,0,0,0,0,0,0,0,0,0,0,0,0,0,0,0,0,0,
0,0,0,0,0,0,0,0,0,0,0,0,0,0,0,0,0,0,0,0,0,0,0,0,0,0,0,0,0,0,0,0,0,0,0,0,0,0,0,2559,
0,0,0,0,0,0,0,0,0,0,0,0,0,0,0,0,0,0,0,0,0,0,0,0,0,0,0,0,0,0,0,0,0,0,0,0,0,0,2559,2585,
0,0,0,0,0,0,0,0,0,0,0,0,0,0,0,0,0,0,0,0,0,0,0,0,0,0,0,0,0,0,0,0,0,0,0,0,0,0,2535,2536,
0,0,0,0,0,0,0,0,0,0,0,0,0,0,0,0,0,0,0,0,0,0,0,0,0,0,0,0,0,0,0,0,0,0,0,0,0,0,2560,2561,
0,0,0,0,0,0,0,0,0,0,0,0,0,0,0,0,0,0,0,0,0,0,0,0,0,0,0,0,0,0,0,0,0,0,0,0,0,0,2535,2536,
0,0,0,0,0,0,0,0,0,0,0,0,0,0,0,0,0,0,0,0,0,0,0,0,0,0,0,0,0,0,0,0,0,0,0,0,0,0,2534,2510,
0,0,0,0,0,0,0,0,0,0,0,0,0,0,0,0,0,0,0,0,0,0,0,0,0,0,0,0,0,2559,2558,0,0,0,0,0,0,0,0,2534,
0,0,0,0,0,0,0,0,0,0,0,0,0,0,0,0,0,0,0,0,0,0,0,0,0,0,0,0,2559,2585,2582,2558,0,0,0,0,0,0,0,0,
0,0,0,0,0,0,0,0,0,0,0,0,0,0,0,0,0,0,0,0,0,0,0,0,0,0,0,0,2534,2510,2507,2533,0,0,0,0,0,0,0,0,
0,0,0,0,0,0,0,0,0,0,0,0,0,0,0,0,0,0,0,0,0,0,0,0,0,0,0,0,0,2534,2533,0,0,0,0,0,0,0,0,0,
0,0,0,0,0,0,0,0,0,0,0,0,0,0,0,0,0,0,0,0,0,0,0,0,0,0,0,0,0,0,0,0,0,0,0,0,0,0,0,0,
0,0,0,0,0,0,0,0,0,0,0,0,0,0,0,0,0,0,0,0,0,0,0,0,0,0,0,0,0,0,0,0,0,0,0,0,0,0,0,0,
0,0,0,0,0,0,0,0,0,0,0,0,0,0,0,0,0,0,0,0,0,0,0,0,0,0,0,0,0,0,0,0,0,0,0,0,0,0,0,0,
0,0,0,0,0,0,0,0,0,0,0,0,0,0,0,0,0,0,0,0,0,0,0,0,0,0,0,0,0,0,0,0,0,0,0,0,0,0,0,0,
0,0,0,0,0,0,0,0,0,0,0,0,0,0,0,0,0,0,0,0,0,0,0,0,0,0,0,0,0,0,0,0,0,0,0,0,0,0,0,0,
0,0,0,0,0,0,0,0,0,0,0,0,0,0,0,0,0,0,0,0,0,0,0,0,0,0,0,0,0,0,0,0,0,0,0,0,0,0,0,0,
0,0,0,0,0,0,0,0,0,0,0,0,0,0,0,0,0,0,0,0,0,0,0,0,0,0,0,0,0,0,0,0,0,0,0,0,0,0,0,0,
0,0,0,0,0,0,0,0,0,0,0,0,0,0,0,0,0,0,0,0,0,0,0,0,0,0,0,0,0,0,0,0,0,0,0,0,0,0,0,0,
0,0,0,0,0,0,0,0,0,0,0,0,0,0,0,0,0,0,0,0,0,0,0,0,0,0,0,0,0,0,0,0,0,0,0,0,0,0,0,0
</data>
 </layer>
 <layer id="14" name="AlwaysFront+3" width="40" height="27">
  <data encoding="csv">
3516,3517,3518,3519,3520,3521,3522,3523,3524,3525,3526,3527,3528,3529,3530,3531,3532,3533,3534,3535,3536,3537,3538,3539,3540,3541,3542,3543,3544,3545,3546,3547,3548,3549,3550,3551,3552,3553,3554,3555,
3556,3557,3558,3559,3560,3561,3562,3563,3564,3565,3566,3567,3568,3569,3570,3571,3572,3573,3574,3575,3576,3577,3578,3579,3580,3581,3582,3583,3584,3585,3586,3587,3588,3589,3590,3591,3592,3593,3594,3595,
3596,3597,3598,3599,3600,3601,3602,3603,3604,3605,3606,3607,3608,3609,3610,3611,3612,3613,3614,3615,3616,3617,3618,3619,3620,3621,3622,3623,3624,3625,3626,3627,3628,3629,3630,3631,3632,3633,3634,3635,
3636,3637,3638,3639,3640,3641,3642,3643,3644,3645,3646,3647,3648,3649,3650,3651,3652,3653,3654,3655,3656,3657,3658,3659,3660,3661,3662,3663,3664,3665,3666,3667,3668,3669,3670,3671,3672,3673,3674,3675,
3676,3677,3678,3679,3680,3681,3682,3683,3684,3685,3686,3687,3688,3689,3690,3691,3692,3693,3694,3695,3696,3697,3698,3699,3700,3701,3702,3703,3704,3705,3706,3707,3708,3709,3710,3711,3712,3713,3714,3715,
3716,3717,3718,3719,3720,3721,3722,3723,3724,3725,3726,3727,3728,3729,3730,3731,3732,3733,3734,3735,3736,3737,3738,3739,3740,3741,3742,3743,3744,3745,3746,3747,3748,3749,3750,3751,3752,3753,3754,3755,
3756,3757,3758,3759,3760,3761,3762,3763,3764,3765,3766,3767,3768,3769,3770,3771,3772,3773,3774,3775,3776,3777,3778,3779,3780,3781,3782,3783,3784,3785,3786,3787,3788,3789,3790,3791,3792,3793,3794,3795,
3796,3797,3798,3799,3800,3801,3802,3803,3804,3805,3806,3807,3808,3809,3810,3811,3812,3813,3814,3815,3816,3817,3818,3819,3820,3821,3822,3823,3824,3825,3826,3827,3828,3829,3830,3831,3832,3833,3834,3835,
3836,3837,3838,3839,3840,3841,3842,3843,3844,3845,3846,3847,3848,3849,3850,3851,3852,3853,3854,3855,3856,3857,3858,3859,3860,3861,3862,3863,3864,3865,3866,3867,3868,3869,3870,3871,3872,3873,3874,3875,
3876,3877,3878,3879,3880,3881,3882,3883,3884,3885,3886,3887,3888,3889,3890,3891,3892,3893,3894,3895,3896,3897,3898,3899,3900,3901,3902,3903,3904,3905,3906,3907,3908,3909,3910,3911,3912,3913,3914,3915,
3916,3917,3918,3919,3920,3921,3922,3923,3924,3925,3926,3927,3928,3929,3930,3931,3932,3933,3934,3935,3936,3937,3938,3939,3940,3941,3942,3943,3944,3945,3946,3947,3948,3949,3950,3951,3952,3953,3954,3955,
3956,3957,3958,3959,3960,3961,3962,3963,3964,3965,3966,3967,3968,3969,3970,3971,3972,3973,3974,3975,3976,3977,3978,3979,3980,3981,3982,3983,3984,3985,3986,3987,3988,3989,3990,3991,3992,3993,3994,3995,
3996,3997,3998,3999,4000,4001,4002,4003,4004,4005,4006,4007,4008,4009,4010,4011,4012,4013,4014,4015,4016,4017,4018,4019,4020,4021,4022,4023,4024,4025,4026,4027,4028,4029,4030,4031,4032,4033,4034,4035,
4036,4037,4038,4039,4040,4041,4042,4043,4044,4045,4046,4047,4048,4049,4050,4051,4052,4053,4054,4055,4056,4057,4058,4059,4060,4061,4062,4063,4064,4065,4066,4067,4068,4069,4070,4071,4072,4073,4074,4075,
4076,4077,4078,4079,4080,4081,4082,4083,4084,4085,4086,4087,4088,4089,4090,4091,4092,4093,4094,4095,4096,4097,4098,4099,4100,4101,4102,4103,4104,4105,4106,4107,4108,4109,4110,4111,4112,4113,4114,4115,
4116,4117,4118,4119,4120,4121,4122,4123,4124,4125,4126,4127,4128,4129,4130,4131,4132,4133,4134,4135,4136,4137,4138,4139,4140,4141,4142,4143,4144,4145,4146,4147,4148,4149,4150,4151,4152,4153,4154,4155,
4156,4157,4158,4159,4160,4161,4162,4163,4164,4165,4166,4167,4168,4169,4170,4171,4172,4173,4174,4175,4176,4177,4178,4179,4180,4181,4182,4183,4184,4185,4186,4187,4188,4189,4190,4191,4192,4193,4194,4195,
4196,4197,4198,4199,4200,4201,4202,4203,4204,4205,4206,4207,4208,4209,4210,4211,4212,4213,4214,4215,4216,4217,4218,4219,4220,4221,4222,4223,4224,4225,4226,4227,4228,4229,4230,4231,4232,4233,4234,4235,
4236,4237,4238,4239,4240,4241,4242,4243,4244,4245,4246,4247,4248,4249,4250,4251,4252,4253,4254,4255,4256,4257,4258,4259,4260,4261,4262,4263,4264,4265,4266,4267,4268,4269,4270,4271,4272,4273,4274,4275,
4276,4277,4278,4279,4280,4281,4282,4283,4284,4285,4286,4287,4288,4289,4290,4291,4292,4293,4294,4295,4296,4297,4298,4299,4300,4301,4302,4303,4304,4305,4306,4307,4308,4309,4310,4311,4312,4313,4314,4315,
4316,4317,4318,4319,4320,4321,4322,4323,4324,4325,4326,4327,4328,4329,4330,4331,4332,4333,4334,4335,4336,4337,4338,4339,4340,4341,4342,4343,4344,4345,4346,4347,4348,4349,4350,4351,4352,4353,4354,4355,
4356,4357,4358,4359,4360,4361,4362,4363,4364,4365,4366,4367,4368,4369,4370,4371,4372,4373,4374,4375,4376,4377,4378,4379,4380,4381,4382,4383,4384,4385,4386,4387,4388,4389,4390,4391,4392,4393,4394,4395,
4396,4397,4398,4399,4400,4401,4402,4403,4404,4405,4406,4407,4408,4409,4410,4411,4412,4413,4414,4415,4416,4417,4418,4419,4420,4421,4422,4423,4424,4425,4426,4427,4428,4429,4430,4431,4432,4433,4434,4435,
4436,4437,4438,4439,4440,4441,4442,4443,4444,4445,4446,4447,4448,4449,4450,4451,4452,4453,4454,4455,4456,4457,4458,4459,4460,4461,4462,4463,4464,4465,4466,4467,4468,4469,4470,4471,4472,4473,4474,4475,
4476,4477,4478,4479,4480,4481,4482,4483,4484,4485,4486,4487,4488,4489,4490,4491,4492,4493,4494,4495,4496,4497,4498,4499,4500,4501,4502,4503,4504,4505,4506,4507,4508,4509,4510,4511,4512,4513,4514,4515,
4516,4517,4518,4519,4520,4521,4522,4523,4524,4525,4526,4527,4528,4529,4530,4531,4532,4533,4534,4535,4536,4537,4538,4539,4540,4541,4542,4543,4544,4545,4546,4547,4548,4549,4550,4551,4552,4553,4554,4555,
4556,4557,4558,4559,4560,4561,4562,4563,4564,4565,4566,4567,4568,4569,4570,4571,4572,4573,4574,4575,4576,4577,4578,4579,4580,4581,4582,4583,4584,4585,4586,4587,4588,4589,4590,4591,4592,4593,4594,4595
</data>
 </layer>
 <objectgroup id="5" name="Back"/>
 <objectgroup id="6" name="Buildings"/>
 <objectgroup id="7" name="Paths"/>
 <objectgroup id="8" name="Front"/>
 <objectgroup id="10" name="AlwaysFront"/>
</map>
