<?xml version="1.0" encoding="UTF-8"?>
<map version="1.10" tiledversion="1.11.2" orientation="orthogonal" renderorder="right-down" width="6" height="11" tilewidth="16" tileheight="16" infinite="0" nextlayerid="18" nextobjectid="140">
 <properties>
  <property name="NPCWarp" value="40 46 Mountain 1 13"/>
  <property name="Outdoors" value="T"/>
 </properties>
 <tileset firstgid="1" name="spring_outdoorsTileSheet" tilewidth="16" tileheight="16" tilecount="1975" columns="25">
  <image source="spring_outdoorsTileSheet.png" trans="000000" width="400" height="1264"/>
  <tile id="150">
   <properties>
    <property name="Type" value="Grass"/>
   </properties>
  </tile>
  <tile id="151">
   <properties>
    <property name="Type" value="Grass"/>
   </properties>
  </tile>
  <tile id="152">
   <properties>
    <property name="Type" value="Grass"/>
   </properties>
  </tile>
  <tile id="153">
   <properties>
    <property name="Diggable" value="T"/>
    <property name="Type" value="Dirt"/>
   </properties>
  </tile>
  <tile id="175">
   <properties>
    <property name="Type" value="Grass"/>
   </properties>
  </tile>
  <tile id="176">
   <properties>
    <property name="Diggable" value="T"/>
    <property name="Type" value="Dirt"/>
   </properties>
  </tile>
  <tile id="177">
   <properties>
    <property name="Type" value="Grass"/>
   </properties>
  </tile>
  <tile id="178">
   <properties>
    <property name="Type" value="Grass"/>
   </properties>
  </tile>
  <tile id="179">
   <properties>
    <property name="Type" value="Grass"/>
   </properties>
  </tile>
  <tile id="180">
   <properties>
    <property name="Type" value="Grass"/>
   </properties>
  </tile>
  <tile id="181">
   <properties>
    <property name="Type" value="Dirt"/>
   </properties>
  </tile>
  <tile id="182">
   <properties>
    <property name="Type" value="Dirt"/>
   </properties>
  </tile>
  <tile id="183">
   <animation>
    <frame tileid="183" duration="1000"/>
    <frame tileid="1182" duration="1000"/>
   </animation>
  </tile>
  <tile id="184">
   <animation>
    <frame tileid="184" duration="1000"/>
    <frame tileid="1183" duration="1000"/>
   </animation>
  </tile>
  <tile id="185">
   <animation>
    <frame tileid="185" duration="1000"/>
    <frame tileid="1184" duration="1000"/>
   </animation>
  </tile>
  <tile id="200">
   <properties>
    <property name="Type" value="Grass"/>
   </properties>
  </tile>
  <tile id="201">
   <properties>
    <property name="Type" value="Grass"/>
   </properties>
  </tile>
  <tile id="202">
   <properties>
    <property name="Type" value="Grass"/>
   </properties>
  </tile>
  <tile id="203">
   <properties>
    <property name="Type" value="Grass"/>
   </properties>
  </tile>
  <tile id="204">
   <properties>
    <property name="Type" value="Grass"/>
   </properties>
  </tile>
  <tile id="205">
   <properties>
    <property name="Type" value="Grass"/>
   </properties>
  </tile>
  <tile id="206">
   <properties>
    <property name="Diggable" value="T"/>
    <property name="Type" value="Dirt"/>
   </properties>
  </tile>
  <tile id="207">
   <properties>
    <property name="Diggable" value="T"/>
    <property name="Type" value="Dirt"/>
   </properties>
  </tile>
  <tile id="208">
   <animation>
    <frame tileid="208" duration="1000"/>
    <frame tileid="1207" duration="1000"/>
   </animation>
  </tile>
  <tile id="210">
   <animation>
    <frame tileid="210" duration="1000"/>
    <frame tileid="1209" duration="1000"/>
   </animation>
  </tile>
  <tile id="225">
   <properties>
    <property name="Type" value="Grass"/>
   </properties>
  </tile>
  <tile id="226">
   <properties>
    <property name="Diggable" value="T"/>
    <property name="Type" value="Dirt"/>
   </properties>
  </tile>
  <tile id="227">
   <properties>
    <property name="Diggable" value="T"/>
    <property name="Type" value="Dirt"/>
   </properties>
  </tile>
  <tile id="228">
   <properties>
    <property name="Type" value="Grass"/>
   </properties>
  </tile>
  <tile id="229">
   <properties>
    <property name="Type" value="Grass"/>
   </properties>
  </tile>
  <tile id="230">
   <properties>
    <property name="Type" value="Grass"/>
   </properties>
  </tile>
  <tile id="231">
   <properties>
    <property name="Type" value="Dirt"/>
   </properties>
  </tile>
  <tile id="233">
   <animation>
    <frame tileid="233" duration="1000"/>
    <frame tileid="1232" duration="1000"/>
   </animation>
  </tile>
  <tile id="235">
   <animation>
    <frame tileid="235" duration="1000"/>
    <frame tileid="1290" duration="1000"/>
   </animation>
  </tile>
  <tile id="250">
   <properties>
    <property name="Type" value="Grass"/>
   </properties>
  </tile>
  <tile id="251">
   <properties>
    <property name="Type" value="Grass"/>
   </properties>
  </tile>
  <tile id="252">
   <properties>
    <property name="Type" value="Grass"/>
   </properties>
  </tile>
  <tile id="253">
   <properties>
    <property name="Type" value="Grass"/>
   </properties>
  </tile>
  <tile id="254">
   <properties>
    <property name="Type" value="Grass"/>
   </properties>
  </tile>
  <tile id="255">
   <properties>
    <property name="Type" value="Grass"/>
   </properties>
  </tile>
  <tile id="256">
   <properties>
    <property name="Type" value="Grass"/>
   </properties>
  </tile>
  <tile id="258">
   <animation>
    <frame tileid="258" duration="1000"/>
    <frame tileid="1257" duration="1000"/>
   </animation>
  </tile>
  <tile id="260">
   <animation>
    <frame tileid="260" duration="1000"/>
    <frame tileid="1315" duration="1000"/>
   </animation>
  </tile>
  <tile id="275">
   <properties>
    <property name="Type" value="Grass"/>
   </properties>
  </tile>
  <tile id="276">
   <properties>
    <property name="Type" value="Grass"/>
   </properties>
  </tile>
  <tile id="277">
   <properties>
    <property name="Type" value="Grass"/>
   </properties>
  </tile>
  <tile id="278">
   <properties>
    <property name="Type" value="Grass"/>
   </properties>
  </tile>
  <tile id="279">
   <properties>
    <property name="Type" value="Grass"/>
   </properties>
  </tile>
  <tile id="281">
   <properties>
    <property name="Type" value="Grass"/>
   </properties>
  </tile>
  <tile id="283">
   <animation>
    <frame tileid="283" duration="1000"/>
    <frame tileid="1312" duration="1000"/>
   </animation>
  </tile>
  <tile id="284">
   <animation>
    <frame tileid="284" duration="1000"/>
    <frame tileid="1313" duration="1000"/>
   </animation>
  </tile>
  <tile id="300">
   <properties>
    <property name="Type" value="Grass"/>
   </properties>
  </tile>
  <tile id="301">
   <properties>
    <property name="Type" value="Grass"/>
   </properties>
  </tile>
  <tile id="302">
   <properties>
    <property name="Type" value="Grass"/>
   </properties>
  </tile>
  <tile id="303">
   <properties>
    <property name="Type" value="Grass"/>
   </properties>
  </tile>
  <tile id="304">
   <properties>
    <property name="Type" value="Grass"/>
   </properties>
  </tile>
  <tile id="305">
   <properties>
    <property name="Type" value="Grass"/>
   </properties>
  </tile>
  <tile id="306">
   <properties>
    <property name="Type" value="Grass"/>
   </properties>
  </tile>
  <tile id="308">
   <animation>
    <frame tileid="308" duration="1000"/>
    <frame tileid="1316" duration="1000"/>
   </animation>
  </tile>
  <tile id="309">
   <animation>
    <frame tileid="309" duration="1000"/>
    <frame tileid="1317" duration="1000"/>
   </animation>
  </tile>
  <tile id="325">
   <properties>
    <property name="Type" value="Grass"/>
   </properties>
  </tile>
  <tile id="326">
   <properties>
    <property name="Type" value="Grass"/>
   </properties>
  </tile>
  <tile id="327">
   <properties>
    <property name="Type" value="Grass"/>
   </properties>
  </tile>
  <tile id="328">
   <properties>
    <property name="Type" value="Grass"/>
   </properties>
  </tile>
  <tile id="329">
   <properties>
    <property name="Type" value="Grass"/>
   </properties>
  </tile>
  <tile id="331">
   <properties>
    <property name="Type" value="Grass"/>
   </properties>
  </tile>
  <tile id="332">
   <properties>
    <property name="Type" value="Grass"/>
   </properties>
  </tile>
  <tile id="350">
   <properties>
    <property name="Type" value="Grass"/>
   </properties>
  </tile>
  <tile id="351">
   <properties>
    <property name="Type" value="Grass"/>
   </properties>
  </tile>
  <tile id="352">
   <properties>
    <property name="Type" value="Grass"/>
   </properties>
  </tile>
  <tile id="353">
   <properties>
    <property name="Type" value="Grass"/>
   </properties>
  </tile>
  <tile id="354">
   <properties>
    <property name="Type" value="Grass"/>
   </properties>
  </tile>
  <tile id="355">
   <properties>
    <property name="Type" value="Grass"/>
   </properties>
  </tile>
  <tile id="356">
   <properties>
    <property name="Type" value="Grass"/>
   </properties>
  </tile>
  <tile id="357">
   <properties>
    <property name="Type" value="Grass"/>
   </properties>
  </tile>
  <tile id="375">
   <properties>
    <property name="Type" value="Grass"/>
   </properties>
  </tile>
  <tile id="376">
   <properties>
    <property name="Type" value="Grass"/>
   </properties>
  </tile>
  <tile id="377">
   <properties>
    <property name="Type" value="Grass"/>
   </properties>
  </tile>
  <tile id="378">
   <properties>
    <property name="Type" value="Grass"/>
   </properties>
  </tile>
  <tile id="379">
   <properties>
    <property name="Type" value="Grass"/>
   </properties>
  </tile>
  <tile id="380">
   <properties>
    <property name="Type" value="Grass"/>
   </properties>
  </tile>
  <tile id="381">
   <properties>
    <property name="Type" value="Grass"/>
   </properties>
  </tile>
  <tile id="382">
   <properties>
    <property name="Type" value="Grass"/>
   </properties>
  </tile>
  <tile id="400">
   <properties>
    <property name="Type" value="Grass"/>
   </properties>
  </tile>
  <tile id="401">
   <properties>
    <property name="Type" value="Grass"/>
   </properties>
  </tile>
  <tile id="402">
   <properties>
    <property name="Type" value="Grass"/>
   </properties>
  </tile>
  <tile id="403">
   <properties>
    <property name="Type" value="Grass"/>
   </properties>
  </tile>
  <tile id="404">
   <properties>
    <property name="Type" value="Grass"/>
   </properties>
  </tile>
  <tile id="405">
   <properties>
    <property name="Type" value="Grass"/>
   </properties>
  </tile>
  <tile id="406">
   <properties>
    <property name="Type" value="Grass"/>
   </properties>
  </tile>
  <tile id="407">
   <properties>
    <property name="Type" value="Grass"/>
   </properties>
  </tile>
  <tile id="433">
   <properties>
    <property name="Type" value="Dirt"/>
   </properties>
  </tile>
  <tile id="463">
   <properties>
    <property name="Type" value="Dirt"/>
   </properties>
  </tile>
  <tile id="471">
   <properties>
    <property name="Type" value="Dirt"/>
   </properties>
  </tile>
  <tile id="472">
   <properties>
    <property name="Type" value="Dirt"/>
   </properties>
  </tile>
  <tile id="473">
   <properties>
    <property name="Type" value="Dirt"/>
   </properties>
  </tile>
  <tile id="488">
   <properties>
    <property name="Type" value="Dirt"/>
   </properties>
  </tile>
  <tile id="513">
   <properties>
    <property name="Type" value="Dirt"/>
   </properties>
  </tile>
  <tile id="1240">
   <properties>
    <property name="Water" value="T"/>
   </properties>
  </tile>
  <tile id="1241">
   <properties>
    <property name="Water" value="T"/>
   </properties>
  </tile>
  <tile id="1242">
   <properties>
    <property name="Water" value="T"/>
   </properties>
  </tile>
  <tile id="1243">
   <properties>
    <property name="Water" value="T"/>
   </properties>
  </tile>
  <tile id="1244">
   <properties>
    <property name="Water" value="T"/>
   </properties>
  </tile>
  <tile id="1245">
   <properties>
    <property name="Water" value="T"/>
   </properties>
  </tile>
  <tile id="1246">
   <properties>
    <property name="Water" value="T"/>
   </properties>
  </tile>
  <tile id="1247">
   <properties>
    <property name="Water" value="T"/>
   </properties>
  </tile>
  <tile id="1248">
   <properties>
    <property name="Water" value="T"/>
   </properties>
  </tile>
  <tile id="1249">
   <properties>
    <property name="Water" value="T"/>
   </properties>
  </tile>
  <tile id="1265">
   <properties>
    <property name="Water" value="T"/>
   </properties>
  </tile>
  <tile id="1266">
   <properties>
    <property name="Water" value="T"/>
   </properties>
  </tile>
  <tile id="1267">
   <properties>
    <property name="Water" value="T"/>
   </properties>
  </tile>
  <tile id="1268">
   <properties>
    <property name="Water" value="T"/>
   </properties>
  </tile>
  <tile id="1269">
   <properties>
    <property name="Water" value="T"/>
   </properties>
  </tile>
  <tile id="1270">
   <properties>
    <property name="Water" value="T"/>
   </properties>
  </tile>
  <tile id="1271">
   <properties>
    <property name="Water" value="T"/>
   </properties>
  </tile>
  <tile id="1272">
   <properties>
    <property name="Water" value="T"/>
   </properties>
  </tile>
  <tile id="1273">
   <properties>
    <property name="Water" value="T"/>
   </properties>
  </tile>
  <tile id="1274">
   <properties>
    <property name="Water" value="T"/>
   </properties>
  </tile>
  <tile id="1297">
   <properties>
    <property name="Water" value="T"/>
   </properties>
  </tile>
  <tile id="1298">
   <properties>
    <property name="Water" value="T"/>
   </properties>
  </tile>
  <tile id="1299">
   <properties>
    <property name="Water" value="T"/>
   </properties>
  </tile>
  <tile id="1322">
   <properties>
    <property name="Water" value="T"/>
   </properties>
  </tile>
  <tile id="1323">
   <properties>
    <property name="Water" value="T"/>
   </properties>
  </tile>
  <tile id="1324">
   <properties>
    <property name="Water" value="T"/>
   </properties>
  </tile>
  <wangsets>
   <wangset name="Ground" type="corner" tile="-1">
    <wangcolor name="Dirt" color="#ff0000" tile="-1" probability="1"/>
    <wangcolor name="Light Grass" color="#00ff00" tile="-1" probability="1"/>
    <wangcolor name="Dark Grass" color="#0000ff" tile="-1" probability="1"/>
    <wangcolor name="Darkest Grass" color="#ff7700" tile="-1" probability="1"/>
    <wangcolor name="Mountain Grass" color="#00e9ff" tile="-1" probability="1"/>
    <wangcolor name="Mountain Dirt" color="#ff00d8" tile="-1" probability="1"/>
    <wangcolor name="Water" color="#ffff00" tile="-1" probability="1"/>
    <wangtile tileid="175" wangid="0,2,0,2,0,2,0,2"/>
    <wangtile tileid="177" wangid="0,2,0,1,0,1,0,1"/>
    <wangtile tileid="178" wangid="0,1,0,2,0,1,0,1"/>
    <wangtile tileid="183" wangid="0,1,0,7,0,1,0,1"/>
    <wangtile tileid="184" wangid="0,1,0,7,0,7,0,1"/>
    <wangtile tileid="185" wangid="0,1,0,1,0,7,0,1"/>
    <wangtile tileid="200" wangid="0,2,0,1,0,2,0,2"/>
    <wangtile tileid="201" wangid="0,2,0,1,0,1,0,2"/>
    <wangtile tileid="202" wangid="0,1,0,1,0,1,0,2"/>
    <wangtile tileid="203" wangid="0,2,0,2,0,1,0,2"/>
    <wangtile tileid="204" wangid="0,1,0,0,0,2,0,0"/>
    <wangtile tileid="208" wangid="0,7,0,7,0,1,0,1"/>
    <wangtile tileid="209" wangid="0,7,0,7,0,7,0,7"/>
    <wangtile tileid="210" wangid="0,1,0,1,0,7,0,7"/>
    <wangtile tileid="225" wangid="0,1,0,1,0,2,0,2"/>
    <wangtile tileid="226" wangid="0,1,0,1,0,1,0,1"/>
    <wangtile tileid="228" wangid="0,2,0,2,0,1,0,1"/>
    <wangtile tileid="233" wangid="0,7,0,7,0,1,0,1"/>
    <wangtile tileid="235" wangid="0,1,0,1,0,7,0,7"/>
    <wangtile tileid="250" wangid="0,1,0,2,0,2,0,2"/>
    <wangtile tileid="251" wangid="0,1,0,2,0,2,0,1"/>
    <wangtile tileid="252" wangid="0,1,0,1,0,2,0,1"/>
    <wangtile tileid="253" wangid="0,2,0,2,0,2,0,1"/>
    <wangtile tileid="258" wangid="0,7,0,1,0,1,0,1"/>
    <wangtile tileid="259" wangid="0,7,0,1,0,1,0,7"/>
    <wangtile tileid="260" wangid="0,1,0,1,0,1,0,7"/>
    <wangtile tileid="283" wangid="0,7,0,7,0,7,0,1"/>
    <wangtile tileid="284" wangid="0,1,0,7,0,7,0,7"/>
    <wangtile tileid="308" wangid="0,7,0,7,0,1,0,7"/>
    <wangtile tileid="309" wangid="0,7,0,1,0,7,0,7"/>
    <wangtile tileid="325" wangid="0,2,0,3,0,2,0,2"/>
    <wangtile tileid="326" wangid="0,2,0,3,0,3,0,2"/>
    <wangtile tileid="327" wangid="0,2,0,2,0,3,0,2"/>
    <wangtile tileid="328" wangid="0,3,0,3,0,3,0,2"/>
    <wangtile tileid="332" wangid="0,4,0,4,0,4,0,3"/>
    <wangtile tileid="350" wangid="0,3,0,3,0,2,0,2"/>
    <wangtile tileid="351" wangid="0,3,0,3,0,3,0,3"/>
    <wangtile tileid="352" wangid="0,2,0,2,0,3,0,3"/>
    <wangtile tileid="353" wangid="0,3,0,2,0,3,0,3"/>
    <wangtile tileid="354" wangid="0,3,0,4,0,3,0,3"/>
    <wangtile tileid="355" wangid="0,3,0,4,0,4,0,3"/>
    <wangtile tileid="356" wangid="0,3,0,3,0,4,0,3"/>
    <wangtile tileid="357" wangid="0,4,0,3,0,4,0,4"/>
    <wangtile tileid="375" wangid="0,3,0,2,0,2,0,2"/>
    <wangtile tileid="376" wangid="0,3,0,2,0,2,0,3"/>
    <wangtile tileid="377" wangid="0,2,0,2,0,2,0,3"/>
    <wangtile tileid="378" wangid="0,2,0,3,0,3,0,3"/>
    <wangtile tileid="379" wangid="0,4,0,4,0,3,0,3"/>
    <wangtile tileid="380" wangid="0,4,0,4,0,4,0,4"/>
    <wangtile tileid="381" wangid="0,3,0,3,0,4,0,4"/>
    <wangtile tileid="382" wangid="0,3,0,4,0,4,0,4"/>
    <wangtile tileid="403" wangid="0,3,0,3,0,2,0,3"/>
    <wangtile tileid="404" wangid="0,4,0,3,0,3,0,3"/>
    <wangtile tileid="405" wangid="0,4,0,3,0,3,0,4"/>
    <wangtile tileid="406" wangid="0,3,0,3,0,3,0,4"/>
    <wangtile tileid="407" wangid="0,4,0,4,0,3,0,4"/>
    <wangtile tileid="631" wangid="0,5,0,6,0,6,0,6"/>
    <wangtile tileid="632" wangid="0,6,0,5,0,6,0,6"/>
    <wangtile tileid="654" wangid="0,5,0,6,0,5,0,5"/>
    <wangtile tileid="655" wangid="0,5,0,6,0,6,0,5"/>
    <wangtile tileid="656" wangid="0,6,0,6,0,6,0,5"/>
    <wangtile tileid="657" wangid="0,5,0,5,0,6,0,5"/>
    <wangtile tileid="658" wangid="0,6,0,0,0,5,0,0"/>
    <wangtile tileid="679" wangid="0,6,0,6,0,5,0,5"/>
    <wangtile tileid="680" wangid="0,6,0,6,0,6,0,6"/>
    <wangtile tileid="682" wangid="0,5,0,5,0,6,0,6"/>
    <wangtile tileid="704" wangid="0,6,0,5,0,5,0,5"/>
    <wangtile tileid="705" wangid="0,6,0,5,0,5,0,6"/>
    <wangtile tileid="706" wangid="0,6,0,6,0,5,0,6"/>
    <wangtile tileid="707" wangid="0,5,0,5,0,5,0,6"/>
    <properties>
     <property name="Water" value="T"/>
    </properties>
   </wangset>
  </wangsets>
 </tileset>
 <tileset firstgid="1976" name="paths" tilewidth="16" tileheight="16" tilecount="64" columns="4">
  <image source="paths.png" trans="000000" width="64" height="256"/>
 </tileset>
 <tileset firstgid="2040" name="spring_town" tilewidth="16" tileheight="16" tilecount="2304" columns="32">
  <image source="spring_town.png" trans="000000" width="512" height="1152"/>
 </tileset>
 <layer id="1" name="Back" width="6" height="11">
  <data encoding="csv">
406,407,329,353,176,226,
352,352,352,353,176,226,
355,356,357,353,176,251,
380,381,382,353,176,176,
405,406,407,353,256,176,
377,377,377,378,201,202,
202,202,202,202,203,154,
227,227,177,232,154,177,
252,252,252,252,252,252,
327,327,327,327,328,176,
377,377,377,377,378,176
</data>
 </layer>
 <layer id="4" name="Buildings" width="6" height="11">
  <data encoding="csv">
0,0,0,412,270,0,
308,0,0,437,270,0,
0,0,357,0,384,385,
233,137,110,0,0,0,
405,406,258,0,0,0,
0,0,0,0,0,0,
0,0,0,0,0,0,
0,0,0,0,0,0,
0,0,0,0,0,0,
327,327,308,0,0,0,
0,2925,0,0,0,0
</data>
 </layer>
 <layer id="8" name="Paths" width="6" height="11">
  <data encoding="csv">
0,0,0,0,0,0,
0,0,0,0,0,0,
0,0,0,2002,0,0,
0,0,0,0,2001,0,
0,0,0,0,0,0,
0,0,0,0,0,0,
0,0,0,0,0,0,
0,0,0,0,0,0,
0,0,0,0,0,0,
0,0,0,0,2002,0,
0,0,0,0,0,0
</data>
 </layer>
 <layer id="6" name="Front" width="6" height="11">
  <data encoding="csv">
0,0,0,0,245,0,
0,0,0,0,359,360,
0,112,0,0,0,0,
0,0,0,0,0,0,
0,0,0,0,0,0,
0,0,0,0,0,0,
0,0,0,0,0,0,
0,0,0,0,0,0,
0,0,0,0,0,0,
0,0,0,0,0,0,
0,0,0,0,0,0
</data>
 </layer>
 <layer id="9" name="AlwaysFront" width="6" height="11">
  <data encoding="csv">
61,62,63,0,0,0,
86,87,88,0,0,0,
0,0,0,0,0,0,
0,0,0,0,0,0,
0,0,0,0,0,0,
0,0,0,0,0,0,
0,0,0,0,0,0,
0,0,0,0,0,0,
0,0,0,0,0,0,
0,0,0,0,0,0,
0,0,0,0,0,0
</data>
 </layer>
 <objectgroup id="2" name="Back"/>
 <objectgroup id="3" name="Buildings"/>
 <objectgroup id="7" name="Paths"/>
 <objectgroup id="5" name="Front"/>
 <objectgroup id="10" name="AlwaysFront"/>
</map>
